;FLAVOR:Marlin
;TIME:425
;Filament used: 0.287207m
;Layer height: 0.2
;MINX:0
;MINY:0
;MINZ:0.3
;MAXX:123.332
;MAXY:123.332
;MAXZ:1.975
;TARGET_MACHINE.NAME:Anycubic i3 Mega S/Pro
;Generated with Cura_SteamEngine 5.11.0
;Profil Homepage: https://github.com/NilsRo/Cura_Anycubic_MegaS_Profile

;Slicer Information - (Support for OctoPrint Slicer Estimator)
;Slicer info:material_guid;0ff92885-617b-4144-a03c-9989872454bc
;Slicer info:material_id;generic_pla_175
;Slicer info:material_brand;Generic
;Slicer info:material_name;PLA
;Slicer info:filament_cost;[0.0];Slicer info:material_bed_temperature;60
;Slicer info:material_bed_temperature_layer_0;60
;Slicer info:material_print_temperature;200
;Slicer info:material_print_temperature_layer_0;205
;Slicer info:material_flow;100
;Slicer info:layer_height;0.2
;Slicer info:machine_nozzle_size;0.4
;Slicer info:wall_thickness;1.2000000000000002
;Slicer info:speed_print;50.0
;Slicer info:speed_topbottom;25.0
;Slicer info:travel_speed;100.0
;Slicer info:support;0
;Slicer info:retraction_speed;30
;Slicer info:retraction_amount;6
;Slicer info:layer_height;0.2
;Slicer info:infill_pattern;grid
;Slicer info:infill_sparse_density;25
;Slicer info:cool_fan_enabled;True
;Slicer info:cool_fan_speed;100
;Slicer info:sliced_at;Fri 12-12-2025 23:18:43
G21                                        ; metric values 
G90                                        ; absolute positioning 
M82                                        ; set extruder to absolute mode 
M900 K0                                    ; disable lin. adv. if not set in GCODE
M107                                       ; start with the fan off 
M140 S60   ; Start heating the bed 
G4 S60                                     ; wait 1 minute 
M104 S205 ; start heating the hot end 
M190 S60   ; wait for bed 
M109 S205 ; wait for hotend 
M300 S1000 P500                            ; BEEP heating done 
G28 X0 Y10 Z0                              ; move X/Y to min endstops 
M420 S1                                    ; Enable leveling 
M420 Z2.0                                  ; Set leveling fading height to 2 mm 
G0 Z0.15                                   ; lift nozzle a bit 
G92 E0                                     ; zero the extruded length 
G1 X50 E20 F500                            ; Extrude 20mm of filament in a 5cm line. 
G92 E0                                     ; zero the extruded length again 
G1 E-2 F500                                ; Retract a little 
G1 X50 F500                                ; wipe away from the filament line
G1 X100 F9000                              ; Quickly wipe away from the filament line
M82 ;absolute extrusion mode
G92 E0
G92 E0
G1 F1800 E-6
;LAYER_COUNT:9
;LAYER:0
M106 S76.5
M205 X10 Y10
G1 F480 Z0.375
G0 F6000 X0.00 Y0.00 Z0.375
G0 X92.459 Y91.627
M205 X8 Y8
;TYPE:SKIRT
G1 F480 Z0.3
G1 F1800 E0
G1 F1200 X93.453 Y90.625 E0.07041
G1 X94.063 Y90.094 E0.11076
G1 X94.531 Y89.758 E0.13951
G1 X95.463 Y89.158 E0.19481
G1 X96.238 Y88.788 E0.23765
G1 X98.55 Y87.839 E0.36234
G1 X99.847 Y87.295 E0.43251
G1 X100.82 Y86.98 E0.48353
G1 X102.171 Y86.721 E0.55216
G1 X102.507 Y86.939 E0.57214
G1 X102.721 Y86.774 E0.58562
G1 X103.097 Y86.669 E0.6051
G1 X105.622 Y86.677 E0.73107
G1 X106.977 Y86.668 E0.79867
G1 X107.536 Y86.694 E0.82659
G1 X108.388 Y86.822 E0.86958
G1 X109.197 Y86.995 E0.91085
G1 X109.974 Y87.219 E0.95119
G1 X112.82 Y88.406 E1.10504
G1 X113.854 Y88.826 E1.16072
G1 X114.435 Y89.105 E1.19287
G1 X115.066 Y89.49 E1.22975
G1 X115.732 Y89.945 E1.26999
G1 X116.396 Y90.47 E1.31222
G1 X119.538 Y93.618 E1.53412
G1 X120.123 Y94.343 E1.58059
G1 X120.718 Y95.26 E1.63513
G1 X121.212 Y96.238 E1.68979
G1 X122.685 Y99.813 E1.8827
G1 X123.029 Y100.852 E1.9373
G1 X123.238 Y101.968 E1.99395
G1 X123.332 Y102.779 E2.03468
G1 X123.323 Y105.628 E2.17682
G1 X123.332 Y106.977 E2.24412
G1 X123.306 Y107.536 E2.27204
G1 X123.178 Y108.388 E2.31502
G1 X123.005 Y109.198 E2.35634
G1 X122.796 Y109.931 E2.39437
G1 X121.601 Y112.801 E2.54947
G1 X121.178 Y113.842 E2.60553
G1 X120.683 Y114.808 E2.65968
G1 X120.056 Y115.731 E2.71535
G1 X119.536 Y116.389 E2.75719
G1 X116.551 Y119.372 E2.96773
G1 X115.991 Y119.865 E3.00495
G1 X115.469 Y120.242 E3.03708
G1 X114.537 Y120.842 E3.09238
G1 X113.762 Y121.212 E3.13522
G1 X111.451 Y122.161 E3.25986
G1 X110.153 Y122.705 E3.33008
G1 X109.18 Y123.02 E3.3811
G1 X108.004 Y123.241 E3.4408
G1 X106.982 Y123.332 E3.49199
G1 X104.405 Y123.323 E3.62056
G1 X102.992 Y123.33 E3.69105
G1 X101.956 Y123.247 E3.7429
G1 X100.829 Y123.012 E3.80034
G1 X100.061 Y122.793 E3.84018
G1 X96.127 Y121.163 E4.05263
G1 X95.192 Y120.683 E4.10507
G1 X94.269 Y120.056 E4.16073
G1 X93.604 Y119.53 E4.20304
G1 X91.627 Y117.541 E4.34295
G1 X90.635 Y116.558 E4.41262
G1 X90.186 Y116.056 E4.44622
G1 X89.758 Y115.469 E4.48247
G1 X89.158 Y114.537 E4.53777
G1 X88.788 Y113.762 E4.58061
G1 X87.837 Y111.445 E4.70557
G1 X87.295 Y110.153 E4.77547
G1 X86.98 Y109.18 E4.82649
G1 X86.765 Y108.053 E4.88373
G1 X86.668 Y107.215 E4.92582
G1 X86.677 Y104.372 E5.06766
G1 X86.668 Y103.023 E5.13496
G1 X86.694 Y102.464 E5.16288
G1 X86.822 Y101.611 E5.20591
G1 X86.997 Y100.796 E5.2475
G1 X87.206 Y100.062 E5.28557
G1 X88.407 Y97.179 E5.44139
G1 X88.822 Y96.158 E5.49637
G1 X89.317 Y95.192 E5.55053
G1 X89.944 Y94.269 E5.60619
G1 X90.47 Y93.604 E5.64849
G1 X92.459 Y91.627 E5.78841
M205 X10 Y10
G0 F6000 X92.741 Y91.911
M205 X8 Y8
G1 F1200 X93.716 Y90.927 E5.85752
G1 X94.326 Y90.396 E5.89786
G1 X94.748 Y90.094 E5.92375
G1 X95.636 Y89.519 E5.97653
G1 X96.39 Y89.158 E6.01824
G1 X98.705 Y88.208 E6.14308
G1 X99.97 Y87.676 E6.21155
G1 X100.943 Y87.361 E6.26257
G1 X102.117 Y87.139 E6.32218
G1 X102.436 Y87.395 E6.34259
G1 X102.482 Y87.757 E6.36079
G1 X102.731 Y87.727 E6.3733
G1 X102.737 Y87.29 E6.39511
G1 X102.85 Y87.153 E6.40397
G1 X103.096 Y87.069 E6.41694
G1 X105.624 Y87.077 E6.54306
G1 X106.96 Y87.068 E6.60971
G1 X107.477 Y87.09 E6.63553
G1 X108.329 Y87.218 E6.67851
G1 X109.088 Y87.38 E6.71723
G1 X109.82 Y87.588 E6.7552
G1 X112.67 Y88.777 E6.90926
G1 X113.681 Y89.187 E6.96369
G1 X114.262 Y89.466 E6.99585
G1 X114.84 Y89.82 E7.02966
G1 X115.506 Y90.275 E7.0699
G1 X116.112 Y90.752 E7.10838
G1 X118.081 Y92.733 E7.24773
G1 X119.227 Y93.87 E7.32827
G1 X119.787 Y94.561 E7.37264
G1 X120.382 Y95.478 E7.42718
G1 X120.842 Y96.39 E7.47814
G1 X122.305 Y99.939 E7.66965
G1 X122.649 Y100.978 E7.72425
G1 X122.841 Y102.015 E7.77687
G1 X122.932 Y102.778 E7.81521
G1 X122.923 Y105.627 E7.95734
G1 X122.932 Y106.96 E8.02385
G1 X122.91 Y107.477 E8.04967
G1 X122.782 Y108.329 E8.09265
G1 X122.62 Y109.088 E8.13137
G1 X122.411 Y109.821 E8.1694
G1 X121.23 Y112.65 E8.32234
G1 X120.807 Y113.691 E8.3784
G1 X120.352 Y114.583 E8.42836
G1 X119.725 Y115.506 E8.48403
G1 X119.253 Y116.106 E8.52211
G1 X116.286 Y119.072 E8.73141
G1 X115.756 Y119.541 E8.76672
G1 X115.252 Y119.906 E8.79777
G1 X114.364 Y120.481 E8.85055
G1 X113.61 Y120.842 E8.89225
G1 X111.296 Y121.792 E9.01705
G1 X110.03 Y122.324 E9.08556
G1 X109.057 Y122.639 E9.13659
G1 X107.968 Y122.843 E9.19186
G1 X106.983 Y122.932 E9.2412
G1 X104.404 Y122.923 E9.36987
G1 X103.023 Y122.931 E9.43877
G1 X102.038 Y122.855 E9.48806
G1 X100.911 Y122.62 E9.54549
G1 X100.171 Y122.408 E9.5839
G1 X97.33 Y121.223 E9.73747
G1 X96.309 Y120.807 E9.79247
G1 X95.417 Y120.352 E9.84243
G1 X94.494 Y119.725 E9.8981
G1 X93.888 Y119.248 E9.93658
G1 X91.911 Y117.259 E10.07649
G1 X90.932 Y116.29 E10.14521
G1 X90.509 Y115.82 E10.17676
G1 X90.094 Y115.252 E10.21185
G1 X89.519 Y114.364 E10.26463
G1 X89.158 Y113.61 E10.30634
G1 X88.207 Y111.293 E10.43129
G1 X87.676 Y110.03 E10.49965
G1 X87.361 Y109.057 E10.55067
G1 X87.158 Y107.979 E10.6054
G1 X87.068 Y107.216 E10.64373
G1 X87.077 Y104.373 E10.78556
G1 X87.068 Y103.04 E10.85207
G1 X87.09 Y102.523 E10.87789
G1 X87.218 Y101.67 E10.92092
G1 X87.382 Y100.906 E10.9599
G1 X87.591 Y100.172 E10.99798
G1 X88.778 Y97.33 E11.15164
G1 X89.193 Y96.309 E11.20662
G1 X89.648 Y95.417 E11.25658
G1 X90.275 Y94.494 E11.31225
G1 X90.752 Y93.888 E11.35072
G1 X92.741 Y91.911 E11.49064
M205 X10 Y10
G1 F1800 E5.49064
G1 F480 Z0.375
G0 F6000 X92.741 Y91.911 Z0.375
G0 X102.115 Y87.801
M205 X8 Y8
G1 F480 Z0.3
G1 F1800 E11.49064
G1 F1200 X102.069 Y87.555 E11.50312
G1 X101.066 Y87.742 E11.55402
G1 X100.093 Y88.057 E11.60505
G1 X98.86 Y88.577 E11.67181
G1 X96.542 Y89.528 E11.79681
G1 X95.809 Y89.88 E11.83738
G1 X94.966 Y90.429 E11.88757
G1 X94.559 Y90.721 E11.91256
G1 X93.979 Y91.228 E11.95099
G1 X93.023 Y92.195 E12.01883
G1 X91.034 Y94.172 E12.15874
G1 X90.59 Y94.74 E12.19471
G1 X90.004 Y95.599 E12.24659
G1 X89.549 Y96.491 E12.29654
G1 X89.147 Y97.484 E12.34999
G1 X87.96 Y100.326 E12.50365
G1 X87.767 Y101.014 E12.5393
G1 X87.609 Y101.754 E12.57705
G1 X87.49 Y102.54 E12.61671
G1 X87.468 Y103.057 E12.64253
G1 X87.477 Y104.374 E12.70823
G1 X87.468 Y107.217 E12.85007
G1 X87.555 Y107.931 E12.88596
G1 X87.742 Y108.934 E12.93686
G1 X88.057 Y109.907 E12.98788
G1 X88.577 Y111.141 E13.05469
G1 X89.528 Y113.458 E13.17964
G1 X89.88 Y114.191 E13.22021
G1 X90.429 Y115.034 E13.2704
G1 X90.832 Y115.584 E13.30442
G1 X91.228 Y116.021 E13.33384
G1 X92.195 Y116.977 E13.40168
G1 X94.172 Y118.966 E13.54159
G1 X94.74 Y119.41 E13.57756
G1 X95.599 Y119.996 E13.62944
G1 X96.491 Y120.451 E13.6794
G1 X97.48 Y120.852 E13.73264
G1 X100.325 Y122.039 E13.88644
G1 X101.02 Y122.235 E13.92246
G1 X102.069 Y122.456 E13.97595
G1 X103.054 Y122.532 E14.02523
G1 X104.402 Y122.523 E14.09249
G1 X106.984 Y122.532 E14.2213
G1 X107.931 Y122.445 E14.26875
G1 X108.934 Y122.258 E14.31965
G1 X109.907 Y121.943 E14.37067
G1 X111.141 Y121.423 E14.43748
G1 X113.458 Y120.472 E14.56244
G1 X114.191 Y120.12 E14.603
G1 X115.034 Y119.571 E14.65319
G1 X115.491 Y119.241 E14.68132
G1 X116.021 Y118.772 E14.71662
G1 X118.97 Y115.823 E14.92469
G1 X119.41 Y115.26 E14.96034
G1 X119.996 Y114.401 E15.01222
G1 X120.451 Y113.509 E15.06218
G1 X120.861 Y112.496 E15.1167
G1 X122.042 Y109.667 E15.26964
G1 X122.235 Y108.98 E15.30524
G1 X122.391 Y108.246 E15.34268
G1 X122.51 Y107.46 E15.38234
G1 X122.532 Y106.943 E15.40816
G1 X122.523 Y105.626 E15.47386
G1 X122.532 Y102.777 E15.616
G1 X122.444 Y102.064 E15.65184
G1 X122.256 Y101.051 E15.70325
G1 X121.936 Y100.093 E15.75364
G1 X120.472 Y96.542 E15.94526
G1 X120.046 Y95.696 E15.99252
G1 X119.451 Y94.779 E16.04705
G1 X118.917 Y94.122 E16.08929
G1 X117.797 Y93.015 E16.16786
G1 X115.828 Y91.034 E16.30721
G1 X115.26 Y90.59 E16.34317
G1 X114.615 Y90.15 E16.38213
G1 X114.089 Y89.827 E16.41292
G1 X113.508 Y89.548 E16.44508
G1 X112.52 Y89.148 E16.49826
G1 X109.666 Y87.957 E16.65254
G1 X108.98 Y87.765 E16.68808
G1 X108.246 Y87.609 E16.72552
G1 X107.46 Y87.49 E16.76518
G1 X106.943 Y87.468 E16.791
G1 X105.626 Y87.477 E16.8567
G1 X103.095 Y87.469 E16.98298
G1 X103.091 Y87.719 E16.99545
M205 X10 Y10
G1 F1800 E10.99545
G1 F480 Z0.375
;MESH:v19a - gear.stl
G0 F6000 X103.091 Y87.719 Z0.375
G0 X94.603 Y107.257
M205 X8 Y8
;TYPE:WALL-INNER
G1 F480 Z0.3
G1 F1800 E16.99545
G1 F1315.1 X94.988 Y107.17 E17.01342
G1 F926.6 X95.339 Y106.921 E17.04122
G1 X94.923 Y106.82 E17.06888
G1 F1315.1 X94.621 Y106.867 E17.0828
G1 F1286.9 X93.994 Y107.176 E17.11532
G1 X94.603 Y107.257 E17.1439
M205 X10 Y10
G1 F1800 E11.1439
G1 F480 Z0.375
G0 F6000 X94.603 Y107.257 Z0.375
G0 X103.265 Y114.513
M205 X8 Y8
G1 F480 Z0.3
G1 F1800 E17.1439
G1 F1230.8 X103.784 Y113.822 E17.18593
G1 F1200 X104.094 Y113.621 E17.20437
G1 X104.781 Y113.366 E17.24093
G1 X105.671 Y113.467 E17.28561
G1 X106.276 Y113.887 E17.32236
G1 X106.638 Y114.36 E17.35207
G1 F858.7 X106.889 Y114.495 E17.37194
G1 X107.071 Y114.275 E17.39185
G1 F1200 X107.248 Y113.586 E17.42734
G1 X107.788 Y112.985 E17.46765
G1 X108.134 Y112.769 E17.488
G1 X108.881 Y112.601 E17.5262
G1 X109.218 Y112.624 E17.54305
G1 X109.792 Y112.816 E17.57325
G1 F1221.4 X110.27 Y113.209 E17.60358
G1 F1266.5 X110.747 Y113.952 E17.64532
G1 F1315.1 X111.229 Y114.323 E17.67301
G1 X111.082 Y113.781 E17.69857
G1 F1256.5 X110.523 Y112.966 E17.74566
G1 F1212.1 X110.359 Y112.138 E17.78735
G1 F1200 X110.559 Y111.39 E17.82598
G1 X110.988 Y110.842 E17.8607
G1 X111.611 Y110.467 E17.89698
G1 X112.364 Y110.385 E17.93477
G1 F1224.5 X113.019 Y110.557 E17.96788
G1 F1276.6 X113.777 Y111.081 E18.01109
G1 F1318.7 X114.321 Y111.227 E18.03667
G1 X113.953 Y110.748 E18.06409
G1 F1276.6 X113.215 Y110.273 E18.10525
G1 F1224.5 X112.854 Y109.886 E18.13112
G1 F1200 X112.602 Y109.201 E18.16754
G1 X112.653 Y108.39 E18.20808
G1 X113.05 Y107.669 E18.24914
G1 X113.615 Y107.261 E18.28391
G1 F1218.3 X114.294 Y107.054 E18.31879
G1 F1250 X115.377 Y107.25 E18.37151
G1 F1283.4 X115.999 Y107.174 E18.40074
G1 F1293.8 X115.352 Y106.858 E18.43406
G1 F1297.3 X114.693 Y106.756 E18.46483
G1 F1250 X114.344 Y106.604 E18.48306
G1 F1200 X113.828 Y106.222 E18.51509
G1 X113.625 Y105.913 E18.53354
G1 X113.38 Y105.092 E18.57628
G1 X113.447 Y104.5 E18.60601
G1 X113.592 Y104.146 E18.62509
G1 X113.947 Y103.632 E18.65626
G1 F1259.8 X114.71 Y103.244 E18.69693
G1 F1333.3 X115.487 Y103.082 E18.73257
G1 F1337 X116.043 Y102.819 E18.76011
G1 X115.399 Y102.732 E18.78921
G1 F1293.8 X114.411 Y102.965 E18.83618
G1 F1224.5 X113.589 Y102.746 E18.87777
G1 F1200 X112.959 Y102.191 E18.91966
G1 X112.771 Y101.868 E18.93831
G1 X112.619 Y101.195 E18.97273
G1 X112.623 Y100.784 E18.99323
G1 X112.824 Y100.205 E19.02381
G1 F1273.2 X113.295 Y99.663 E19.05758
G1 F1355.9 X113.947 Y99.258 E19.09147
G1 F1348.3 X114.323 Y98.767 E19.11892
G1 X113.74 Y98.924 E19.14573
G1 F1322.3 X113.507 Y99.097 E19.15887
G1 F1269.8 X112.898 Y99.499 E19.19328
G1 F1237.1 X112.131 Y99.636 E19.23098
G1 F1212.1 X111.387 Y99.435 E19.26905
G1 F1200 X110.842 Y99.008 E19.30359
G1 X110.467 Y98.385 E19.33987
G1 X110.385 Y97.632 E19.37765
G1 F1246.8 X110.535 Y97.012 E19.40829
G1 F1326 X111.08 Y96.222 E19.45162
G1 F1348.3 X111.227 Y95.676 E19.47673
G1 X110.744 Y96.046 E19.50374
G1 F1318.7 X110.207 Y96.898 E19.54946
G1 F1237.1 X109.759 Y97.189 E19.57532
G1 F1200 X109.2 Y97.394 E19.60502
G1 X108.349 Y97.34 E19.64756
G1 X107.65 Y96.918 E19.6883
G1 X107.26 Y96.38 E19.72145
G1 F1221.4 X107.049 Y95.682 E19.75719
G1 F1263.2 X107.251 Y94.626 E19.80815
G1 F1290.3 X107.175 Y93.995 E19.83764
G1 F1293.8 X106.857 Y94.648 E19.87125
G1 F1276.6 X106.731 Y95.479 E19.91067
G1 F1230.8 X106.222 Y96.167 E19.9523
G1 F1200 X105.913 Y96.371 E19.97077
G1 X105.328 Y96.592 E20.00197
G1 X104.961 Y96.612 E20.0203
G1 X104.296 Y96.486 E20.05407
G1 X103.763 Y96.16 E20.08524
G1 F1224.5 X103.27 Y95.517 E20.12486
G1 F1269.8 X103.129 Y94.618 E20.16776
G1 F1297.3 X102.819 Y93.962 E20.20124
G1 F1333.3 X102.738 Y94.574 E20.22896
G1 F1326 X102.962 Y95.591 E20.27598
G1 F1240.3 X102.746 Y96.407 E20.31672
G1 F1200 X102.258 Y96.965 E20.35371
G1 X101.866 Y97.229 E20.37729
G1 X101.117 Y97.395 E20.41556
G1 X100.784 Y97.373 E20.43221
G1 X100.205 Y97.172 E20.46279
G1 F1273.2 X99.663 Y96.701 E20.49655
G1 F1352.1 X99.249 Y96.042 E20.53101
G1 F1344.5 X98.766 Y95.673 E20.55808
G1 F1329.6 X98.915 Y96.218 E20.58352
G1 F1283.4 X99.499 Y97.097 E20.63274
G1 F1237.1 X99.636 Y97.865 E20.6705
G1 F1212.1 X99.457 Y98.528 E20.70442
G1 F1200 X99.078 Y99.102 E20.73873
G1 X98.389 Y99.533 E20.77928
G1 X97.635 Y99.615 E20.81712
G1 F1250 X97.007 Y99.458 E20.84812
G1 F1329.6 X96.222 Y98.916 E20.89107
G1 F1348.3 X95.675 Y98.768 E20.91623
G1 X96.046 Y99.252 E20.94331
G1 F1318.7 X96.9 Y99.79 E20.98913
G1 F1237.1 X97.19 Y100.242 E21.01512
G1 F1200 X97.394 Y100.8 E21.04476
G1 X97.342 Y101.611 E21.08531
G1 X96.959 Y102.304 E21.12481
G1 X96.388 Y102.736 E21.16053
G1 F1218.3 X95.683 Y102.947 E21.1967
G1 F1259.8 X94.652 Y102.748 E21.24659
G1 F1283.4 X93.977 Y102.824 E21.27828
G1 F1290.3 X94.645 Y103.141 E21.31259
G1 F1276.6 X95.475 Y103.263 E21.35193
G1 F1230.8 X96.174 Y103.783 E21.39431
G1 F1200 X96.375 Y104.094 E21.41278
G1 X96.631 Y104.806 E21.45053
G1 X96.529 Y105.665 E21.49369
G1 X96.116 Y106.272 E21.53031
G1 X95.643 Y106.633 E21.56
G1 F858.7 X95.499 Y106.889 E21.58048
G1 X95.728 Y107.072 E21.60092
G1 F1200 X96.409 Y107.251 E21.63605
G1 X96.965 Y107.738 E21.67292
G1 X97.229 Y108.13 E21.6965
G1 X97.395 Y108.879 E21.73477
G1 X97.373 Y109.212 E21.75142
G1 X97.174 Y109.794 E21.78211
