;FLAVOR:Marlin
;TIME:7707
;Filament used: 7.53538m
;Layer height: 0.3
;MINX:0
;MINY:0
;MINZ:0.3
;MAXX:145.216
;MAXY:129.996
;MAXZ:47.175
;TARGET_MACHINE.NAME:Anycubic i3 Mega S/Pro
;Generated with Cura_SteamEngine 5.11.0
;Profil Homepage: https://github.com/NilsRo/Cura_Anycubic_MegaS_Profile

;Slicer Information - (Support for OctoPrint Slicer Estimator)
;Slicer info:material_guid;0ff92885-617b-4144-a03c-9989872454bc
;Slicer info:material_id;generic_pla_175
;Slicer info:material_brand;Generic
;Slicer info:material_name;PLA
;Slicer info:filament_cost;[0.0];Slicer info:material_bed_temperature;60
;Slicer info:material_bed_temperature_layer_0;60
;Slicer info:material_print_temperature;200
;Slicer info:material_print_temperature_layer_0;205
;Slicer info:material_flow;100
;Slicer info:layer_height;0.3
;Slicer info:machine_nozzle_size;0.4
;Slicer info:wall_thickness;1.2000000000000002
;Slicer info:speed_print;50.0
;Slicer info:speed_topbottom;25.0
;Slicer info:travel_speed;100.0
;Slicer info:support;0
;Slicer info:retraction_speed;30
;Slicer info:retraction_amount;6
;Slicer info:layer_height;0.3
;Slicer info:infill_pattern;grid
;Slicer info:infill_sparse_density;25
;Slicer info:cool_fan_enabled;True
;Slicer info:cool_fan_speed;100
;Slicer info:sliced_at;Sat 13-12-2025 00:05:03
G21                                        ; metric values 
G90                                        ; absolute positioning 
M82                                        ; set extruder to absolute mode 
M900 K0                                    ; disable lin. adv. if not set in GCODE
M107                                       ; start with the fan off 
M140 S60   ; Start heating the bed 
G4 S60                                     ; wait 1 minute 
M104 S205 ; start heating the hot end 
M190 S60   ; wait for bed 
M109 S205 ; wait for hotend 
M300 S1000 P500                            ; BEEP heating done 
G28 X0 Y10 Z0                              ; move X/Y to min endstops 
M420 S1                                    ; Enable leveling 
M420 Z2.0                                  ; Set leveling fading height to 2 mm 
G0 Z0.15                                   ; lift nozzle a bit 
G92 E0                                     ; zero the extruded length 
G1 X50 E20 F500                            ; Extrude 20mm of filament in a 5cm line. 
G92 E0                                     ; zero the extruded length again 
G1 E-2 F500                                ; Retract a little 
G1 X50 F500                                ; wipe away from the filament line
G1 X100 F9000                              ; Quickly wipe away from the filament line
M82 ;absolute extrusion mode
G92 E0
G92 E0
G1 F1800 E-6
;LAYER_COUNT:157
;LAYER:0
M106 S76.5
M205 X10 Y10
G1 F480 Z0.375
G0 F6000 X0.00 Y0.00 Z0.375
G0 X106.423 Y72.03
M205 X8 Y8
;TYPE:SKIRT
G1 F480 Z0.3
G1 F1800 E0
G1 F1200 X109.049 Y69.257 E0.19053
G1 X112.684 Y68.239 E0.37886
G1 X116.319 Y69.257 E0.56719
G1 X118.945 Y72.03 E0.75773
G1 X119.963 Y75.521 E0.93915
G1 X118.945 Y79.157 E1.12752
G1 X116.322 Y81.78 E1.31259
G1 X112.685 Y82.798 E1.50102
G1 X109.195 Y81.779 E1.6824
G1 X106.424 Y79.008 E1.87791
G1 X105.405 Y75.519 E2.05925
G1 X106.423 Y72.03 E2.24057
M205 X10 Y10
G0 F6000 X106.78 Y72.235
M205 X8 Y8
G1 F1200 X109.264 Y69.612 E2.4208
G1 X112.684 Y68.654 E2.598
G1 X116.104 Y69.612 E2.77519
G1 X118.588 Y72.235 E2.95542
G1 X119.547 Y75.524 E3.12634
G1 X118.588 Y78.948 E3.30374
G1 X116.113 Y81.423 E3.47836
G1 X112.688 Y82.382 E3.65581
G1 X109.406 Y81.424 E3.82638
G1 X106.779 Y78.797 E4.01173
G1 X105.822 Y75.519 E4.1821
G1 X106.78 Y72.235 E4.35277
M205 X10 Y10
G0 F6000 X107.137 Y72.44
M205 X8 Y8
G1 F1200 X109.478 Y69.967 E4.52266
G1 X112.684 Y69.07 E4.68875
G1 X115.89 Y69.967 E4.85484
G1 X118.231 Y72.439 E5.02469
G1 X119.131 Y75.526 E5.18512
G1 X118.231 Y78.739 E5.35158
G1 X115.904 Y81.066 E5.51576
G1 X112.69 Y81.966 E5.68228
G1 X109.617 Y81.069 E5.84199
G1 X107.134 Y78.586 E6.01718
G1 X106.239 Y75.519 E6.17657
G1 X107.137 Y72.44 E6.33659
M205 X10 Y10
G0 F6000 X107.494 Y72.645
M205 X8 Y8
G1 F1200 X109.693 Y70.322 E6.49617
G1 X112.684 Y69.485 E6.65113
G1 X115.675 Y70.322 E6.80608
G1 X117.874 Y72.645 E6.96567
G1 X118.715 Y75.529 E7.11554
G1 X117.875 Y78.529 E7.27097
G1 X115.694 Y80.71 E7.42485
G1 X112.694 Y81.55 E7.58028
G1 X109.828 Y80.714 E7.72922
G1 X107.489 Y78.375 E7.89425
G1 X106.655 Y75.519 E8.04269
G1 X107.494 Y72.645 E8.19206
M205 X10 Y10
G0 F6000 X107.851 Y72.849
M205 X8 Y8
G1 F1200 X109.908 Y70.677 E8.3413
G1 X112.684 Y69.9 E8.48512
G1 X115.46 Y70.677 E8.62894
G1 X117.517 Y72.849 E8.77818
G1 X118.299 Y75.532 E8.91761
G1 X117.519 Y78.319 E9.062
G1 X115.484 Y80.354 E9.20558
G1 X112.696 Y81.134 E9.35001
G1 X110.038 Y80.358 E9.48815
G1 X107.845 Y78.165 E9.64288
G1 X107.072 Y75.519 E9.78041
G1 X107.851 Y72.849 E9.91917
M205 X10 Y10
G0 F6000 X108.208 Y73.053
M205 X8 Y8
G1 F1200 X110.122 Y71.033 E10.058
G1 X112.684 Y70.315 E10.19075
G1 X115.246 Y71.033 E10.32349
G1 X117.16 Y73.053 E10.46232
G1 X117.883 Y75.532 E10.59115
G1 X117.161 Y78.111 E10.72477
G1 X115.276 Y79.996 E10.85776
G1 X112.697 Y80.718 E10.99138
G1 X110.249 Y80.003 E11.11861
G1 X108.2 Y77.954 E11.26318
G1 X107.489 Y75.518 E11.38978
G1 X108.208 Y73.053 E11.51789
M205 X10 Y10
G0 F6000 X108.565 Y73.259
M205 X8 Y8
G1 F1200 X110.336 Y71.389 E11.64638
G1 X112.684 Y70.731 E11.76804
G1 X115.032 Y71.389 E11.88969
G1 X116.803 Y73.259 E12.01818
G1 X117.467 Y75.535 E12.13647
G1 X116.803 Y77.905 E12.25926
G1 X115.07 Y79.638 E12.38153
G1 X112.699 Y80.302 E12.50437
G1 X110.457 Y79.647 E12.6209
G1 X108.556 Y77.746 E12.75503
G1 X107.906 Y75.518 E12.87082
G1 X108.565 Y73.259 E12.98822
M205 X10 Y10
G0 F6000 X108.922 Y73.463
M205 X8 Y8
G1 F1200 X110.55 Y71.744 E13.10634
G1 X112.684 Y71.147 E13.21689
G1 X114.818 Y71.744 E13.32744
G1 X116.446 Y73.463 E13.44556
G1 X117.051 Y75.537 E13.55335
G1 X116.447 Y77.695 E13.66515
G1 X114.861 Y79.281 E13.77705
G1 X112.702 Y79.886 E13.88891
G1 X110.668 Y79.292 E13.99462
G1 X108.911 Y77.535 E14.11859
G1 X108.322 Y75.518 E14.22342
G1 X108.922 Y73.463 E14.33023
M205 X10 Y10
G0 F6000 X109.279 Y73.669
M205 X8 Y8
G1 F1200 X110.765 Y72.099 E14.43808
G1 X112.684 Y71.562 E14.53749
G1 X114.603 Y72.099 E14.63691
G1 X116.089 Y73.669 E14.74476
G1 X116.635 Y75.54 E14.842
G1 X116.09 Y77.486 E14.94282
G1 X114.651 Y78.925 E15.04435
G1 X112.705 Y79.47 E15.14517
G1 X110.879 Y78.937 E15.24007
G1 X109.266 Y77.324 E15.35388
G1 X108.739 Y75.518 E15.44774
G1 X109.279 Y73.669 E15.54384
M205 X10 Y10
G0 F6000 X109.636 Y73.873
M205 X8 Y8
G1 F1200 X110.979 Y72.455 E15.64128
G1 X112.684 Y71.977 E15.72962
G1 X114.389 Y72.455 E15.81796
G1 X115.732 Y73.873 E15.9154
G1 X116.219 Y75.542 E16.00214
G1 X115.733 Y77.277 E16.09203
G1 X114.441 Y78.569 E16.18319
G1 X112.708 Y79.054 E16.27297
G1 X111.089 Y78.581 E16.35712
G1 X109.621 Y77.113 E16.46069
G1 X109.156 Y75.518 E16.54358
G1 X109.636 Y73.873 E16.62907
M205 X10 Y10
G1 F1800 E10.62907
G1 F480 Z0.375
G0 F6000 X109.636 Y73.873 Z0.375
G0 X116.823 Y86.892
M205 X8 Y8
G1 F480 Z0.3
G1 F1800 E16.62907
G1 F1200 X119.271 Y86.206 E16.75591
G1 X121.72 Y86.893 E16.8828
G1 X123.488 Y88.761 E17.01112
G1 X124.174 Y91.117 E17.13355
G1 X123.486 Y93.581 E17.26118
G1 X121.719 Y95.348 E17.38585
G1 X119.271 Y96.033 E17.51267
G1 X116.921 Y95.346 E17.63482
G1 X115.054 Y93.479 E17.76655
G1 X114.367 Y91.129 E17.8887
G1 X115.055 Y88.762 E18.01167
G1 X116.823 Y86.892 E18.14006
M205 X10 Y10
G0 F6000 X117.038 Y87.247
M205 X8 Y8
G1 F1200 X119.271 Y86.621 E18.25576
G1 X121.505 Y87.247 E18.37151
G1 X123.131 Y88.967 E18.4896
G1 X123.758 Y91.12 E18.60147
G1 X123.129 Y93.372 E18.71813
G1 X121.51 Y94.991 E18.83236
G1 X119.274 Y95.617 E18.9482
G1 X117.132 Y94.991 E19.05953
G1 X115.409 Y93.268 E19.1811
G1 X114.784 Y91.128 E19.29233
G1 X115.411 Y88.968 E19.40454
G1 X117.038 Y87.247 E19.52269
M205 X10 Y10
G0 F6000 X117.254 Y87.602
M205 X8 Y8
G1 F1200 X119.271 Y87.037 E19.6272
G1 X121.291 Y87.603 E19.73186
G1 X122.775 Y89.171 E19.83956
G1 X123.342 Y91.122 E19.94093
G1 X122.773 Y93.162 E20.04659
G1 X121.301 Y94.634 E20.15045
G1 X119.277 Y95.201 E20.25531
G1 X117.343 Y94.636 E20.35583
G1 X115.764 Y93.057 E20.46724
G1 X115.2 Y91.128 E20.56751
G1 X115.768 Y89.173 E20.66907
G1 X117.254 Y87.602 E20.77696
M205 X10 Y10
G0 F6000 X117.468 Y87.957
M205 X8 Y8
G1 F1200 X119.271 Y87.452 E20.87037
G1 X121.075 Y87.958 E20.96385
G1 X122.418 Y89.376 E21.06129
G1 X122.927 Y91.125 E21.15216
G1 X122.416 Y92.953 E21.24686
G1 X121.091 Y94.278 E21.34035
G1 X119.28 Y94.785 E21.43417
G1 X117.553 Y94.28 E21.52394
G1 X116.12 Y92.847 E21.62505
G1 X115.617 Y91.127 E21.71445
G1 X116.126 Y89.377 E21.80538
G1 X117.468 Y87.957 E21.90285
M205 X10 Y10
G0 F6000 X117.683 Y88.312
M205 X8 Y8
G1 F1200 X119.271 Y87.867 E21.98513
G1 X120.86 Y88.312 E22.06746
G1 X122.061 Y89.582 E22.15466
G1 X122.51 Y91.126 E22.23488
G1 X122.058 Y92.745 E22.31874
G1 X120.882 Y93.921 E22.40172
G1 X119.283 Y94.369 E22.48456
G1 X117.764 Y93.925 E22.56352
G1 X116.475 Y92.636 E22.65446
G1 X116.034 Y91.128 E22.73285
G1 X116.483 Y89.581 E22.81321
G1 X117.683 Y88.312 E22.90035
M205 X10 Y10
G0 F6000 X117.899 Y88.667
M205 X8 Y8
G1 F1200 X119.271 Y88.282 E22.97144
G1 X120.646 Y88.668 E23.04269
G1 X121.704 Y89.786 E23.11949
G1 X122.094 Y91.129 E23.18926
G1 X121.701 Y92.536 E23.26214
G1 X120.674 Y93.563 E23.3346
G1 X119.284 Y93.952 E23.40661
G1 X117.975 Y93.57 E23.47464
G1 X116.83 Y92.425 E23.55543
G1 X116.451 Y91.127 E23.62289
G1 X116.84 Y89.787 E23.6925
G1 X117.899 Y88.667 E23.7694
M205 X10 Y10
G0 F6000 X118.112 Y89.023
M205 X8 Y8
G1 F1200 X119.269 Y88.698 E23.82936
G1 X120.432 Y89.024 E23.88962
G1 X121.347 Y89.992 E23.95607
G1 X121.679 Y91.131 E24.01526
G1 X121.344 Y92.329 E24.07732
G1 X120.467 Y93.206 E24.1392
G1 X119.286 Y93.536 E24.20038
G1 X118.183 Y93.214 E24.2577
G1 X117.186 Y92.217 E24.32805
G1 X116.867 Y91.127 E24.38471
G1 X117.198 Y89.989 E24.44384
G1 X118.112 Y89.023 E24.51018
M205 X10 Y10
G0 F6000 X118.326 Y89.379
M205 X8 Y8
G1 F1200 X119.271 Y89.114 E24.55915
G1 X120.218 Y89.379 E24.60821
G1 X120.989 Y90.194 E24.66418
G1 X121.262 Y91.135 E24.71306
G1 X120.988 Y92.119 E24.76402
G1 X120.258 Y92.849 E24.81553
G1 X119.289 Y93.121 E24.86574
G1 X118.394 Y92.859 E24.91227
G1 X117.541 Y92.006 E24.97245
G1 X117.284 Y91.126 E25.01819
G1 X117.555 Y90.195 E25.06656
G1 X118.326 Y89.379 E25.12257
M205 X10 Y10
G0 F6000 X118.54 Y89.734
M205 X8 Y8
G1 F1200 X119.272 Y89.529 E25.1605
G1 X120.002 Y89.734 E25.19832
G1 X120.632 Y90.4 E25.24406
G1 X120.846 Y91.136 E25.2823
G1 X120.63 Y91.911 E25.32244
G1 X120.048 Y92.493 E25.3635
G1 X119.293 Y92.705 E25.40263
G1 X118.605 Y92.504 E25.43839
G1 X117.896 Y91.795 E25.48841
G1 X117.701 Y91.126 E25.52318
G1 X117.912 Y90.398 E25.56099
G1 X118.54 Y89.734 E25.60659
M205 X10 Y10
G0 F6000 X118.755 Y90.089
M205 X8 Y8
G1 F1200 X119.272 Y89.944 E25.63338
G1 X119.788 Y90.089 E25.66012
G1 X120.274 Y90.603 E25.69541
G1 X120.43 Y91.139 E25.72326
G1 X120.273 Y91.702 E25.75242
G1 X119.838 Y92.137 E25.78311
G1 X119.295 Y92.289 E25.81124
G1 X118.815 Y92.148 E25.8362
G1 X118.252 Y91.585 E25.87592
G1 X118.117 Y91.125 E25.89984
G1 X118.268 Y90.604 E25.9269
G1 X118.755 Y90.089 E25.96227
M205 X10 Y10
G1 F1800 E19.96227
G1 F480 Z0.375
G0 F6000 X118.755 Y90.089 Z0.375
G0 X130.411 Y103.136
M205 X8 Y8
G1 F480 Z0.3
G1 F1800 E25.96227
G1 F1200 X131.966 Y103.136 E26.03984
G1 X132.121 Y103.298 E26.05103
G1 X132.187 Y103.344 E26.05504
G1 X132.386 Y103.429 E26.06584
G1 X132.521 Y103.437 E26.07259
G1 X133.762 Y103.078 E26.13704
G1 X135.344 Y103.505 E26.21879
G1 X136.483 Y104.71 E26.30151
G1 X136.552 Y104.953 E26.31412
G1 X136.622 Y105.056 E26.32033
G1 X136.798 Y105.091 E26.32928
G1 X137.894 Y104.784 E26.38607
G1 X140.762 Y105.587 E26.53465
G1 X142.835 Y107.776 E26.68506
G1 X143.638 Y110.531 E26.82823
G1 X142.835 Y113.4 E26.97687
G1 X140.765 Y115.47 E27.12292
G1 X137.895 Y116.273 E27.2716
G1 X135.141 Y115.469 E27.41473
G1 X132.954 Y113.282 E27.56904
G1 X132.15 Y110.529 E27.71212
G1 X132.491 Y109.361 E27.77283
G1 X132.487 Y109.236 E27.77907
G1 X132.354 Y109.113 E27.7881
G1 X132.15 Y109.054 E27.7987
G1 X130.934 Y107.838 E27.88449
G1 X130.487 Y106.311 E27.96387
G1 X130.785 Y105.293 E28.01679
G1 X130.772 Y105.148 E28.02406
G1 X130.584 Y104.772 E28.04503
G1 X130.547 Y104.72 E28.04821
G1 X130.411 Y104.583 E28.05784
G1 X130.411 Y103.136 E28.13004
M205 X10 Y10
G0 F6000 X130.811 Y103.536
M205 X8 Y8
G1 F1200 X131.796 Y103.536 E28.17918
G1 X131.832 Y103.574 E28.18179
G1 X132.03 Y103.712 E28.19383
G1 X132.229 Y103.797 E28.20463
G1 X132.442 Y103.845 E28.21552
G1 X132.632 Y103.821 E28.22507
G1 X133.765 Y103.493 E28.28392
G1 X135.13 Y103.862 E28.35446
G1 X136.125 Y104.914 E28.42671
G1 X136.167 Y105.062 E28.43438
G1 X136.264 Y105.257 E28.44525
G1 X136.424 Y105.405 E28.45612
G1 X136.626 Y105.486 E28.46698
G1 X136.906 Y105.476 E28.48096
G1 X137.894 Y105.199 E28.53215
G1 X140.547 Y105.942 E28.6696
G1 X142.478 Y107.981 E28.8097
G1 X143.222 Y110.534 E28.94237
G1 X142.478 Y113.191 E29.08003
G1 X140.556 Y115.113 E29.21564
G1 X137.898 Y115.857 E29.35334
G1 X135.352 Y115.114 E29.48566
G1 X133.309 Y113.071 E29.62981
G1 X132.567 Y110.529 E29.76192
G1 X132.875 Y109.473 E29.8168
G1 X132.897 Y109.256 E29.82768
G1 X132.84 Y109.045 E29.83858
G1 X132.711 Y108.869 E29.84947
G1 X132.465 Y108.729 E29.86359
G1 X132.361 Y108.699 E29.86899
G1 X131.289 Y107.627 E29.94463
G1 X130.904 Y106.311 E30.01303
G1 X131.169 Y105.405 E30.06013
G1 X131.191 Y105.188 E30.07101
G1 X131.13 Y104.969 E30.08235
G1 X130.942 Y104.593 E30.10333
G1 X130.83 Y104.438 E30.11287
G1 X130.811 Y104.419 E30.11421
G1 X130.811 Y103.536 E30.15826
M205 X10 Y10
G0 F6000 X131.211 Y103.936
M205 X8 Y8
G1 F1200 X131.665 Y103.936 E30.18091
G1 X131.873 Y104.08 E30.19353
G1 X132.072 Y104.165 E30.20433
G1 X132.345 Y104.238 E30.21843
G1 X132.743 Y104.206 E30.23835
G1 X133.771 Y103.908 E30.29174
G1 X134.916 Y104.218 E30.35093
G1 X135.767 Y105.118 E30.41272
G1 X135.782 Y105.171 E30.41547
G1 X135.897 Y105.429 E30.42956
G1 X136.078 Y105.644 E30.44358
G1 X136.313 Y105.801 E30.45768
G1 X136.583 Y105.885 E30.47179
G1 X136.865 Y105.891 E30.48586
G1 X137.014 Y105.861 E30.49344
G1 X137.894 Y105.615 E30.53903
G1 X140.333 Y106.297 E30.66538
G1 X142.121 Y108.185 E30.79511
G1 X142.806 Y110.536 E30.91728
G1 X142.121 Y112.982 E31.04401
G1 X140.346 Y114.757 E31.16924
G1 X137.901 Y115.441 E31.29591
G1 X135.563 Y114.759 E31.41741
G1 X133.664 Y112.86 E31.5514
G1 X132.984 Y110.529 E31.67254
G1 X133.259 Y109.585 E31.72159
G1 X133.299 Y109.306 E31.73565
G1 X133.259 Y109.026 E31.74976
G1 X133.143 Y108.769 E31.76383
G1 X132.96 Y108.555 E31.77788
G1 X132.724 Y108.4 E31.79197
G1 X132.576 Y108.344 E31.79986
G1 X132.57 Y108.342 E31.80018
G1 X131.644 Y107.416 E31.86551
G1 X131.321 Y106.311 E31.92295
G1 X131.553 Y105.518 E31.96417
G1 X131.593 Y105.238 E31.97828
G1 X131.554 Y104.959 E31.99233
G1 X131.487 Y104.79 E32.0014
G1 X131.299 Y104.414 E32.02238
G1 X131.211 Y104.291 E32.02992
G1 X131.211 Y103.936 E32.04763
M205 X10 Y10
G0 F6000 X131.776 Y104.473
M205 X8 Y8
G1 F1200 X131.915 Y104.532 E32.05517
G1 X132.236 Y104.626 E32.07185
G1 X132.569 Y104.641 E32.08848
G1 X132.854 Y104.59 E32.10293
G1 X133.774 Y104.324 E32.15071
G1 X134.703 Y104.575 E32.19872
G1 X135.419 Y105.331 E32.25066
G1 X135.526 Y105.588 E32.26455
G1 X135.724 Y105.857 E32.28122
G1 X135.981 Y106.072 E32.29793
G1 X136.28 Y106.219 E32.31456
G1 X136.606 Y106.291 E32.33121
G1 X136.94 Y106.284 E32.34788
G1 X137.121 Y106.246 E32.35711
G1 X137.894 Y106.03 E32.39715
G1 X140.117 Y106.652 E32.51231
G1 X141.764 Y108.391 E32.63181
G1 X142.39 Y110.539 E32.74343
G1 X141.765 Y112.772 E32.85912
G1 X140.137 Y114.4 E32.97398
G1 X137.904 Y115.025 E33.08967
G1 X135.774 Y114.404 E33.20036
G1 X134.019 Y112.649 E33.32418
G1 X133.4 Y110.529 E33.43437
G1 X133.643 Y109.697 E33.47761
G1 X133.698 Y109.367 E33.4943
G1 X133.673 Y109.034 E33.51096
G1 X133.569 Y108.717 E33.5276
G1 X133.394 Y108.432 E33.54429
G1 X133.156 Y108.198 E33.56094
G1 X132.869 Y108.026 E33.57763
G1 X132.792 Y107.998 E33.58172
G1 X132 Y107.206 E33.6376
G1 X131.738 Y106.311 E33.68413
G1 X131.937 Y105.63 E33.71952
