;FLAVOR:Marlin
;TIME:3187
;Filament used: 1.68184m
;Layer height: 0.2
;MINX:0
;MINY:0
;MINZ:0.3
;MAXX:131.563
;MAXY:117.259
;MAXZ:24.7
;TARGET_MACHINE.NAME:Anycubic i3 Mega S/Pro
;Generated with Cura_SteamEngine 5.11.0
;Profil Homepage: https://github.com/NilsRo/Cura_Anycubic_MegaS_Profile

;Slicer Information - (Support for OctoPrint Slicer Estimator)
;Slicer info:material_guid;0ff92885-617b-4144-a03c-9989872454bc
;Slicer info:material_id;generic_pla_175
;Slicer info:material_brand;Generic
;Slicer info:material_name;PLA
;Slicer info:filament_cost;[0.0];Slicer info:material_bed_temperature;60
;Slicer info:material_bed_temperature_layer_0;60
;Slicer info:material_print_temperature;200
;Slicer info:material_print_temperature_layer_0;205
;Slicer info:material_flow;100
;Slicer info:layer_height;0.2
;Slicer info:machine_nozzle_size;0.4
;Slicer info:wall_thickness;1.2000000000000002
;Slicer info:speed_print;50.0
;Slicer info:speed_topbottom;25.0
;Slicer info:travel_speed;100.0
;Slicer info:support;0
;Slicer info:retraction_speed;30
;Slicer info:retraction_amount;6
;Slicer info:layer_height;0.2
;Slicer info:infill_pattern;grid
;Slicer info:infill_sparse_density;25
;Slicer info:cool_fan_enabled;True
;Slicer info:cool_fan_speed;100
;Slicer info:sliced_at;Fri 12-12-2025 23:55:39
G21                                        ; metric values 
G90                                        ; absolute positioning 
M82                                        ; set extruder to absolute mode 
M900 K0                                    ; disable lin. adv. if not set in GCODE
M107                                       ; start with the fan off 
M140 S60   ; Start heating the bed 
G4 S60                                     ; wait 1 minute 
M104 S205 ; start heating the hot end 
M190 S60   ; wait for bed 
M109 S205 ; wait for hotend 
M300 S1000 P500                            ; BEEP heating done 
G28 X0 Y10 Z0                              ; move X/Y to min endstops 
M420 S1                                    ; Enable leveling 
M420 Z2.0                                  ; Set leveling fading height to 2 mm 
G0 Z0.15                                   ; lift nozzle a bit 
G92 E0                                     ; zero the extruded length 
G1 X50 E20 F500                            ; Extrude 20mm of filament in a 5cm line. 
G92 E0                                     ; zero the extruded length again 
G1 E-2 F500                                ; Retract a little 
G1 X50 F500                                ; wipe away from the filament line
G1 X100 F9000                              ; Quickly wipe away from the filament line
M82 ;absolute extrusion mode
G92 E0
G92 E0
G1 F1800 E-6
;LAYER_COUNT:123
;LAYER:0
M106 S76.5
M205 X10 Y10
G1 F480 Z0.375
G0 F6000 X0.00 Y0.00 Z0.375
G0 X78.661 Y99.69
M205 X8 Y8
;TYPE:SKIRT
G1 F480 Z0.3
G1 F1800 E0
G1 F1200 X80.409 Y99.2 E0.09057
G1 X82.156 Y99.69 E0.18109
G1 X83.172 Y100.763 E0.25481
G1 X83.282 Y100.822 E0.26104
G1 X83.363 Y100.82 E0.26508
G1 X83.414 Y100.808 E0.2677
G1 X83.52 Y100.743 E0.2739
G1 X83.56 Y100.669 E0.2781
G1 X83.66 Y100.326 E0.29592
G1 X84.628 Y99.303 E0.36619
G1 X85.965 Y98.928 E0.43546
G1 X87.301 Y99.303 E0.50469
G1 X88.303 Y100.36 E0.57736
G1 X88.394 Y100.415 E0.58266
G1 X88.878 Y100.55 E0.60773
G1 X89.099 Y100.783 E0.62375
G1 X89.19 Y100.838 E0.62906
G1 X89.669 Y100.972 E0.65387
G1 X89.961 Y101.281 E0.67508
G1 X90.074 Y101.665 E0.69505
G1 X89.963 Y102.064 E0.71571
G1 X89.671 Y102.356 E0.73632
G1 X89.399 Y102.432 E0.75041
G1 X89.293 Y102.505 E0.75683
G1 X89.09 Y102.776 E0.77372
G1 X88.915 Y102.825 E0.78279
G1 X88.775 Y102.784 E0.79006
G1 X88.65 Y102.788 E0.7963
G1 X88.532 Y102.903 E0.80452
G1 X88.261 Y103.597 E0.84169
G1 X88.061 Y103.797 E0.85581
G1 X87.8 Y103.871 E0.86934
G1 X87.535 Y103.814 E0.88286
G1 X87.372 Y103.851 E0.8912
G1 X87.245 Y103.948 E0.89917
G1 X87.174 Y104.051 E0.90542
G1 X87.178 Y104.176 E0.91166
G1 X87.221 Y104.245 E0.91571
G1 X87.387 Y104.42 E0.92775
G1 X87.44 Y104.602 E0.9372
G1 X87.391 Y104.777 E0.94627
G1 X87.175 Y104.942 E0.95983
G1 X87.105 Y105.045 E0.96604
G1 X87.1 Y105.137 E0.97064
G1 X87.11 Y105.192 E0.97343
G1 X87.17 Y105.302 E0.97968
G1 X87.254 Y105.349 E0.98448
G1 X87.379 Y105.383 E0.99094
G1 X87.572 Y105.588 E1.00499
G1 X87.645 Y105.837 E1.01794
G1 X87.583 Y106.057 E1.02934
G1 X87.588 Y106.182 E1.03558
G1 X87.666 Y106.28 E1.04183
G1 X87.742 Y106.309 E1.04589
G1 X88.252 Y106.393 E1.07168
G1 X88.432 Y106.583 E1.08473
G1 X88.511 Y106.928 E1.10239
G1 X88.575 Y107.035 E1.10861
G1 X88.675 Y107.082 E1.11412
G1 X89.142 Y107.156 E1.13771
G1 X89.326 Y107.351 E1.15109
G1 X89.391 Y107.57 E1.16249
G1 X89.437 Y107.65 E1.16709
G1 X89.748 Y107.98 E1.18971
G1 X89.86 Y108.362 E1.20957
G1 X89.748 Y108.761 E1.23025
G1 X89.457 Y109.053 E1.25082
G1 X88.996 Y109.177 E1.27463
G1 X88.907 Y109.228 E1.27975
G1 X88.482 Y109.651 E1.30967
G1 X87.733 Y109.861 E1.34847
G1 X87.014 Y109.65 E1.38586
G1 X86.438 Y109.074 E1.4265
G1 X86.282 Y108.543 E1.45411
G1 X86.211 Y108.44 E1.46035
G1 X86.044 Y108.404 E1.46887
G1 X85.884 Y108.442 E1.47708
G1 X85.789 Y108.496 E1.48253
G1 X84.805 Y109.479 E1.55192
G1 X83.454 Y109.857 E1.62191
G1 X82.16 Y109.478 E1.68918
G1 X81.845 Y109.164 E1.71137
G1 X81.734 Y109.108 E1.71757
G1 X81.563 Y109.164 E1.72655
G1 X81.284 Y109.442 E1.7462
G1 X79.536 Y109.932 E1.83677
G1 X77.859 Y109.441 E1.92395
G1 X76.524 Y108.106 E2.01814
G1 X76.033 Y106.43 E2.10527
G1 X76.524 Y104.752 E2.1925
G1 X77.195 Y104.041 E2.24127
G1 X77.249 Y103.928 E2.24752
G1 X77.242 Y103.848 E2.25153
G1 X76.907 Y102.703 E2.31104
G1 X77.398 Y101.025 E2.39827
G1 X78.661 Y99.69 E2.48996
M205 X10 Y10
G0 F6000 X78.876 Y100.045
M205 X8 Y8
G1 F1200 X80.409 Y99.615 E2.56939
G1 X81.941 Y100.045 E2.64878
G1 X82.881 Y101.038 E2.71699
G1 X83.058 Y101.166 E2.72789
G1 X83.268 Y101.223 E2.73875
G1 X83.454 Y101.209 E2.74805
G1 X83.505 Y101.197 E2.75067
G1 X83.705 Y101.109 E2.76157
G1 X83.86 Y100.956 E2.77243
G1 X83.944 Y100.781 E2.78212
G1 X84.017 Y100.532 E2.79506
G1 X84.843 Y99.658 E2.85506
G1 X85.965 Y99.343 E2.9132
G1 X87.087 Y99.658 E2.97134
G1 X88.013 Y100.635 E3.0385
G1 X88.287 Y100.8 E3.05446
G1 X88.664 Y100.905 E3.07398
G1 X88.809 Y101.058 E3.0845
G1 X89.083 Y101.223 E3.10045
G1 X89.453 Y101.326 E3.11962
G1 X89.604 Y101.486 E3.13059
G1 X89.658 Y101.67 E3.14016
G1 X89.606 Y101.855 E3.14975
G1 X89.462 Y101.999 E3.15991
G1 X89.291 Y102.047 E3.16877
G1 X89.095 Y102.143 E3.17966
G1 X88.973 Y102.265 E3.18826
G1 X88.872 Y102.399 E3.19664
G1 X88.671 Y102.378 E3.20672
G1 X88.46 Y102.434 E3.21761
G1 X88.284 Y102.562 E3.22847
G1 X88.159 Y102.758 E3.24006
G1 X87.919 Y103.373 E3.273
G1 X87.851 Y103.441 E3.2778
G1 X87.786 Y103.459 E3.28116
G1 X87.619 Y103.423 E3.28969
G1 X87.401 Y103.417 E3.30057
G1 X87.129 Y103.533 E3.31532
G1 X87.002 Y103.63 E3.32329
G1 X86.855 Y103.792 E3.3342
G1 X86.776 Y103.995 E3.34507
G1 X86.776 Y104.213 E3.35595
G1 X86.853 Y104.418 E3.36687
G1 X86.892 Y104.469 E3.37008
G1 X86.82 Y104.438 E3.37399
G1 X86.602 Y104.428 E3.38488
G1 X86.476 Y104.459 E3.39135
G1 X86.135 Y104.585 E3.40949
G1 X85.948 Y104.697 E3.42036
G1 X85.812 Y104.868 E3.43126
G1 X85.743 Y105.166 E3.44652
G1 X85.745 Y105.232 E3.44982
G1 X85.791 Y105.445 E3.46069
G1 X85.911 Y105.628 E3.47161
G1 X86.187 Y105.793 E3.48765
G1 X86.345 Y105.836 E3.49582
G1 X86.563 Y105.854 E3.50673
G1 X86.717 Y105.818 E3.51462
G1 X87 Y105.71 E3.52973
G1 X87.044 Y105.683 E3.53231
G1 X87.149 Y105.735 E3.53815
G1 X87.164 Y105.739 E3.53893
G1 X87.215 Y105.793 E3.54263
G1 X87.229 Y105.84 E3.54508
G1 X87.198 Y105.948 E3.55069
G1 X87.177 Y106.165 E3.56156
G1 X87.236 Y106.376 E3.57249
G1 X87.366 Y106.551 E3.58337
G1 X87.55 Y106.668 E3.59425
G1 X87.677 Y106.704 E3.60083
G1 X88.055 Y106.766 E3.61994
G1 X88.067 Y106.779 E3.62083
G1 X88.121 Y107.017 E3.633
G1 X88.207 Y107.218 E3.64391
G1 X88.36 Y107.374 E3.65481
G1 X88.612 Y107.477 E3.66839
G1 X88.944 Y107.53 E3.68517
G1 X88.971 Y107.558 E3.68711
G1 X89.008 Y107.683 E3.69361
G1 X89.146 Y107.924 E3.70747
G1 X89.39 Y108.183 E3.72522
G1 X89.444 Y108.366 E3.73474
G1 X89.391 Y108.552 E3.74439
G1 X89.249 Y108.695 E3.75444
G1 X88.892 Y108.791 E3.77288
G1 X88.625 Y108.945 E3.78826
G1 X88.275 Y109.294 E3.81292
G1 X87.736 Y109.445 E3.84085
G1 X87.225 Y109.295 E3.86742
G1 X86.793 Y108.863 E3.8979
G1 X86.666 Y108.43 E3.92041
G1 X86.567 Y108.235 E3.93132
G1 X86.406 Y108.089 E3.94216
G1 X86.202 Y108.01 E3.95308
G1 X85.951 Y108.015 E3.9656
G1 X85.791 Y108.053 E3.97381
G1 X85.592 Y108.141 E3.98466
G1 X85.506 Y108.213 E3.99026
G1 X84.596 Y109.122 E4.05443
G1 X83.457 Y109.441 E4.11344
G1 X82.371 Y109.123 E4.1699
G1 X82.128 Y108.881 E4.18701
G1 X81.948 Y108.758 E4.19788
G1 X81.736 Y108.707 E4.20876
G1 X81.519 Y108.735 E4.21968
G1 X81.28 Y108.881 E4.23365
G1 X81.075 Y109.085 E4.24808
G1 X79.539 Y109.516 E4.32767
G1 X78.07 Y109.086 E4.40403
G1 X76.879 Y107.895 E4.48806
G1 X76.45 Y106.429 E4.56427
G1 X76.88 Y104.958 E4.64073
G1 X77.486 Y104.316 E4.68477
G1 X77.605 Y104.133 E4.69567
G1 X77.65 Y103.919 E4.70658
G1 X77.626 Y103.736 E4.71578
G1 X77.324 Y102.703 E4.76948
G1 X77.754 Y101.231 E4.84598
G1 X78.876 Y100.045 E4.92744
M205 X10 Y10
G0 F6000 X79.09 Y100.401
M205 X8 Y8
G1 F1200 X80.409 Y100.031 E4.99578
G1 X81.727 Y100.4 E5.06407
G1 X82.591 Y101.313 E5.12678
G1 X82.812 Y101.488 E5.14084
G1 X83.073 Y101.595 E5.15492
G1 X83.354 Y101.624 E5.16901
G1 X83.546 Y101.598 E5.17868
G1 X83.597 Y101.586 E5.18129
G1 X83.86 Y101.484 E5.19536
G1 X84.083 Y101.312 E5.20941
G1 X84.25 Y101.084 E5.22351
G1 X84.328 Y100.893 E5.23381
G1 X84.374 Y100.736 E5.24197
G1 X85.057 Y100.014 E5.29155
G1 X85.965 Y99.759 E5.3386
G1 X86.872 Y100.013 E5.3856
G1 X87.722 Y100.91 E5.44725
G1 X87.943 Y101.085 E5.46131
G1 X88.179 Y101.185 E5.4741
G1 X88.451 Y101.261 E5.48819
G1 X88.519 Y101.333 E5.49313
G1 X88.74 Y101.508 E5.50719
G1 X88.976 Y101.608 E5.51998
G1 X89.178 Y101.664 E5.53044
G1 X88.925 Y101.776 E5.54424
G1 X88.704 Y101.979 E5.55921
G1 X88.443 Y102.015 E5.57236
G1 X88.186 Y102.13 E5.58641
G1 X87.97 Y102.312 E5.6005
G1 X87.787 Y102.612 E5.61803
G1 X87.625 Y103.027 E5.64026
G1 X87.422 Y103.013 E5.65041
G1 X87.146 Y103.072 E5.66449
G1 X86.886 Y103.215 E5.67929
G1 X86.759 Y103.312 E5.68727
G1 X86.561 Y103.513 E5.70134
G1 X86.427 Y103.762 E5.71545
G1 X86.368 Y104.038 E5.72953
G1 X86.371 Y104.078 E5.73153
G1 X86.337 Y104.084 E5.73325
G1 X85.996 Y104.21 E5.75139
G1 X85.748 Y104.344 E5.76545
G1 X85.547 Y104.542 E5.77953
G1 X85.41 Y104.789 E5.79362
G1 X85.343 Y105.178 E5.81331
G1 X85.345 Y105.244 E5.81661
G1 X85.394 Y105.522 E5.83069
G1 X85.518 Y105.776 E5.84479
G1 X85.707 Y105.984 E5.85881
G1 X85.948 Y106.132 E5.87292
G1 X86.082 Y106.179 E5.88001
G1 X86.24 Y106.222 E5.88818
G1 X86.52 Y106.257 E5.90226
G1 X86.788 Y106.205 E5.91588
G1 X86.817 Y106.398 E5.92561
G1 X86.935 Y106.654 E5.93968
G1 X87.119 Y106.867 E5.95372
G1 X87.357 Y107.02 E5.96783
G1 X87.612 Y107.099 E5.98115
G1 X87.736 Y107.119 E5.98742
G1 X87.832 Y107.37 E6.00083
G1 X88.002 Y107.595 E6.0149
G1 X88.229 Y107.763 E6.02899
G1 X88.549 Y107.872 E6.04585
G1 X88.667 Y107.891 E6.05181
G1 X88.741 Y108.053 E6.0607
G1 X88.855 Y108.199 E6.06994
G1 X88.996 Y108.348 E6.08017
G1 X88.788 Y108.404 E6.09092
G1 X88.529 Y108.515 E6.10498
G1 X88.342 Y108.661 E6.11682
G1 X88.064 Y108.937 E6.13636
G1 X87.739 Y109.029 E6.15321
G1 X87.436 Y108.94 E6.16897
G1 X87.147 Y108.651 E6.18936
G1 X87.049 Y108.317 E6.20672
G1 X86.933 Y108.06 E6.22079
G1 X86.749 Y107.847 E6.23483
G1 X86.512 Y107.693 E6.24893
G1 X86.242 Y107.611 E6.26301
G1 X85.859 Y107.626 E6.28213
G1 X85.699 Y107.664 E6.29034
G1 X85.436 Y107.767 E6.30443
G1 X85.223 Y107.93 E6.31781
G1 X84.387 Y108.765 E6.37676
G1 X83.46 Y109.025 E6.42479
G1 X82.58 Y108.767 E6.47054
G1 X82.41 Y108.598 E6.4825
G1 X82.184 Y108.429 E6.49658
G1 X81.92 Y108.33 E6.51065
G1 X81.639 Y108.308 E6.52471
G1 X81.363 Y108.366 E6.53878
G1 X81.114 Y108.499 E6.55287
G1 X80.998 Y108.598 E6.56047
G1 X80.867 Y108.728 E6.56968
G1 X79.542 Y109.1 E6.63834
G1 X78.281 Y108.731 E6.70389
G1 X77.234 Y107.684 E6.77776
G1 X76.867 Y106.43 E6.84295
G1 X77.238 Y105.161 E6.90891
G1 X77.777 Y104.59 E6.94809
G1 X77.94 Y104.36 E6.96215
G1 X78.032 Y104.093 E6.97624
G1 X78.046 Y103.811 E6.99033
G1 X78.01 Y103.623 E6.99988
G1 X77.741 Y102.703 E7.0477
G1 X78.112 Y101.435 E7.11361
G1 X79.09 Y100.401 E7.18462
M205 X10 Y10
G0 F6000 X79.306 Y100.755
M205 X8 Y8
G1 F1200 X80.409 Y100.446 E7.24176
G1 X81.511 Y100.755 E7.29886
G1 X82.3 Y101.588 E7.3561
G1 X82.557 Y101.801 E7.37276
G1 X82.858 Y101.948 E7.38947
G1 X83.184 Y102.019 E7.40611
G1 X83.638 Y101.988 E7.42882
G1 X83.689 Y101.976 E7.43143
G1 X84.002 Y101.861 E7.44807
G1 X84.28 Y101.675 E7.46475
G1 X84.506 Y101.429 E7.48142
G1 X84.712 Y101.004 E7.50498
G1 X84.73 Y100.942 E7.5082
G1 X85.273 Y100.368 E7.54762
G1 X85.965 Y100.174 E7.58348
G1 X86.658 Y100.369 E7.6194
G1 X87.432 Y101.185 E7.67551
G1 X87.689 Y101.398 E7.69216
G1 X88.071 Y101.57 E7.71306
G1 X88.237 Y101.616 E7.72166
G1 X88.284 Y101.655 E7.7247
G1 X88.135 Y101.703 E7.73251
G1 X87.85 Y101.878 E7.7492
G1 X87.614 Y102.115 E7.76588
G1 X87.414 Y102.467 E7.78608
G1 X87.352 Y102.626 E7.7946
G1 X87.125 Y102.659 E7.80604
G1 X86.815 Y102.785 E7.82273
G1 X86.643 Y102.897 E7.83297
G1 X86.516 Y102.994 E7.84095
G1 X86.277 Y103.227 E7.8576
G1 X86.099 Y103.51 E7.87428
G1 X86.01 Y103.779 E7.88842
G1 X85.858 Y103.835 E7.8965
G1 X85.56 Y103.987 E7.91319
G1 X85.308 Y104.206 E7.92984
G1 X85.114 Y104.478 E7.94651
G1 X84.99 Y104.788 E7.96317
G1 X84.944 Y105.19 E7.98336
G1 X84.946 Y105.256 E7.98665
G1 X84.996 Y105.587 E8.00335
G1 X85.122 Y105.896 E8.02
G1 X85.319 Y106.166 E8.03667
G1 X85.573 Y106.382 E8.05331
G1 X85.977 Y106.565 E8.07544
G1 X86.135 Y106.608 E8.0836
G1 X86.466 Y106.657 E8.1003
G1 X86.49 Y106.655 E8.1015
G1 X86.509 Y106.71 E8.1044
G1 X86.687 Y106.993 E8.12108
G1 X86.926 Y107.225 E8.1377
G1 X87.214 Y107.395 E8.15439
G1 X87.436 Y107.46 E8.16593
G1 X87.454 Y107.51 E8.16858
G1 X87.638 Y107.789 E8.18525
G1 X87.882 Y108.016 E8.20188
G1 X88.174 Y108.179 E8.21856
G1 X88.284 Y108.21 E8.22426
G1 X88.06 Y108.378 E8.23823
G1 X87.856 Y108.581 E8.25259
G1 X87.741 Y108.613 E8.25855
G1 X87.648 Y108.586 E8.26338
G1 X87.502 Y108.44 E8.27368
G1 X87.433 Y108.205 E8.2859
G1 X87.302 Y107.898 E8.30255
G1 X87.101 Y107.63 E8.31926
G1 X86.843 Y107.419 E8.33589
G1 X86.542 Y107.274 E8.35256
G1 X86.215 Y107.205 E8.36923
G1 X85.766 Y107.237 E8.39169
G1 X85.606 Y107.275 E8.39989
G1 X85.293 Y107.39 E8.41653
G1 X84.941 Y107.647 E8.43828
G1 X84.179 Y108.409 E8.49204
G1 X83.463 Y108.609 E8.52913
G1 X82.79 Y108.412 E8.56411
G1 X82.693 Y108.315 E8.57096
G1 X82.43 Y108.109 E8.58762
G1 X82.125 Y107.971 E8.60432
G1 X81.797 Y107.909 E8.62098
G1 X81.463 Y107.927 E8.63767
G1 X81.143 Y108.023 E8.65433
G1 X80.855 Y108.192 E8.67099
G1 X80.716 Y108.314 E8.68022
G1 X80.658 Y108.372 E8.68431
G1 X79.545 Y108.684 E8.74198
G1 X78.491 Y108.375 E8.79678
G1 X77.589 Y107.473 E8.86042
G1 X77.284 Y106.43 E8.91463
G1 X77.595 Y105.366 E8.96994
G1 X78.068 Y104.865 E9.00431
G1 X78.267 Y104.596 E9.02101
G1 X78.396 Y104.288 E9.03767
G1 X78.449 Y103.958 E9.05434
G1 X78.394 Y103.511 E9.07681
G1 X78.158 Y102.703 E9.11881
G1 X78.469 Y101.64 E9.17406
G1 X79.306 Y100.755 E9.23483
M205 X10 Y10
G0 F6000 X79.52 Y101.111
M205 X8 Y8
G1 F1200 X80.409 Y100.861 E9.28091
G1 X81.297 Y101.11 E9.32692
G1 X82.01 Y101.863 E9.37865
G1 X82.298 Y102.109 E9.39755
G1 X82.631 Y102.289 E9.41644
G1 X82.995 Y102.396 E9.43536
G1 X83.373 Y102.424 E9.45427
G1 X83.729 Y102.377 E9.47219
G1 X83.78 Y102.365 E9.4748
G1 X84.138 Y102.24 E9.49372
G1 X84.462 Y102.043 E9.51264
G1 X84.737 Y101.782 E9.53155
G1 X84.951 Y101.47 E9.55043
G1 X85.081 Y101.152 E9.56757
G1 X85.487 Y100.724 E9.597
G1 X85.965 Y100.589 E9.62178
G1 X86.444 Y100.724 E9.64661
G1 X87.142 Y101.46 E9.69722
G1 X87.43 Y101.706 E9.71611
G1 X87.442 Y101.712 E9.71678
G1 X87.225 Y101.97 E9.7336
G1 X87.071 Y102.265 E9.7502
G1 X86.758 Y102.367 E9.76663
G1 X86.4 Y102.58 E9.78741
G1 X86.273 Y102.677 E9.79538
G1 X85.998 Y102.937 E9.81426
G1 X85.784 Y103.249 E9.83314
G1 X85.691 Y103.474 E9.84529
G1 X85.379 Y103.628 E9.86264
G1 X85.083 Y103.863 E9.8815
