;FLAVOR:Marlin
;TIME:2357
;Filament used: 1.77499m
;Layer height: 0.3
;MINX:0
;MINY:0
;MINZ:0.3
;MAXX:131.561
;MAXY:116.168
;MAXZ:24.6
;TARGET_MACHINE.NAME:Anycubic i3 Mega S/Pro
;Generated with Cura_SteamEngine 5.11.0
;Profil Homepage: https://github.com/NilsRo/Cura_Anycubic_MegaS_Profile

;Slicer Information - (Support for OctoPrint Slicer Estimator)
;Slicer info:material_guid;0ff92885-617b-4144-a03c-9989872454bc
;Slicer info:material_id;generic_pla_175
;Slicer info:material_brand;Generic
;Slicer info:material_name;PLA
;Slicer info:filament_cost;[0.0];Slicer info:material_bed_temperature;60
;Slicer info:material_bed_temperature_layer_0;60
;Slicer info:material_print_temperature;200
;Slicer info:material_print_temperature_layer_0;205
;Slicer info:material_flow;100
;Slicer info:layer_height;0.3
;Slicer info:machine_nozzle_size;0.4
;Slicer info:wall_thickness;1.2000000000000002
;Slicer info:speed_print;50.0
;Slicer info:speed_topbottom;25.0
;Slicer info:travel_speed;100.0
;Slicer info:support;0
;Slicer info:retraction_speed;30
;Slicer info:retraction_amount;6
;Slicer info:layer_height;0.3
;Slicer info:infill_pattern;grid
;Slicer info:infill_sparse_density;25
;Slicer info:cool_fan_enabled;True
;Slicer info:cool_fan_speed;100
;Slicer info:sliced_at;Fri 12-12-2025 23:56:51
G21                                        ; metric values 
G90                                        ; absolute positioning 
M82                                        ; set extruder to absolute mode 
M900 K0                                    ; disable lin. adv. if not set in GCODE
M107                                       ; start with the fan off 
M140 S60   ; Start heating the bed 
G4 S60                                     ; wait 1 minute 
M104 S205 ; start heating the hot end 
M190 S60   ; wait for bed 
M109 S205 ; wait for hotend 
M300 S1000 P500                            ; BEEP heating done 
G28 X0 Y10 Z0                              ; move X/Y to min endstops 
M420 S1                                    ; Enable leveling 
M420 Z2.0                                  ; Set leveling fading height to 2 mm 
G0 Z0.15                                   ; lift nozzle a bit 
G92 E0                                     ; zero the extruded length 
G1 X50 E20 F500                            ; Extrude 20mm of filament in a 5cm line. 
G92 E0                                     ; zero the extruded length again 
G1 E-2 F500                                ; Retract a little 
G1 X50 F500                                ; wipe away from the filament line
G1 X100 F9000                              ; Quickly wipe away from the filament line
M82 ;absolute extrusion mode
G92 E0
G92 E0
G1 F1800 E-6
;LAYER_COUNT:82
;LAYER:0
M106 S76.5
M205 X10 Y10
G1 F480 Z0.375
G0 F6000 X0.00 Y0.00 Z0.375
G0 X79.031 Y99.571
M205 X8 Y8
;TYPE:SKIRT
G1 F480 Z0.3
G1 F1800 E0
G1 F1200 X80.664 Y99.113 E0.08461
G1 X82.297 Y99.571 E0.16923
G1 X83.478 Y100.818 E0.25491
G1 X83.628 Y101.332 E0.28163
G1 X83.699 Y101.435 E0.28787
G1 X83.774 Y101.471 E0.29202
G1 X83.825 Y101.483 E0.29463
G1 X83.95 Y101.472 E0.30089
G1 X84.016 Y101.425 E0.30494
G1 X84.465 Y100.951 E0.33751
G1 X84.971 Y100.81 E0.36372
G1 X85.074 Y100.74 E0.36993
G1 X85.109 Y100.673 E0.3737
G1 X85.266 Y100.134 E0.40171
G1 X85.861 Y99.506 E0.44487
G1 X86.68 Y99.276 E0.48731
G1 X87.499 Y99.506 E0.52975
G1 X87.927 Y99.958 E0.56081
G1 X88.037 Y100.018 E0.56706
G1 X88.127 Y100.013 E0.57155
G1 X88.651 Y99.863 E0.59875
G1 X89.121 Y99.995 E0.6231
G1 X89.464 Y100.358 E0.64802
G1 X89.596 Y100.811 E0.67156
G1 X89.465 Y101.28 E0.69585
G1 X89.123 Y101.622 E0.71998
G1 X88.654 Y101.753 E0.74428
G1 X88.329 Y101.656 E0.7612
G1 X88.204 Y101.66 E0.76744
G1 X88.131 Y101.707 E0.77177
G1 X87.864 Y101.974 E0.79061
G1 X87.807 Y102.085 E0.79683
G1 X87.813 Y102.172 E0.80118
G1 X87.841 Y102.268 E0.80617
G1 X87.789 Y102.456 E0.8159
G1 X87.649 Y102.596 E0.82578
G1 X87.465 Y102.647 E0.83531
G1 X87.216 Y102.559 E0.84848
G1 X87.096 Y102.555 E0.85447
G1 X86.76 Y102.648 E0.87187
G1 X86.384 Y102.564 E0.89109
G1 X86.285 Y102.477 E0.89766
G1 X86.17 Y102.428 E0.9039
G1 X86.048 Y102.457 E0.91016
G1 X85.96 Y102.573 E0.91742
G1 X85.883 Y102.849 E0.93172
G1 X85.643 Y103.089 E0.94865
G1 X85.314 Y103.181 E0.96569
G1 X84.999 Y103.088 E0.98208
G1 X84.86 Y102.95 E0.99185
G1 X84.776 Y102.9 E0.99673
G1 X84.58 Y102.842 E1.00692
G1 X84.48 Y102.845 E1.01192
G1 X84.448 Y102.777 E1.01567
G1 X84.205 Y102.533 E1.03285
G1 X84.093 Y102.476 E1.03912
G1 X83.97 Y102.497 E1.04534
G1 X83.87 Y102.621 E1.05329
G1 X83.808 Y102.848 E1.06503
G1 X83.814 Y102.973 E1.07127
G1 X83.946 Y103.093 E1.08017
G1 X84.216 Y103.17 E1.09418
G1 X84.313 Y103.166 E1.09902
G1 X84.341 Y103.23 E1.10251
G1 X84.55 Y103.452 E1.11772
G1 X84.655 Y103.829 E1.13724
G1 X84.725 Y103.932 E1.14346
G1 X84.794 Y103.968 E1.14734
G1 X84.991 Y104.023 E1.15754
G1 X85.184 Y104.228 E1.17159
G1 X85.257 Y104.476 E1.18449
G1 X85.212 Y104.64 E1.19297
G1 X85.218 Y104.764 E1.19917
G1 X85.262 Y104.833 E1.20325
G1 X85.299 Y104.871 E1.2059
G1 X85.409 Y104.928 E1.21208
G1 X85.498 Y104.923 E1.21652
G1 X85.553 Y104.907 E1.21938
G1 X85.736 Y104.959 E1.22887
G1 X85.88 Y105.111 E1.23932
G1 X85.934 Y105.293 E1.24879
G1 X85.881 Y105.483 E1.25863
G1 X85.741 Y105.623 E1.26851
G1 X85.552 Y105.676 E1.2783
G1 X85.37 Y105.622 E1.28777
G1 X85.22 Y105.472 E1.29836
G1 X85.167 Y105.29 E1.30781
G1 X85.182 Y105.238 E1.31051
G1 X85.178 Y105.114 E1.3167
G1 X85.131 Y105.041 E1.32103
G1 X85.093 Y105.003 E1.32372
G1 X84.982 Y104.946 E1.32994
G1 X84.896 Y104.952 E1.33424
G1 X84.735 Y104.999 E1.34261
G1 X84.508 Y104.932 E1.35442
G1 X84.383 Y104.936 E1.36066
G1 X84.311 Y104.983 E1.36495
G1 X84.273 Y105.021 E1.36763
G1 X84.216 Y105.132 E1.37385
G1 X84.222 Y105.218 E1.37815
G1 X84.296 Y105.469 E1.39121
G1 X84.204 Y105.798 E1.40825
G1 X83.963 Y106.039 E1.42526
G1 X83.64 Y106.129 E1.44199
G1 X83.246 Y105.994 E1.46276
G1 X83.121 Y105.992 E1.469
G1 X83.038 Y106.043 E1.47386
G1 X82.675 Y106.413 E1.49972
G1 X82.62 Y106.525 E1.50595
G1 X82.626 Y106.609 E1.51015
G1 X82.822 Y107.277 E1.54488
G1 X82.809 Y107.325 E1.54736
G1 X82.815 Y107.449 E1.55355
G1 X82.906 Y107.553 E1.56045
G1 X82.968 Y107.587 E1.56398
G1 X83.091 Y107.61 E1.57022
G1 X83.209 Y107.549 E1.57685
G1 X83.606 Y107.129 E1.60568
G1 X83.653 Y107.049 E1.61031
G1 X83.684 Y106.945 E1.61572
G1 X84.027 Y106.582 E1.64064
G1 X84.497 Y106.45 E1.66499
G1 X84.543 Y106.463 E1.66738
G1 X84.668 Y106.458 E1.67362
G1 X84.734 Y106.418 E1.67747
G1 X84.864 Y106.298 E1.6863
G1 X85.262 Y106.205 E1.70669
G1 X85.573 Y106.271 E1.72255
G1 X85.697 Y106.257 E1.72878
G1 X85.759 Y106.213 E1.73257
G1 X85.824 Y106.145 E1.73726
G1 X86.011 Y106.092 E1.74696
G1 X86.197 Y106.145 E1.75661
G1 X86.342 Y106.298 E1.76712
G1 X86.395 Y106.48 E1.77658
G1 X86.345 Y106.661 E1.78595
G1 X86.129 Y106.852 E1.80033
G1 X86.066 Y106.96 E1.80657
G1 X86.067 Y107.047 E1.81091
G1 X86.079 Y107.099 E1.81358
G1 X86.144 Y107.206 E1.81982
G1 X86.22 Y107.247 E1.82413
G1 X86.369 Y107.289 E1.83185
G1 X86.611 Y107.545 E1.84943
G1 X86.704 Y107.864 E1.86601
G1 X86.678 Y107.957 E1.87082
G1 X86.683 Y108.082 E1.87706
G1 X86.77 Y108.184 E1.88375
G1 X86.831 Y108.219 E1.88726
G1 X86.954 Y108.245 E1.89353
G1 X87.076 Y108.184 E1.90034
G1 X87.21 Y108.043 E1.91004
G1 X87.536 Y107.95 E1.92696
G1 X87.909 Y108.057 E1.94632
G1 X88.034 Y108.052 E1.95256
G1 X88.109 Y108.003 E1.95703
G1 X88.254 Y107.85 E1.96754
G1 X88.441 Y107.797 E1.97724
G1 X88.628 Y107.85 E1.98694
G1 X88.771 Y108 E1.99728
G1 X88.878 Y108.058 E2.00335
G1 X89.188 Y108.118 E2.0191
G1 X89.324 Y108.298 E2.03036
G1 X89.441 Y108.886 E2.06027
G1 X89.378 Y109.167 E2.07463
G1 X89.199 Y109.337 E2.08695
G1 X88.759 Y109.374 E2.10898
G1 X88.644 Y109.423 E2.11522
G1 X88.583 Y109.519 E2.12089
G1 X88.555 Y109.62 E2.12612
G1 X88.213 Y109.962 E2.15025
G1 X87.744 Y110.093 E2.17454
G1 X87.293 Y109.961 E2.19799
G1 X86.93 Y109.598 E2.2236
G1 X86.798 Y109.149 E2.24695
G1 X86.898 Y108.809 E2.26463
G1 X86.897 Y108.695 E2.27032
G1 X86.873 Y108.617 E2.27439
G1 X86.898 Y108.533 E2.27876
G1 X86.894 Y108.408 E2.285
G1 X86.809 Y108.306 E2.29162
G1 X86.749 Y108.27 E2.29512
G1 X86.627 Y108.242 E2.30136
G1 X86.505 Y108.3 E2.3081
G1 X86.372 Y108.433 E2.31748
G1 X86.042 Y108.525 E2.33458
G1 X85.831 Y108.463 E2.34555
G1 X85.706 Y108.467 E2.35179
G1 X85.582 Y108.601 E2.3609
G1 X85.481 Y108.962 E2.3796
G1 X84.989 Y109.454 E2.41431
G1 X84.31 Y109.644 E2.44949
G1 X83.658 Y109.453 E2.48338
G1 X83.135 Y108.93 E2.52028
G1 X82.969 Y108.364 E2.54971
G1 X82.898 Y108.261 E2.55595
G1 X82.777 Y108.22 E2.56233
G1 X82.709 Y108.22 E2.56572
G1 X82.59 Y108.259 E2.57197
G1 X82.516 Y108.366 E2.57846
G1 X82.39 Y108.816 E2.60177
G1 X81.28 Y109.926 E2.68009
G1 X79.743 Y110.356 E2.75971
G1 X78.268 Y109.924 E2.83639
G1 X77.094 Y108.75 E2.91922
G1 X76.662 Y107.276 E2.99586
G1 X77.001 Y106.119 E3.056
G1 X76.997 Y105.994 E3.06224
G1 X76.951 Y105.922 E3.06651
G1 X76.637 Y105.607 E3.0887
G1 X76.26 Y104.32 E3.1556
G1 X76.636 Y103.032 E3.22254
G1 X77.424 Y102.2 E3.27972
G1 X77.471 Y102.118 E3.28443
G1 X77.85 Y100.818 E3.35199
G1 X79.031 Y99.571 E3.43767
M205 X10 Y10
G0 F6000 X79.246 Y99.925
M205 X8 Y8
G1 F1200 X80.664 Y99.528 E3.51114
G1 X82.082 Y99.925 E3.5846
G1 X83.121 Y101.024 E3.66006
G1 X83.244 Y101.444 E3.68189
G1 X83.342 Y101.639 E3.69278
G1 X83.503 Y101.786 E3.70366
G1 X83.683 Y101.86 E3.71336
G1 X83.734 Y101.872 E3.71598
G1 X83.951 Y101.883 E3.72682
G1 X84.159 Y101.814 E3.73775
G1 X84.307 Y101.7 E3.74707
G1 X84.68 Y101.306 E3.77414
G1 X85.078 Y101.195 E3.79475
G1 X85.274 Y101.099 E3.80564
G1 X85.423 Y100.94 E3.81651
G1 X85.493 Y100.785 E3.825
G1 X85.623 Y100.34 E3.84813
G1 X86.076 Y99.86 E3.88106
G1 X86.68 Y99.691 E3.91235
G1 X87.284 Y99.86 E3.94364
G1 X87.636 Y100.233 E3.96923
G1 X87.812 Y100.362 E3.98011
G1 X88.023 Y100.419 E3.99102
G1 X88.237 Y100.398 E4.00174
G1 X88.653 Y100.279 E4.02333
G1 X88.906 Y100.35 E4.03644
G1 X89.108 Y100.564 E4.05112
G1 X89.18 Y100.813 E4.06405
G1 X89.108 Y101.071 E4.07742
G1 X88.914 Y101.265 E4.0911
G1 X88.658 Y101.337 E4.10437
G1 X88.443 Y101.273 E4.11556
G1 X88.226 Y101.25 E4.12645
G1 X88.015 Y101.306 E4.13734
G1 X87.848 Y101.424 E4.14754
G1 X87.581 Y101.691 E4.16638
G1 X87.457 Y101.87 E4.17725
G1 X87.406 Y102.083 E4.18817
G1 X87.421 Y102.207 E4.1944
G1 X87.349 Y102.182 E4.19821
G1 X87.133 Y102.148 E4.20912
G1 X86.989 Y102.17 E4.21638
G1 X86.752 Y102.236 E4.22866
G1 X86.571 Y102.195 E4.23792
G1 X86.549 Y102.176 E4.23937
G1 X86.361 Y102.064 E4.25028
G1 X86.146 Y102.027 E4.26117
G1 X85.932 Y102.069 E4.27205
G1 X85.747 Y102.185 E4.28294
G1 X85.616 Y102.359 E4.29381
G1 X85.575 Y102.465 E4.29948
G1 X85.526 Y102.64 E4.30854
G1 X85.434 Y102.732 E4.31504
G1 X85.318 Y102.765 E4.32105
G1 X85.208 Y102.733 E4.32677
G1 X85.142 Y102.667 E4.33142
G1 X84.889 Y102.517 E4.3461
G1 X84.696 Y102.46 E4.35614
G1 X84.488 Y102.251 E4.37085
G1 X84.309 Y102.127 E4.38171
G1 X84.097 Y102.075 E4.3926
G1 X83.88 Y102.103 E4.40352
G1 X83.688 Y102.206 E4.41439
G1 X83.545 Y102.371 E4.42528
G1 X83.484 Y102.516 E4.43313
G1 X83.422 Y102.743 E4.44487
G1 X83.404 Y102.96 E4.45573
G1 X83.465 Y103.17 E4.46664
G1 X83.596 Y103.344 E4.47751
G1 X83.836 Y103.478 E4.49122
G1 X84.095 Y103.552 E4.50466
G1 X84.192 Y103.654 E4.51169
G1 X84.27 Y103.936 E4.52628
G1 X84.366 Y104.132 E4.53717
G1 X84.525 Y104.281 E4.54804
G1 X84.686 Y104.353 E4.55684
G1 X84.775 Y104.378 E4.56145
G1 X84.827 Y104.433 E4.56523
G1 X84.841 Y104.482 E4.56777
G1 X84.827 Y104.533 E4.57041
G1 X84.824 Y104.563 E4.57191
G1 X84.785 Y104.568 E4.57388
G1 X84.737 Y104.582 E4.57637
G1 X84.621 Y104.548 E4.5824
G1 X84.404 Y104.526 E4.59328
G1 X84.193 Y104.583 E4.60419
G1 X84.028 Y104.7 E4.61428
G1 X83.99 Y104.738 E4.61696
G1 X83.866 Y104.917 E4.62782
G1 X83.815 Y105.13 E4.63875
G1 X83.838 Y105.331 E4.64884
G1 X83.88 Y105.473 E4.65623
G1 X83.847 Y105.589 E4.66225
G1 X83.754 Y105.682 E4.66881
G1 X83.652 Y105.711 E4.6741
G1 X83.376 Y105.616 E4.68866
G1 X83.16 Y105.583 E4.69956
G1 X82.947 Y105.63 E4.71045
G1 X82.753 Y105.763 E4.72218
G1 X82.39 Y106.133 E4.74804
G1 X82.268 Y106.314 E4.75893
G1 X82.219 Y106.526 E4.76979
G1 X82.242 Y106.722 E4.77963
G1 X82.416 Y107.315 E4.81046
G1 X82.405 Y107.435 E4.81648
G1 X82.465 Y107.645 E4.82737
G1 X82.596 Y107.819 E4.83824
G1 X82.62 Y107.837 E4.83974
G1 X82.494 Y107.86 E4.84613
G1 X82.308 Y107.973 E4.85698
G1 X82.175 Y108.146 E4.86787
G1 X82.131 Y108.258 E4.87387
G1 X82.033 Y108.607 E4.89196
G1 X81.071 Y109.569 E4.95983
G1 X79.746 Y109.94 E5.02848
G1 X78.479 Y109.569 E5.09435
G1 X77.449 Y108.539 E5.16702
G1 X77.079 Y107.276 E5.23268
G1 X77.385 Y106.232 E5.28695
G1 X77.407 Y106.014 E5.29788
G1 X77.35 Y105.804 E5.30874
G1 X77.234 Y105.639 E5.3188
G1 X76.992 Y105.396 E5.33591
G1 X76.677 Y104.32 E5.39185
G1 X76.993 Y103.237 E5.44813
G1 X77.715 Y102.475 E5.5005
G1 X77.855 Y102.23 E5.51458
G1 X78.207 Y101.024 E5.57726
G1 X79.246 Y99.925 E5.65271
M205 X10 Y10
G0 F6000 X79.46 Y100.281
M205 X8 Y8
G1 F1200 X80.664 Y99.944 E5.71509
G1 X81.868 Y100.281 E5.77747
G1 X82.764 Y101.228 E5.84251
G1 X82.86 Y101.556 E5.85956
G1 X82.976 Y101.813 E5.87363
G1 X83.16 Y102.027 E5.88771
G1 X83.258 Y102.091 E5.89354
G1 X83.098 Y102.411 E5.91139
G1 X83.036 Y102.638 E5.92313
G1 X83.001 Y102.917 E5.93716
G1 X83.046 Y103.196 E5.95126
G1 X83.166 Y103.451 E5.96532
G1 X83.353 Y103.663 E5.97943
G1 X83.591 Y103.813 E5.99346
G1 X83.727 Y103.863 E6.00069
G1 X83.844 Y103.896 E6.00675
G1 X83.885 Y104.043 E6.01437
G1 X83.976 Y104.252 E6.02574
G1 X83.917 Y104.279 E6.02898
G1 X83.745 Y104.417 E6.03998
G1 X83.707 Y104.455 E6.04266
G1 X83.538 Y104.681 E6.05674
G1 X83.438 Y104.945 E6.07082
G1 X83.416 Y105.22 E6.08459
G1 X83.229 Y105.184 E6.09409
G1 X82.948 Y105.211 E6.10817
G1 X82.686 Y105.314 E6.12222
G1 X82.467 Y105.483 E6.13602
G1 X82.104 Y105.853 E6.16188
G1 X81.937 Y106.08 E6.17594
G1 X81.84 Y106.345 E6.19002
G1 X81.821 Y106.626 E6.20407
G1 X81.858 Y106.834 E6.21461
G1 X82.008 Y107.346 E6.24123
G1 X82.002 Y107.391 E6.24349
G1 X82.045 Y107.669 E6.25752
G1 X82.05 Y107.68 E6.25813
G1 X81.958 Y107.759 E6.26418
G1 X81.804 Y107.995 E6.27824
G1 X81.746 Y108.15 E6.28649
G1 X81.677 Y108.397 E6.29929
G1 X80.862 Y109.212 E6.35679
G1 X79.749 Y109.524 E6.41446
G1 X78.69 Y109.214 E6.46951
G1 X77.804 Y108.328 E6.53202
G1 X77.496 Y107.276 E6.58671
G1 X77.769 Y106.344 E6.63516
G1 X77.809 Y106.065 E6.64922
G1 X77.77 Y105.785 E6.66333
G1 X77.654 Y105.528 E6.67739
G1 X77.517 Y105.357 E6.68833
G1 X77.348 Y105.187 E6.70028
G1 X77.094 Y104.318 E6.74545
G1 X77.35 Y103.442 E6.79098
G1 X78.005 Y102.75 E6.83852
G1 X78.168 Y102.519 E6.85263
G1 X78.239 Y102.342 E6.86214
G1 X78.564 Y101.228 E6.92004
G1 X79.46 Y100.281 E6.98508
M205 X10 Y10
G0 F6000 X79.675 Y100.636
M205 X8 Y8
G1 F1200 X80.664 Y100.359 E7.03632
G1 X81.653 Y100.636 E7.08756
G1 X82.408 Y101.433 E7.14233
G1 X82.476 Y101.668 E7.15453
G1 X82.607 Y101.975 E7.17119
G1 X82.759 Y102.179 E7.18388
G1 X82.712 Y102.305 E7.19059
G1 X82.65 Y102.532 E7.20233
G1 X82.602 Y102.863 E7.21901
G1 X82.632 Y103.195 E7.23565
G1 X82.741 Y103.511 E7.25232
G1 X82.921 Y103.792 E7.26897
G1 X83.163 Y104.023 E7.28566
G1 X83.424 Y104.172 E7.30066
G1 X83.218 Y104.435 E7.31732
G1 X83.079 Y104.739 E7.334
G1 X83.068 Y104.795 E7.33685
G1 X82.975 Y104.798 E7.34149
G1 X82.653 Y104.886 E7.35814
G1 X82.361 Y105.048 E7.3748
G1 X82.182 Y105.203 E7.38662
G1 X81.819 Y105.573 E7.41248
G1 X81.615 Y105.837 E7.42912
G1 X81.479 Y106.143 E7.44583
G1 X81.42 Y106.471 E7.46245
G1 X81.474 Y106.946 E7.4863
G1 X81.61 Y107.409 E7.51038
G1 X81.622 Y107.55 E7.51744
G1 X81.565 Y107.613 E7.52168
G1 X81.361 Y108.042 E7.54538
G1 X81.32 Y108.188 E7.55294
G1 X80.652 Y108.856 E7.60007
G1 X79.753 Y109.108 E7.64665
G1 X78.901 Y108.859 E7.69094
G1 X78.159 Y108.117 E7.74329
G1 X77.913 Y107.276 E7.78701
G1 X78.153 Y106.456 E7.82963
G1 X78.208 Y106.127 E7.84627
G1 X78.183 Y105.794 E7.86293
G1 X78.08 Y105.476 E7.87961
G1 X77.8 Y105.074 E7.90405
G1 X77.703 Y104.977 E7.9109
G1 X77.511 Y104.319 E7.94509
G1 X77.707 Y103.647 E7.98002
G1 X78.296 Y103.025 E8.02275
G1 X78.495 Y102.756 E8.03945
G1 X78.623 Y102.454 E8.05581
G1 X78.92 Y101.433 E8.10886
G1 X79.675 Y100.636 E8.16363
