;FLAVOR:Marlin
;TIME:1744
;Filament used: 1.24471m
;Layer height: 0.2
;MINX:0
;MINY:0
;MINZ:0.3
;MAXX:157.882
;MAXY:140.441
;MAXZ:2.975
;TARGET_MACHINE.NAME:Anycubic i3 Mega S/Pro
;Generated with Cura_SteamEngine 5.11.0
;Profil Homepage: https://github.com/NilsRo/Cura_Anycubic_MegaS_Profile

;Slicer Information - (Support for OctoPrint Slicer Estimator)
;Slicer info:material_guid;0ff92885-617b-4144-a03c-9989872454bc
;Slicer info:material_id;generic_pla_175
;Slicer info:material_brand;Generic
;Slicer info:material_name;PLA
;Slicer info:filament_cost;[0.0];Slicer info:material_bed_temperature;60
;Slicer info:material_bed_temperature_layer_0;60
;Slicer info:material_print_temperature;200
;Slicer info:material_print_temperature_layer_0;205
;Slicer info:material_flow;100
;Slicer info:layer_height;0.2
;Slicer info:machine_nozzle_size;0.4
;Slicer info:wall_thickness;1.2000000000000002
;Slicer info:speed_print;50.0
;Slicer info:speed_topbottom;25.0
;Slicer info:travel_speed;100.0
;Slicer info:support;0
;Slicer info:retraction_speed;30
;Slicer info:retraction_amount;6
;Slicer info:layer_height;0.2
;Slicer info:infill_pattern;grid
;Slicer info:infill_sparse_density;25
;Slicer info:cool_fan_enabled;True
;Slicer info:cool_fan_speed;100
;Slicer info:sliced_at;Sun 14-12-2025 17:21:18
G21                                        ; metric values 
G90                                        ; absolute positioning 
M82                                        ; set extruder to absolute mode 
M900 K0                                    ; disable lin. adv. if not set in GCODE
M107                                       ; start with the fan off 
M140 S60   ; Start heating the bed 
G4 S60                                     ; wait 1 minute 
M104 S205 ; start heating the hot end 
M190 S60   ; wait for bed 
M109 S205 ; wait for hotend 
M300 S1000 P500                            ; BEEP heating done 
G28 X0 Y10 Z0                              ; move X/Y to min endstops 
M420 S1                                    ; Enable leveling 
M420 Z2.0                                  ; Set leveling fading height to 2 mm 
G0 Z0.15                                   ; lift nozzle a bit 
G92 E0                                     ; zero the extruded length 
G1 X50 E20 F500                            ; Extrude 20mm of filament in a 5cm line. 
G92 E0                                     ; zero the extruded length again 
G1 E-2 F500                                ; Retract a little 
G1 X50 F500                                ; wipe away from the filament line
G1 X100 F9000                              ; Quickly wipe away from the filament line
M82 ;absolute extrusion mode
G92 E0
G92 E0
G1 F1800 E-6
;LAYER_COUNT:14
;LAYER:0
M106 S76.5
M205 X10 Y10
G1 F480 Z0.375
G0 F6000 X0.00 Y0.00 Z0.375
G0 X56.526 Y79.571
M205 X8 Y8
;TYPE:SKIRT
G1 F480 Z0.3
G1 F1800 E0
G1 F1200 X57.241 Y79.144 E0.04155
G1 X58.402 Y78.587 E0.10579
G1 X58.558 Y78.503 E0.11463
G1 X59.858 Y77.879 E0.18657
G1 X62.244 Y76.65 E0.32047
G1 X64.552 Y75.378 E0.45195
G1 X66.884 Y74.005 E0.58696
G1 X69.154 Y72.58 E0.72068
G1 X70.758 Y71.519 E0.81663
G1 X71.789 Y70.821 E0.87874
G1 X72.389 Y70.47 E0.91342
G1 X73.21 Y70.121 E0.95793
G1 X74.559 Y69.794 E1.02718
G1 X75.524 Y69.656 E1.07581
G1 X76.171 Y69.593 E1.10824
G1 X76.929 Y69.566 E1.14609
G1 X79.325 Y69.559 E1.26562
G1 X80.057 Y69.57 E1.30215
G1 X80.826 Y69.626 E1.34061
G1 X82.895 Y70.075 E1.44624
G1 X85.497 Y70.593 E1.5786
G1 X88.132 Y71.039 E1.71193
G1 X90.749 Y71.406 E1.84377
G1 X93.432 Y71.706 E1.97846
G1 X96.096 Y71.929 E2.11183
G1 X98.745 Y72.074 E2.24419
G1 X101.415 Y72.144 E2.37744
G1 X104.072 Y72.139 E2.51
G1 X106.782 Y72.058 E2.64526
G1 X109.436 Y71.903 E2.7779
G1 X112.055 Y71.675 E2.90906
G1 X114.728 Y71.367 E3.04329
G1 X117.382 Y70.984 E3.17707
G1 X119.995 Y70.531 E3.30938
G1 X124.327 Y69.627 E3.53016
G1 X125.13 Y69.559 E3.57037
G1 X135.304 Y69.558 E4.07795
G1 X136.169 Y69.567 E4.12111
G1 X137.128 Y69.607 E4.16899
G1 X138.148 Y69.693 E4.22006
G1 X138.958 Y69.8 E4.26082
G1 X140.245 Y70.026 E4.32602
G1 X140.766 Y70.134 E4.35256
G1 X141.692 Y70.371 E4.40025
G1 X142.628 Y70.653 E4.44902
G1 X143.527 Y70.968 E4.49654
G1 X144.65 Y71.423 E4.55699
G1 X145.518 Y71.827 E4.60476
G1 X146.353 Y72.257 E4.65162
G1 X147.022 Y72.638 E4.69003
G1 X148.016 Y73.261 E4.74855
G1 X148.788 Y73.8 E4.79553
G1 X149.403 Y74.264 E4.83396
G1 X150.131 Y74.86 E4.8809
G1 X150.858 Y75.509 E4.92952
G1 X151.704 Y76.343 E4.98879
G1 X152.221 Y76.899 E5.02667
G1 X152.975 Y77.784 E5.08467
G1 X153.425 Y78.361 E5.12118
G1 X153.996 Y79.157 E5.17005
G1 X154.644 Y80.155 E5.22942
G1 X155.122 Y80.978 E5.2769
G1 X155.58 Y81.854 E5.32622
G1 X155.892 Y82.509 E5.36241
G1 X156.266 Y83.383 E5.40984
G1 X156.617 Y84.31 E5.45929
G1 X156.912 Y85.206 E5.50636
G1 X157.171 Y86.126 E5.55404
G1 X157.356 Y86.906 E5.59403
G1 X157.635 Y88.46 E5.6728
G1 X157.738 Y89.209 E5.71052
G1 X157.823 Y90.158 E5.75806
G1 X157.87 Y91.158 E5.808
G1 X157.882 Y92.189 E5.85944
G1 X157.881 Y117.952 E7.14476
G1 X157.87 Y118.671 E7.18064
G1 X157.825 Y119.291 E7.21165
G1 X157.694 Y119.973 E7.2463
G1 X157.479 Y120.633 E7.28093
G1 X157.208 Y121.218 E7.3131
G1 X156.814 Y121.849 E7.35021
G1 X156.374 Y122.386 E7.38485
G1 X155.909 Y122.832 E7.41699
G1 X155.405 Y123.215 E7.44857
G1 X152.698 Y125.094 E7.61297
G1 X150.55 Y126.686 E7.74636
G1 X148.456 Y128.331 E7.87921
G1 X146.399 Y130.042 E8.0127
G1 X144.413 Y131.792 E8.14476
G1 X142.455 Y133.62 E8.2784
G1 X140.014 Y136.046 E8.45009
G1 X139.299 Y136.78 E8.50122
G1 X138.702 Y137.313 E8.54114
G1 X137.83 Y137.96 E8.59531
G1 X137.242 Y138.349 E8.63049
G1 X136.706 Y138.67 E8.66166
G1 X136.15 Y138.967 E8.69311
G1 X135.654 Y139.206 E8.72058
G1 X135.104 Y139.441 E8.75041
G1 X134.544 Y139.653 E8.78029
G1 X133.705 Y139.921 E8.82423
G1 X133.021 Y140.093 E8.85942
G1 X132.254 Y140.244 E8.89842
G1 X131.284 Y140.383 E8.94731
G1 X130.532 Y140.439 E8.98493
G1 X77.464 Y140.441 E11.6325
G1 X76.741 Y140.43 E11.66857
G1 X75.948 Y140.384 E11.7082
G1 X75.218 Y140.303 E11.74485
G1 X74.651 Y140.213 E11.77349
G1 X74.062 Y140.094 E11.80347
G1 X73.231 Y139.878 E11.8463
G1 X72.447 Y139.621 E11.88747
G1 X71.888 Y139.405 E11.91736
G1 X71.408 Y139.195 E11.9435
G1 X70.813 Y138.906 E11.9765
G1 X69.833 Y138.357 E12.03255
G1 X68.713 Y137.567 E12.10092
G1 X68.264 Y137.194 E12.13005
G1 X67.31 Y136.315 E12.19476
G1 X66.782 Y135.743 E12.2336
G1 X66.063 Y134.814 E12.29221
G1 X65.535 Y134.038 E12.33904
G1 X65.037 Y133.172 E12.38888
G1 X64.737 Y132.564 E12.4227
G1 X64.355 Y131.715 E12.46915
G1 X63.955 Y130.668 E12.52506
G1 X62.959 Y128.174 E12.65905
G1 X61.886 Y125.695 E12.79381
G1 X60.761 Y123.287 E12.92641
G1 X59.564 Y120.899 E13.05968
G1 X59.26 Y120.338 E13.09151
G1 X58.661 Y119.188 E13.1562
G1 X58.061 Y117.939 E13.22533
G1 X56.848 Y115.283 E13.37101
G1 X56.415 Y114.288 E13.42514
G1 X56.182 Y113.428 E13.4696
G1 X56.105 Y112.905 E13.49597
G1 X56.022 Y111.821 E13.55021
G1 X55.968 Y110.93 E13.59474
G1 X55.732 Y108.267 E13.72812
G1 X55.423 Y105.631 E13.86053
G1 X55.032 Y102.948 E13.9958
G1 X54.581 Y100.368 E14.12647
G1 X54.039 Y97.718 E14.26142
G1 X53.438 Y95.146 E14.39319
G1 X52.668 Y92.207 E14.54477
G1 X52.536 Y91.346 E14.58822
G1 X52.484 Y90.696 E14.62076
G1 X52.461 Y89.57 E14.67694
G1 X52.459 Y87.41 E14.78471
G1 X52.47 Y86.68 E14.82113
G1 X52.513 Y86.073 E14.85149
G1 X52.601 Y85.414 E14.88466
G1 X52.72 Y84.746 E14.91851
G1 X52.918 Y84.044 E14.9549
G1 X53.156 Y83.468 E14.98599
G1 X53.437 Y82.916 E15.0169
G1 X53.695 Y82.443 E15.04378
G1 X54.064 Y81.858 E15.07828
G1 X54.422 Y81.413 E15.10678
G1 X55.004 Y80.786 E15.14946
G1 X55.518 Y80.314 E15.18427
G1 X56.078 Y79.888 E15.21938
G1 X56.526 Y79.571 E15.24676
M205 X10 Y10
G0 F6000 X56.732 Y79.914
M205 X8 Y8
G1 F1200 X57.414 Y79.505 E15.28643
G1 X58.575 Y78.948 E15.35067
G1 X58.731 Y78.864 E15.35951
G1 X60.031 Y78.24 E15.43146
G1 X62.427 Y77.006 E15.56591
G1 X64.755 Y75.723 E15.69853
G1 X67.087 Y74.35 E15.83354
G1 X69.367 Y72.919 E15.96784
G1 X70.979 Y71.852 E16.06428
G1 X71.993 Y71.165 E16.12539
G1 X72.548 Y70.837 E16.15755
G1 X73.304 Y70.51 E16.19865
G1 X74.653 Y70.183 E16.2679
G1 X75.563 Y70.054 E16.31375
G1 X76.185 Y69.993 E16.34493
G1 X76.93 Y69.966 E16.38212
G1 X79.319 Y69.959 E16.50131
G1 X80.03 Y69.969 E16.53679
G1 X80.741 Y70.017 E16.57234
G1 X82.81 Y70.466 E16.67797
G1 X85.424 Y70.986 E16.81093
G1 X88.076 Y71.435 E16.94513
G1 X90.705 Y71.804 E17.07757
G1 X93.391 Y72.104 E17.21241
G1 X96.063 Y72.327 E17.34618
G1 X98.735 Y72.474 E17.47969
G1 X101.406 Y72.544 E17.61299
G1 X104.084 Y72.539 E17.7466
G1 X106.794 Y72.458 E17.88186
G1 X109.461 Y72.302 E18.01515
G1 X112.1 Y72.072 E18.14731
G1 X114.785 Y71.763 E18.28215
G1 X117.439 Y71.38 E18.41593
G1 X120.077 Y70.923 E18.5495
G1 X124.361 Y70.026 E18.76786
G1 X125.164 Y69.958 E18.80807
G1 X135.3 Y69.958 E19.31375
G1 X136.152 Y69.967 E19.35626
G1 X137.095 Y70.006 E19.40335
G1 X138.096 Y70.09 E19.45346
G1 X138.889 Y70.194 E19.49337
G1 X140.164 Y70.418 E19.55795
G1 X140.667 Y70.522 E19.58358
G1 X141.577 Y70.754 E19.63043
G1 X142.496 Y71.031 E19.67831
G1 X143.377 Y71.339 E19.72488
G1 X144.482 Y71.786 E19.78434
G1 X145.335 Y72.182 E19.83126
G1 X146.155 Y72.605 E19.8773
G1 X146.81 Y72.977 E19.91488
G1 X147.787 Y73.589 E19.97239
G1 X148.547 Y74.119 E20.01862
G1 X149.15 Y74.574 E20.05631
G1 X149.878 Y75.17 E20.10324
G1 X150.577 Y75.794 E20.14999
G1 X151.411 Y76.615 E20.20838
G1 X151.917 Y77.159 E20.24544
G1 X152.66 Y78.03 E20.30256
G1 X153.1 Y78.594 E20.33825
G1 X153.661 Y79.375 E20.38622
G1 X154.298 Y80.356 E20.44458
G1 X154.776 Y81.179 E20.49206
G1 X155.219 Y82.026 E20.53975
G1 X155.524 Y82.667 E20.57516
G1 X155.892 Y83.525 E20.62174
G1 X156.237 Y84.435 E20.67029
G1 X156.527 Y85.315 E20.71652
G1 X156.782 Y86.218 E20.76333
G1 X156.962 Y86.977 E20.80225
G1 X157.239 Y88.515 E20.88022
G1 X157.34 Y89.244 E20.91693
G1 X157.423 Y90.177 E20.96366
G1 X157.47 Y91.163 E21.01291
G1 X157.482 Y92.189 E21.0641
G1 X157.481 Y117.946 E22.34913
G1 X157.471 Y118.644 E22.38395
G1 X157.432 Y119.217 E22.41261
G1 X157.313 Y119.851 E22.44479
G1 X157.116 Y120.465 E22.47696
G1 X156.845 Y121.05 E22.50912
G1 X156.503 Y121.597 E22.54131
G1 X156.097 Y122.097 E22.57344
G1 X155.632 Y122.543 E22.60559
G1 X155.181 Y122.884 E22.6338
G1 X154.709 Y123.204 E22.66225
G1 X152.469 Y124.766 E22.79849
G1 X150.303 Y126.371 E22.93298
G1 X148.209 Y128.016 E23.06583
G1 X146.143 Y129.735 E23.19992
G1 X144.149 Y131.492 E23.33251
G1 X142.173 Y133.336 E23.46735
G1 X139.732 Y135.762 E23.63905
G1 X139.012 Y136.501 E23.69052
G1 X138.436 Y137.014 E23.72901
G1 X137.609 Y137.627 E23.78036
G1 X137.037 Y138.006 E23.8146
G1 X136.517 Y138.317 E23.84482
G1 X135.976 Y138.607 E23.87545
G1 X135.497 Y138.838 E23.90198
G1 X134.962 Y139.067 E23.93101
G1 X134.422 Y139.272 E23.95983
G1 X133.607 Y139.533 E24.00252
G1 X132.923 Y139.705 E24.03771
G1 X132.197 Y139.848 E24.07463
G1 X131.254 Y139.984 E24.12216
G1 X130.502 Y140.04 E24.15978
G1 X77.47 Y140.041 E26.80556
G1 X76.764 Y140.031 E26.84079
G1 X75.992 Y139.986 E26.87937
G1 X75.28 Y139.908 E26.9151
G1 X74.73 Y139.821 E26.94288
G1 X74.162 Y139.707 E26.97178
G1 X73.355 Y139.498 E27.01337
G1 X72.591 Y139.248 E27.05348
G1 X72.048 Y139.039 E27.08251
G1 X71.582 Y138.835 E27.10789
G1 X71.008 Y138.557 E27.1397
G1 X70.063 Y138.03 E27.19369
G1 X68.969 Y137.259 E27.26046
G1 X68.52 Y136.886 E27.28958
G1 X67.603 Y136.043 E27.35172
G1 X67.098 Y135.498 E27.38879
G1 X66.394 Y134.589 E27.44615
G1 X65.866 Y133.813 E27.49298
G1 X65.396 Y132.995 E27.54005
G1 X65.102 Y132.4 E27.57316
G1 X64.729 Y131.572 E27.61847
G1 X64.328 Y130.525 E27.6744
G1 X63.326 Y128.015 E27.80923
G1 X62.253 Y125.536 E27.944
G1 X61.119 Y123.108 E28.07769
G1 X59.922 Y120.72 E28.21096
G1 X59.615 Y120.153 E28.24313
G1 X59.022 Y119.015 E28.30715
G1 X58.425 Y117.773 E28.3759
G1 X57.214 Y115.122 E28.52131
G1 X56.801 Y114.182 E28.57253
G1 X56.578 Y113.37 E28.61454
G1 X56.501 Y112.847 E28.64091
G1 X56.421 Y111.797 E28.69345
G1 X56.367 Y110.906 E28.73798
G1 X56.13 Y108.232 E28.87191
G1 X55.819 Y105.573 E29.00548
G1 X55.428 Y102.89 E29.14075
G1 X54.975 Y100.299 E29.27197
G1 X54.429 Y97.627 E29.40803
G1 X53.828 Y95.055 E29.53981
G1 X53.055 Y92.106 E29.6919
G1 X52.935 Y91.314 E29.73187
G1 X52.884 Y90.688 E29.7632
G1 X52.861 Y89.57 E29.81899
G1 X52.859 Y87.416 E29.92646
G1 X52.869 Y86.708 E29.96178
G1 X52.91 Y86.126 E29.99089
G1 X52.995 Y85.484 E30.0232
G1 X53.114 Y84.816 E30.05705
G1 X53.288 Y84.196 E30.08918
G1 X53.513 Y83.649 E30.11868
G1 X53.788 Y83.107 E30.14901
G1 X54.034 Y82.655 E30.17468
G1 X54.376 Y82.109 E30.20682
G1 X54.734 Y81.664 E30.23532
G1 X55.275 Y81.08 E30.27503
G1 X55.76 Y80.632 E30.30797
G1 X56.309 Y80.214 E30.3424
G1 X56.732 Y79.914 E30.36827
M205 X10 Y10
G1 F1800 E24.36827
G1 F480 Z0.375
;MESH:v19a - body sec.stl
G0 F6000 X56.732 Y79.914 Z0.375
G0 X63.785 Y101.369
M205 X8 Y8
;TYPE:WALL-INNER
G1 F480 Z0.3
G1 F1800 E30.36827
G1 F1200 X64.068 Y101.04 E30.38992
G1 X64.581 Y100.843 E30.41734
G1 X77.34 Y100.841 E31.05389
G1 X77.668 Y100.984 E31.07174
G1 X77.707 Y100.684 E31.08683
G1 X77.873 Y100.341 E31.10584
G1 X79.782 Y98.483 E31.23875
G1 X81.717 Y96.725 E31.36918
G1 X83.004 Y95.647 E31.45293
G1 X84.008 Y94.863 E31.51648
G1 X84.841 Y94.259 E31.56782
G1 F967.7 X85.102 Y93.962 E31.59228
G1 F829 X85.899 Y93.457 E31.66042
G1 F854.1 X86.523 Y93.088 E31.71123
G1 F1000 X87.089 Y92.869 E31.74756
G1 F1200 X87.773 Y92.544 E31.78535
G1 X88.444 Y92.274 E31.82143
G1 F1121.5 X89.469 Y91.917 E31.87937
G1 F1057.3 X90.406 Y91.834 E31.93264
G1 F1061.9 X92.093 Y91.832 E32.02774
G1 F1064.3 X92.258 Y91.381 E32.05476
G1 F1057.3 X90.25 Y91.384 E32.16846
G1 F991.7 X89.391 Y91.411 E32.22034
G1 F1006.3 X89.149 Y91.378 E32.23487
G1 F1137.4 X88.208 Y91.356 E32.28442
G1 F1200 X87.589 Y91.55 E32.31678
G1 X86.528 Y91.996 E32.3742
G1 F991.7 X86.211 Y92.635 E32.41726
G1 F840.6 X85.427 Y93.076 E32.48132
G1 F821.9 X84.791 Y93.458 E32.53536
G1 F967.7 X84.39 Y93.598 E32.56164
G1 F1200 X83.894 Y93.916 E32.59103
G1 X83.006 Y94.534 E32.64501
G1 X81.986 Y95.303 E32.70874
G1 X80.819 Y96.251 E32.78375
G1 X79.459 Y97.443 E32.87397
G1 X77.862 Y98.945 E32.98335
G1 X77.188 Y99.606 E33.03045
G1 X76.667 Y99.84 E33.05894
G1 X64.581 Y99.837 E33.66191
G1 X64.068 Y99.64 E33.68933
G1 X63.785 Y99.311 E33.71098
G1 X63.668 Y98.969 E33.72901
G1 X63.668 Y91.356 E34.10883
G1 X61.171 Y91.356 E34.2334
G1 X60.855 Y91.291 E34.2495
G1 X60.497 Y91.056 E34.27086
G1 X60.342 Y90.851 E34.28369
G1 X60.212 Y90.446 E34.30491
G1 X60.213 Y86.755 E34.48905
G1 X60.306 Y86.423 E34.50625
G1 X60.622 Y86.045 E34.53083
G1 X61.184 Y85.856 E34.56041
G1 X75.094 Y85.852 E35.25439
G1 X75.844 Y85.623 E35.29351
G1 X76.207 Y85.394 E35.31492
G1 X76.757 Y84.665 E35.36048
G1 X76.878 Y84.212 E35.38388
G1 X76.944 Y83.412 E35.42392
G1 X77.22 Y82.508 E35.47108
G1 X77.699 Y81.81 E35.51331
G1 X78.025 Y81.509 E35.53545
G1 X78.76 Y81.084 E35.57781
G1 X79.223 Y80.959 E35.60173
G1 X79.064 Y80.794 E35.61317
G1 X78.964 Y80.478 E35.6297
G1 X78.964 Y76.159 E35.84518
G1 X76.8 Y76.164 E35.95314
G1 X75.916 Y76.233 E35.99738
G1 X75.914 Y83.938 E36.38178
G1 X75.762 Y84.391 E36.40562
G1 X75.384 Y84.741 E36.43132
G1 X75.082 Y84.852 E36.44737
G1 X61.12 Y84.856 E37.14394
G1 X60.442 Y85.005 E37.17857
G1 X60.006 Y85.215 E37.20272
G1 X59.62 Y85.586 E37.22943
G1 X59.322 Y86.001 E37.25492
G1 X59.144 Y86.628 E37.28743
G1 X59.144 Y90.405 E37.47587
G1 X59.217 Y90.955 E37.50355
G1 X59.546 Y91.533 E37.53673
G1 X60.034 Y92.031 E37.57152
G1 X60.873 Y92.35 E37.6163
G1 X61.675 Y92.356 E37.65631
G1 X62.069 Y92.439 E37.6764
G1 X62.376 Y92.648 E37.69493
G1 X62.587 Y92.958 E37.71364
G1 X62.668 Y93.356 E37.7339
G1 X62.668 Y106.272 E38.37828
G1 X62.89 Y105.644 E38.41151
G1 X63.334 Y105.329 E38.43867
G1 X63.668 Y105.272 E38.45558
G1 X63.668 Y101.84 E38.6268
G1 X63.785 Y101.369 E38.65101
M205 X10 Y10
G1 F1800 E32.65101
G1 F480 Z0.375
G0 F6000 X63.785 Y101.369 Z0.375
G0 X62.668 Y106.272
M205 X8 Y8
G1 F480 Z0.3
G1 F1800 E38.65101
G1 F1200 X62.668 Y112.139 E38.94372
M205 X10 Y10
G1 F1800 E32.94372
G1 F480 Z0.375
G0 F6000 X62.668 Y112.139 Z0.375
G0 X64.468 Y116.08
M205 X8 Y8
G1 F480 Z0.3
G1 F1800 E38.94372
