;FLAVOR:Marlin
;TIME:955
;Filament used: 0.721562m
;Layer height: 0.2
;MINX:0
;MINY:0
;MINZ:0.3
;MAXX:136.583
;MAXY:125.593
;MAXZ:2.975
;TARGET_MACHINE.NAME:Anycubic i3 Mega S/Pro
;Generated with Cura_SteamEngine 5.11.0
;Profil Homepage: https://github.com/NilsRo/Cura_Anycubic_MegaS_Profile

;Slicer Information - (Support for OctoPrint Slicer Estimator)
;Slicer info:material_guid;0ff92885-617b-4144-a03c-9989872454bc
;Slicer info:material_id;generic_pla_175
;Slicer info:material_brand;Generic
;Slicer info:material_name;PLA
;Slicer info:filament_cost;[0.0];Slicer info:material_bed_temperature;60
;Slicer info:material_bed_temperature_layer_0;60
;Slicer info:material_print_temperature;200
;Slicer info:material_print_temperature_layer_0;205
;Slicer info:material_flow;100
;Slicer info:layer_height;0.2
;Slicer info:machine_nozzle_size;0.4
;Slicer info:wall_thickness;1.2000000000000002
;Slicer info:speed_print;50.0
;Slicer info:speed_topbottom;25.0
;Slicer info:travel_speed;100.0
;Slicer info:support;0
;Slicer info:retraction_speed;30
;Slicer info:retraction_amount;6
;Slicer info:layer_height;0.2
;Slicer info:infill_pattern;grid
;Slicer info:infill_sparse_density;25
;Slicer info:cool_fan_enabled;True
;Slicer info:cool_fan_speed;100
;Slicer info:sliced_at;Sat 13-12-2025 00:00:21
G21                                        ; metric values 
G90                                        ; absolute positioning 
M82                                        ; set extruder to absolute mode 
M900 K0                                    ; disable lin. adv. if not set in GCODE
M107                                       ; start with the fan off 
M140 S60   ; Start heating the bed 
G4 S60                                     ; wait 1 minute 
M104 S205 ; start heating the hot end 
M190 S60   ; wait for bed 
M109 S205 ; wait for hotend 
M300 S1000 P500                            ; BEEP heating done 
G28 X0 Y10 Z0                              ; move X/Y to min endstops 
M420 S1                                    ; Enable leveling 
M420 Z2.0                                  ; Set leveling fading height to 2 mm 
G0 Z0.15                                   ; lift nozzle a bit 
G92 E0                                     ; zero the extruded length 
G1 X50 E20 F500                            ; Extrude 20mm of filament in a 5cm line. 
G92 E0                                     ; zero the extruded length again 
G1 E-2 F500                                ; Retract a little 
G1 X50 F500                                ; wipe away from the filament line
G1 X100 F9000                              ; Quickly wipe away from the filament line
M82 ;absolute extrusion mode
G92 E0
G92 E0
G1 F1800 E-6
;LAYER_COUNT:14
;LAYER:0
M106 S76.5
M205 X10 Y10
G1 F480 Z0.375
G0 F6000 X0.00 Y0.00 Z0.375
G0 X75.341 Y89.78
M205 X8 Y8
;TYPE:SKIRT
G1 F480 Z0.3
G1 F1800 E0
G1 F1200 X75.893 Y89.359 E0.03463
G1 X76.536 Y88.987 E0.0717
G1 X77.177 Y88.719 E0.10636
G1 X77.797 Y88.543 E0.13851
G1 X78.722 Y88.417 E0.18509
G1 X80.688 Y88.346 E0.28324
G1 X83.356 Y88.181 E0.4166
G1 X86.004 Y87.944 E0.54923
G1 X88.635 Y87.632 E0.68141
G1 X91.327 Y87.236 E0.81716
G1 X93.937 Y86.776 E0.94938
G1 X96.543 Y86.24 E1.08212
G1 X99.168 Y85.623 E1.21665
G1 X101.156 Y85.102 E1.31918
G1 X102.771 Y84.664 E1.40267
G1 X103.739 Y84.49 E1.45173
G1 X104.496 Y84.398 E1.48978
G1 X105.432 Y84.405 E1.53648
G1 X106.375 Y84.506 E1.58379
G1 X107.205 Y84.669 E1.62599
G1 X107.873 Y84.835 E1.66033
G1 X109.443 Y85.275 E1.74168
G1 X112.011 Y85.918 E1.87375
G1 X114.643 Y86.499 E2.00822
G1 X117.283 Y87.004 E2.14232
G1 X119.873 Y87.423 E2.27322
G1 X122.561 Y87.78 E2.4085
G1 X125.218 Y88.059 E2.54179
G1 X127.86 Y88.259 E2.67397
G1 X131.241 Y88.416 E2.84283
G1 X131.932 Y88.49 E2.87751
G1 X132.607 Y88.65 E2.91211
G1 X133.213 Y88.872 E2.94431
G1 X133.874 Y89.214 E2.98144
G1 X134.445 Y89.608 E3.01605
G1 X134.963 Y90.07 E3.05068
G1 X135.42 Y90.593 E3.08533
G1 X135.808 Y91.168 E3.11994
G1 X136.103 Y91.741 E3.15209
G1 X136.358 Y92.44 E3.18921
G1 X136.512 Y93.126 E3.22429
G1 X136.583 Y94.027 E3.26938
G1 X136.578 Y94.874 E3.31164
G1 X136.534 Y95.947 E3.36522
G1 X136.446 Y97.053 E3.42057
G1 X136.269 Y98.538 E3.49518
G1 X136.039 Y99.896 E3.5639
G1 X135.755 Y101.233 E3.63209
G1 X135.394 Y102.627 E3.70393
G1 X135.026 Y103.832 E3.76679
G1 X134.579 Y105.101 E3.83391
G1 X134.037 Y106.452 E3.90653
G1 X133.434 Y107.782 E3.97939
G1 X132.849 Y108.92 E4.04323
G1 X132.105 Y110.235 E4.1186
G1 X131.32 Y111.476 E4.19187
G1 X130.514 Y112.631 E4.26213
G1 X129.818 Y113.552 E4.31973
G1 X128.986 Y114.561 E4.38497
G1 X128.119 Y115.533 E4.44995
G1 X127.053 Y116.628 E4.52619
G1 X126.018 Y117.589 E4.59666
G1 X125.013 Y118.447 E4.66258
G1 X123.944 Y119.285 E4.73035
G1 X122.713 Y120.163 E4.80579
G1 X121.628 Y120.866 E4.87029
G1 X120.488 Y121.538 E4.93631
G1 X119.306 Y122.169 E5.00315
G1 X118.123 Y122.739 E5.06867
G1 X116.651 Y123.368 E5.14853
G1 X115.355 Y123.853 E5.21757
G1 X113.959 Y124.298 E5.29067
G1 X112.7 Y124.642 E5.35578
G1 X111.363 Y124.947 E5.4242
G1 X110.209 Y125.162 E5.48276
G1 X108.711 Y125.38 E5.55828
G1 X107.245 Y125.515 E5.63173
G1 X105.738 Y125.585 E5.707
G1 X104.696 Y125.593 E5.75899
G1 X103.29 Y125.548 E5.82917
G1 X101.943 Y125.446 E5.89656
G1 X100.416 Y125.264 E5.97328
G1 X98.91 Y125.001 E6.04955
G1 X97.767 Y124.755 E6.10788
G1 X96.414 Y124.405 E6.17761
G1 X94.957 Y123.956 E6.25367
G1 X93.731 Y123.517 E6.31864
G1 X92.439 Y122.99 E6.38825
G1 X91.158 Y122.401 E6.4586
G1 X89.96 Y121.785 E6.5258
G1 X88.808 Y121.134 E6.59182
G1 X87.604 Y120.375 E6.66283
G1 X86.507 Y119.62 E6.72926
G1 X85.396 Y118.777 E6.79884
G1 X84.437 Y117.984 E6.86093
G1 X83.467 Y117.119 E6.92577
G1 X82.362 Y116.045 E7.00264
G1 X81.267 Y114.854 E7.08336
G1 X80.553 Y114.013 E7.1384
G1 X79.716 Y112.945 E7.2061
G1 X78.949 Y111.876 E7.27174
G1 X78.199 Y110.729 E7.34011
G1 X77.439 Y109.448 E7.41442
G1 X76.79 Y108.225 E7.48349
G1 X76.139 Y106.852 E7.5593
G1 X75.58 Y105.517 E7.63151
G1 X75.202 Y104.501 E7.68559
G1 X74.762 Y103.16 E7.756
G1 X74.409 Y101.896 E7.82148
G1 X74.084 Y100.507 E7.89265
G1 X73.809 Y99.051 E7.96657
G1 X73.614 Y97.624 E8.03843
G1 X73.483 Y96.204 E8.10957
G1 X73.425 Y95.084 E8.16552
G1 X73.41 Y94.056 E8.21682
G1 X73.451 Y93.335 E8.25284
G1 X73.566 Y92.701 E8.28499
G1 X73.77 Y92.037 E8.31965
G1 X74.077 Y91.359 E8.35678
G1 X74.415 Y90.81 E8.38894
G1 X74.879 Y90.23 E8.426
G1 X75.341 Y89.78 E8.45817
M205 X10 Y10
G0 F6000 X75.62 Y90.067
M205 X8 Y8
G1 F1200 X76.134 Y89.678 E8.49033
G1 X76.692 Y89.355 E8.5225
G1 X77.286 Y89.104 E8.55467
G1 X77.906 Y88.928 E8.58683
G1 X78.736 Y88.817 E8.6286
G1 X80.702 Y88.746 E8.72675
G1 X83.381 Y88.58 E8.86066
G1 X86.05 Y88.341 E8.99435
G1 X88.693 Y88.028 E9.12714
G1 X91.385 Y87.632 E9.26289
G1 X94.018 Y87.168 E9.39627
G1 X96.624 Y86.632 E9.52901
G1 X99.269 Y86.01 E9.66456
G1 X101.257 Y85.489 E9.7671
G1 X102.842 Y85.058 E9.84904
G1 X103.789 Y84.887 E9.89705
G1 X104.494 Y84.798 E9.93251
G1 X105.39 Y84.803 E9.97721
G1 X106.298 Y84.899 E10.02276
G1 X107.128 Y85.062 E10.06496
G1 X107.765 Y85.22 E10.0977
G1 X109.346 Y85.663 E10.17962
G1 X111.925 Y86.309 E10.31226
G1 X114.557 Y86.89 E10.44673
G1 X117.215 Y87.398 E10.58174
G1 X119.82 Y87.82 E10.7134
G1 X122.508 Y88.177 E10.84868
G1 X125.179 Y88.457 E10.98267
G1 X127.842 Y88.659 E11.11591
G1 X131.2 Y88.814 E11.28362
G1 X131.841 Y88.88 E11.31577
G1 X132.469 Y89.026 E11.34793
G1 X133.075 Y89.248 E11.38013
G1 X133.648 Y89.544 E11.41231
G1 X134.18 Y89.908 E11.44447
G1 X134.663 Y90.335 E11.47663
G1 X135.089 Y90.818 E11.50876
G1 X135.452 Y91.351 E11.54093
G1 X135.747 Y91.924 E11.57309
G1 X135.968 Y92.53 E11.60527
G1 X136.113 Y93.158 E11.63742
G1 X136.183 Y94.025 E11.68082
G1 X136.178 Y94.858 E11.72238
G1 X136.135 Y95.916 E11.7752
G1 X136.049 Y97.006 E11.82975
G1 X135.875 Y98.471 E11.90336
G1 X135.648 Y99.813 E11.97126
G1 X135.368 Y101.133 E12.03858
G1 X135.011 Y102.51 E12.10955
G1 X134.643 Y103.715 E12.17241
G1 X134.208 Y104.952 E12.23783
G1 X133.673 Y106.287 E12.30958
G1 X133.078 Y107.599 E12.38145
G1 X132.501 Y108.723 E12.44449
G1 X131.767 Y110.021 E12.51888
G1 X130.992 Y111.247 E12.59124
G1 X130.195 Y112.39 E12.66076
G1 X129.509 Y113.298 E12.71754
G1 X128.688 Y114.295 E12.78197
G1 X127.832 Y115.254 E12.8461
G1 X126.781 Y116.335 E12.92132
G1 X125.758 Y117.285 E12.99097
G1 X124.766 Y118.132 E13.05605
G1 X123.712 Y118.959 E13.12289
G1 X122.495 Y119.827 E13.19747
G1 X121.41 Y120.53 E13.26197
G1 X120.3 Y121.185 E13.32627
G1 X119.132 Y121.809 E13.39233
G1 X117.966 Y122.371 E13.45691
G1 X116.511 Y122.993 E13.53586
G1 X115.215 Y123.478 E13.60489
G1 X113.853 Y123.912 E13.67621
G1 X112.611 Y124.252 E13.74045
G1 X111.29 Y124.554 E13.80806
G1 X110.151 Y124.766 E13.86586
G1 X108.653 Y124.984 E13.94138
G1 X107.226 Y125.115 E14.01287
G1 X105.735 Y125.185 E14.08734
G1 X104.709 Y125.193 E14.13853
G1 X103.32 Y125.149 E14.20786
G1 X101.99 Y125.049 E14.27441
G1 X100.485 Y124.87 E14.35002
G1 X98.994 Y124.61 E14.42553
G1 X97.867 Y124.368 E14.48304
G1 X96.532 Y124.023 E14.55183
G1 X95.092 Y123.579 E14.62701
G1 X93.866 Y123.14 E14.69198
G1 X92.606 Y122.627 E14.75985
G1 X91.341 Y122.045 E14.82932
G1 X90.157 Y121.437 E14.89572
G1 X89.021 Y120.796 E14.9608
G1 X87.831 Y120.045 E15.031
G1 X86.749 Y119.301 E15.09651
G1 X85.651 Y118.469 E15.16524
G1 X84.703 Y117.686 E15.22658
G1 X83.746 Y116.832 E15.29057
G1 X82.641 Y115.758 E15.36745
G1 X81.572 Y114.595 E15.44626
G1 X80.868 Y113.766 E15.50052
G1 X80.041 Y112.712 E15.56736
G1 X79.284 Y111.657 E15.63214
G1 X78.543 Y110.525 E15.69964
G1 X77.792 Y109.26 E15.77304
G1 X77.151 Y108.054 E15.84118
G1 X76.508 Y106.697 E15.91609
G1 X75.955 Y105.377 E15.98749
G1 X75.582 Y104.376 E16.04079
G1 X75.147 Y103.052 E16.11032
G1 X74.798 Y101.805 E16.17492
G1 X74.477 Y100.433 E16.24522
G1 X74.205 Y98.997 E16.31813
G1 X74.012 Y97.587 E16.38913
G1 X73.882 Y96.183 E16.45948
G1 X73.825 Y95.078 E16.51468
G1 X73.81 Y94.05 E16.56597
G1 X73.845 Y93.406 E16.59815
G1 X73.96 Y92.772 E16.6303
G1 X74.152 Y92.156 E16.66249
G1 X74.418 Y91.569 E16.69464
G1 X74.756 Y91.02 E16.7268
G1 X75.158 Y90.517 E16.75893
G1 X75.62 Y90.067 E16.79111
M205 X10 Y10
G1 F1800 E10.79111
G1 F480 Z0.375
;MESH:v19a - shutter.stl
G0 F6000 X75.62 Y90.067 Z0.375
G0 X101.996 Y94.216
M205 X8 Y8
;TYPE:WALL-INNER
G1 F480 Z0.3
G1 F1800 E16.79111
G1 F1121.5 X102.033 Y93.627 E16.82261
G1 F1170.7 X102.142 Y93.104 E16.84993
G1 F1179.4 X102.438 Y92.387 E16.88931
G1 X103.18 Y91.594 E16.94444
G1 F1182.3 X103.863 Y91.228 E16.98367
G1 F1188.1 X104.701 Y90.999 E17.02745
G1 F1176.5 X105.371 Y91.033 E17.06159
G1 F1170.7 X105.899 Y91.145 E17.08919
G1 F1194 X106.374 Y91.336 E17.11486
G1 F1137.4 X106.812 Y91.626 E17.14251
G1 F1129.4 X107.396 Y92.172 E17.18489
G1 F1191.1 X107.838 Y92.988 E17.23153
G1 F1194 X107.982 Y93.731 E17.26948
M205 X10 Y10
G1 F1800 E11.26948
G1 F480 Z0.375
G0 F6000 X107.982 Y93.731 Z0.375
G0 X108.88 Y95
M205 X8 Y8
G1 F480 Z0.3
G1 F1800 E17.26948
G1 F1200 X108.544 Y94.866 E17.28753
G1 X108.14 Y94.43 E17.31718
G1 F1197 X107.982 Y93.731 E17.35302
G1 F1194 X107.946 Y94.626 E17.39794
G1 F1200 X107.672 Y95.355 E17.43679
G1 X107.057 Y96.205 E17.48913
G1 X106.265 Y96.733 E17.53662
G1 X105.378 Y96.983 E17.5826
G1 X104.401 Y96.946 E17.63138
G1 X103.685 Y96.701 E17.66913
G1 X102.797 Y96.059 E17.7238
G1 X102.272 Y95.273 E17.77095
G1 F1167.9 X101.973 Y94.265 E17.82485
G1 F1165 X101.85 Y94.522 E17.83949
G1 F1194 X101.517 Y94.854 E17.86307
G1 F1200 X101.171 Y95 E17.88181
G1 X80.022 Y95 E18.93693
G1 X80.095 Y96.202 E18.99701
G1 X80.213 Y97.251 E19.04968
G1 X80.377 Y98.338 E19.10452
G1 X80.593 Y99.407 E19.15893
G1 X80.851 Y100.47 E19.21351
G1 X81.155 Y101.516 E19.26785
G1 X81.504 Y102.549 E19.32225
G1 X81.9 Y103.564 E19.3766
G1 X82.339 Y104.56 E19.43091
G1 X82.824 Y105.538 E19.48537
G1 X83.347 Y106.497 E19.53987
G1 X83.912 Y107.429 E19.59424
G1 X84.519 Y108.333 E19.64857
G1 X85.166 Y109.215 E19.70314
G1 X85.848 Y110.066 E19.75755
G1 X86.566 Y110.888 E19.812
G1 X87.319 Y111.671 E19.8662
G1 X88.108 Y112.426 E19.92068
G1 X88.932 Y113.15 E19.9754
G1 X89.778 Y113.831 E20.02958
G1 X90.662 Y114.48 E20.0843
G1 X91.57 Y115.084 E20.1387
G1 X92.497 Y115.649 E20.19287
G1 X93.455 Y116.172 E20.24732
G1 X94.432 Y116.657 E20.30174
G1 X95.43 Y117.095 E20.35611
G1 X96.447 Y117.488 E20.41051
G1 X97.482 Y117.842 E20.46508
G1 X98.528 Y118.146 E20.51942
G1 X99.589 Y118.407 E20.57394
G1 X100.657 Y118.618 E20.62825
G1 X101.786 Y118.792 E20.68524
G1 X102.822 Y118.903 E20.73722
G1 X103.913 Y118.972 E20.79176
G1 X105 Y118.999 E20.84601
G1 X106.087 Y118.972 E20.90026
G1 X107.177 Y118.903 E20.95474
G1 X108.214 Y118.788 E21.0068
G1 X109.34 Y118.618 E21.06361
G1 X110.407 Y118.407 E21.11787
G1 X111.468 Y118.145 E21.1724
G1 X112.515 Y117.842 E21.22678
G1 X113.554 Y117.487 E21.28155
G1 X114.57 Y117.095 E21.33589
G1 X115.564 Y116.658 E21.39006
G1 X116.541 Y116.172 E21.4445
G1 X117.5 Y115.649 E21.49899
G1 X118.43 Y115.084 E21.55328
G1 X119.333 Y114.48 E21.60748
G1 X120.218 Y113.831 E21.66224
G1 X121.064 Y113.15 E21.71642
G1 X121.888 Y112.426 E21.77114
G1 X122.677 Y111.671 E21.82562
G1 X123.43 Y110.888 E21.87982
G1 X124.149 Y110.065 E21.93434
G1 X124.835 Y109.214 E21.98888
G1 X125.48 Y108.334 E22.04331
G1 X126.084 Y107.431 E22.09751
G1 X126.649 Y106.495 E22.15206
G1 X127.176 Y105.537 E22.2066
G1 X127.657 Y104.561 E22.26089
G1 X128.096 Y103.564 E22.31524
G1 X128.492 Y102.549 E22.36959
G1 X128.841 Y101.516 E22.42399
G1 X129.146 Y100.468 E22.47845
G1 X129.407 Y99.407 E22.53296
G1 X129.618 Y98.338 E22.58732
G1 X129.792 Y97.214 E22.64406
G1 X129.902 Y96.178 E22.69604
G1 X129.974 Y95.001 E22.75487
G1 X108.88 Y95 E23.80726
M205 X10 Y10
G0 F6000 X108.946 Y94.6
M205 X8 Y8
G1 F1200 X108.598 Y94.402 E23.82723
G1 X108.473 Y94.216 E23.83841
G1 X108.244 Y92.907 E23.90471
G1 X107.755 Y91.966 E23.95762
G1 X107.074 Y91.292 E24.00542
G1 X106.58 Y90.989 E24.03433
G1 X106.019 Y90.759 E24.06458
G1 X105.427 Y90.629 E24.09482
G1 X104.834 Y90.592 E24.12446
G1 X103.907 Y90.753 E24.1714
G1 X102.983 Y91.23 E24.22328
G1 X102.291 Y91.922 E24.27211
G1 X101.989 Y92.417 E24.30103
G1 X101.756 Y92.984 E24.33162
G1 X101.629 Y93.57 E24.36153
G1 X101.574 Y94.246 E24.39537
G1 X101.309 Y94.513 E24.41414
G1 X101.103 Y94.6 E24.42529
G1 X79.613 Y94.6 E25.49743
G1 X79.624 Y95.115 E25.52313
G1 X79.694 Y96.211 E25.57792
G1 X79.811 Y97.266 E25.63088
G1 X79.983 Y98.407 E25.68845
G1 X80.202 Y99.493 E25.74372
G1 X80.464 Y100.573 E25.79916
G1 X80.773 Y101.636 E25.85439
G1 X81.128 Y102.686 E25.90969
G1 X81.531 Y103.717 E25.96492
G1 X81.976 Y104.729 E26.02007
G1 X82.469 Y105.722 E26.07538
G1 X83.001 Y106.696 E26.13075
G1 X83.574 Y107.645 E26.18606
G1 X84.192 Y108.563 E26.24127
G1 X84.849 Y109.458 E26.29666
G1 X85.541 Y110.322 E26.35189
G1 X86.271 Y111.158 E26.40726
G1 X87.036 Y111.955 E26.46237
G1 X87.838 Y112.721 E26.5177
G1 X88.675 Y113.456 E26.57328
G1 X89.534 Y114.148 E26.62831
G1 X90.432 Y114.808 E26.68391
G1 X91.355 Y115.421 E26.73919
G1 X92.297 Y115.996 E26.79425
G1 X93.27 Y116.527 E26.84955
G1 X94.262 Y117.02 E26.90481
G1 X95.277 Y117.465 E26.96011
G1 X96.31 Y117.864 E27.01535
G1 X97.361 Y118.223 E27.07076
G1 X98.424 Y118.532 E27.12599
G1 X99.503 Y118.798 E27.18143
G1 X100.588 Y119.012 E27.23661
G1 X101.734 Y119.188 E27.29445
G1 X102.788 Y119.302 E27.34734
G1 X103.895 Y119.372 E27.40268
G1 X105 Y119.399 E27.45783
G1 X106.105 Y119.372 E27.51297
G1 X107.211 Y119.302 E27.56826
G1 X108.266 Y119.185 E27.62122
G1 X109.409 Y119.012 E27.67889
G1 X110.493 Y118.798 E27.73402
G1 X111.572 Y118.532 E27.78946
G1 X112.635 Y118.223 E27.84469
G1 X113.691 Y117.863 E27.90035
G1 X114.722 Y117.465 E27.95549
G1 X115.733 Y117.02 E28.0106
G1 X116.726 Y116.527 E28.06591
G1 X117.7 Y115.996 E28.12125
G1 X118.645 Y115.421 E28.17644
G1 X119.563 Y114.808 E28.23151
G1 X120.462 Y114.148 E28.28715
G1 X121.321 Y113.456 E28.34218
G1 X122.158 Y112.721 E28.39776
G1 X122.96 Y111.955 E28.45309
G1 X123.725 Y111.158 E28.5082
G1 X124.456 Y110.322 E28.56361
G1 X125.152 Y109.458 E28.61896
G1 X125.808 Y108.563 E28.67432
G1 X126.421 Y107.645 E28.72939
G1 X126.996 Y106.695 E28.78479
G1 X127.531 Y105.722 E28.84019
G1 X128.019 Y104.73 E28.89534
