;FLAVOR:Marlin
;TIME:1139
;Filament used: 0.812913m
;Layer height: 0.2
;MINX:0
;MINY:0
;MINZ:0.3
;MAXX:136.925
;MAXY:119.561
;MAXZ:4.975
;TARGET_MACHINE.NAME:Anycubic i3 Mega S/Pro
;Generated with Cura_SteamEngine 5.11.0
;Profil Homepage: https://github.com/NilsRo/Cura_Anycubic_MegaS_Profile

;Slicer Information - (Support for OctoPrint Slicer Estimator)
;Slicer info:material_guid;0ff92885-617b-4144-a03c-9989872454bc
;Slicer info:material_id;generic_pla_175
;Slicer info:material_brand;Generic
;Slicer info:material_name;PLA
;Slicer info:filament_cost;[0.0];Slicer info:material_bed_temperature;60
;Slicer info:material_bed_temperature_layer_0;60
;Slicer info:material_print_temperature;200
;Slicer info:material_print_temperature_layer_0;205
;Slicer info:material_flow;100
;Slicer info:layer_height;0.2
;Slicer info:machine_nozzle_size;0.4
;Slicer info:wall_thickness;1.2000000000000002
;Slicer info:speed_print;50.0
;Slicer info:speed_topbottom;25.0
;Slicer info:travel_speed;100.0
;Slicer info:support;0
;Slicer info:retraction_speed;30
;Slicer info:retraction_amount;6
;Slicer info:layer_height;0.2
;Slicer info:infill_pattern;grid
;Slicer info:infill_sparse_density;25
;Slicer info:cool_fan_enabled;True
;Slicer info:cool_fan_speed;100
;Slicer info:sliced_at;Fri 12-12-2025 23:52:07
G21                                        ; metric values 
G90                                        ; absolute positioning 
M82                                        ; set extruder to absolute mode 
M900 K0                                    ; disable lin. adv. if not set in GCODE
M107                                       ; start with the fan off 
M140 S60   ; Start heating the bed 
G4 S60                                     ; wait 1 minute 
M104 S205 ; start heating the hot end 
M190 S60   ; wait for bed 
M109 S205 ; wait for hotend 
M300 S1000 P500                            ; BEEP heating done 
G28 X0 Y10 Z0                              ; move X/Y to min endstops 
M420 S1                                    ; Enable leveling 
M420 Z2.0                                  ; Set leveling fading height to 2 mm 
G0 Z0.15                                   ; lift nozzle a bit 
G92 E0                                     ; zero the extruded length 
G1 X50 E20 F500                            ; Extrude 20mm of filament in a 5cm line. 
G92 E0                                     ; zero the extruded length again 
G1 E-2 F500                                ; Retract a little 
G1 X50 F500                                ; wipe away from the filament line
G1 X100 F9000                              ; Quickly wipe away from the filament line
M82 ;absolute extrusion mode
G92 E0
G92 E0
G1 F1800 E-6
;LAYER_COUNT:24
;LAYER:0
M106 S76.5
M205 X10 Y10
G1 F480 Z0.375
G0 F6000 X0.00 Y0.00 Z0.375
G0 X94.97 Y81.953
M205 X8 Y8
;TYPE:SKIRT
G1 F480 Z0.3
G1 F1800 E0
G1 F1200 X95.497 Y81.411 E0.03772
G1 X96.411 Y80.613 E0.09825
G1 X96.873 Y80.273 E0.12687
G1 X97.598 Y79.852 E0.16869
G1 X98.754 Y79.336 E0.23185
G1 X99.784 Y78.979 E0.28624
G1 X100.291 Y78.837 E0.31251
G1 X100.941 Y78.68 E0.34587
G1 X101.529 Y78.561 E0.3758
G1 X102.253 Y78.446 E0.41237
G1 X103.355 Y78.342 E0.46759
G1 X104.462 Y78.282 E0.5229
G1 X105.666 Y78.261 E0.58298
G1 X124.222 Y78.258 E1.50874
G1 X125.293 Y78.271 E1.56218
G1 X126.33 Y78.317 E1.61397
G1 X127.559 Y78.43 E1.67554
G1 X128.23 Y78.52 E1.70932
G1 X128.819 Y78.63 E1.73921
G1 X129.398 Y78.755 E1.76876
G1 X130.146 Y78.95 E1.80733
G1 X131.182 Y79.311 E1.86206
G1 X132.248 Y79.784 E1.92024
G1 X133.228 Y80.368 E1.97716
G1 X133.67 Y80.686 E2.00432
G1 X134.408 Y81.311 E2.05257
G1 X135.103 Y82.031 E2.1025
G1 X135.748 Y82.915 E2.15709
G1 X136.189 Y83.687 E2.20145
G1 X136.577 Y84.723 E2.25664
G1 X136.804 Y85.572 E2.30049
G1 X136.909 Y86.341 E2.33921
G1 X136.925 Y87.44 E2.39404
G1 X136.92 Y89.893 E2.51642
G1 X136.901 Y90.807 E2.56203
G1 X136.813 Y92.018 E2.62261
G1 X136.655 Y94.731 E2.75819
G1 X136.573 Y97.456 E2.8942
G1 X136.562 Y98.962 E2.96934
G1 X136.563 Y111.494 E3.59456
G1 X136.551 Y112.289 E3.63423
G1 X136.506 Y112.913 E3.66544
G1 X136.375 Y113.595 E3.70009
G1 X136.089 Y114.466 E3.74583
G1 X135.495 Y115.574 E3.80855
G1 X134.901 Y116.461 E3.86181
G1 X134.372 Y117.108 E3.9035
G1 X133.836 Y117.616 E3.94035
G1 X133.141 Y118.177 E3.98491
G1 X132.564 Y118.562 E4.01951
G1 X131.953 Y118.869 E4.05363
G1 X131.087 Y119.203 E4.09993
G1 X130.244 Y119.432 E4.14352
G1 X129.466 Y119.542 E4.18272
G1 X128.283 Y119.561 E4.24174
G1 X101.332 Y119.554 E5.58634
G1 X100.64 Y119.544 E5.62086
G1 X99.997 Y119.495 E5.65304
G1 X99.316 Y119.36 E5.68767
G1 X98.618 Y119.127 E5.72438
G1 X97.601 Y118.661 E5.7802
G1 X96.996 Y118.306 E5.81519
G1 X96.365 Y117.822 E5.85487
G1 X95.778 Y117.234 E5.89632
G1 X95.396 Y116.827 E5.92417
G1 X94.855 Y116.146 E5.96756
G1 X94.177 Y114.976 E6.03502
G1 X93.85 Y114.272 E6.07375
G1 X93.621 Y113.565 E6.11082
G1 X93.495 Y112.886 E6.14528
G1 X93.453 Y112.291 E6.17504
G1 X93.439 Y111.401 E6.21944
G1 X93.438 Y98.89 E6.84362
G1 X93.4 Y96.221 E6.97679
G1 X93.287 Y93.559 E7.10972
G1 X93.094 Y90.752 E7.25009
G1 X93.077 Y89.69 E7.30308
G1 X93.074 Y87.123 E7.43115
G1 X93.084 Y86.437 E7.46538
G1 X93.14 Y85.744 E7.50006
G1 X93.284 Y85.056 E7.53513
G1 X93.619 Y84.145 E7.58356
G1 X93.858 Y83.641 E7.61139
G1 X94.162 Y83.06 E7.6441
G1 X94.523 Y82.505 E7.67713
G1 X94.97 Y81.953 E7.71257
M205 X10 Y10
G0 F6000 X95.257 Y82.232
M205 X8 Y8
G1 F1200 X95.784 Y81.69 E7.75028
G1 X96.649 Y80.934 E7.8076
G1 X97.075 Y80.618 E7.83406
G1 X97.762 Y80.217 E7.87375
G1 X98.885 Y79.714 E7.93514
G1 X99.892 Y79.364 E7.98832
G1 X100.385 Y79.226 E8.01387
G1 X101.021 Y79.072 E8.04651
G1 X101.592 Y78.956 E8.07558
G1 X102.291 Y78.844 E8.1109
G1 X103.377 Y78.741 E8.16532
G1 X104.469 Y78.682 E8.21988
G1 X105.666 Y78.661 E8.27961
G1 X124.217 Y78.658 E9.20512
G1 X125.275 Y78.671 E9.25791
G1 X126.312 Y78.717 E9.3097
G1 X127.506 Y78.826 E9.36952
G1 X128.157 Y78.913 E9.40228
G1 X128.735 Y79.021 E9.43162
G1 X129.298 Y79.142 E9.46035
G1 X130.015 Y79.328 E9.4973
G1 X131.021 Y79.677 E9.55043
G1 X132.044 Y80.128 E9.6062
G1 X132.994 Y80.693 E9.66135
G1 X133.436 Y81.011 E9.68852
G1 X134.12 Y81.589 E9.73319
G1 X134.815 Y82.309 E9.78312
G1 X135.402 Y83.115 E9.83286
G1 X135.814 Y83.827 E9.8739
G1 X136.202 Y84.863 E9.9291
G1 X136.408 Y85.628 E9.96862
G1 X136.509 Y86.347 E10.00484
G1 X136.525 Y87.439 E10.05933
G1 X136.52 Y89.885 E10.18136
G1 X136.502 Y90.778 E10.22592
G1 X136.414 Y91.989 E10.2865
G1 X136.255 Y94.719 E10.42293
G1 X136.173 Y97.444 E10.55894
G1 X136.162 Y98.959 E10.63453
G1 X136.163 Y111.488 E11.2596
G1 X136.152 Y112.262 E11.29822
G1 X136.113 Y112.839 E11.32707
G1 X135.994 Y113.473 E11.35926
G1 X135.736 Y114.277 E11.40138
G1 X135.142 Y115.385 E11.4641
G1 X134.59 Y116.209 E11.51359
G1 X134.096 Y116.818 E11.55271
G1 X133.584 Y117.305 E11.58796
G1 X132.918 Y117.845 E11.63074
G1 X132.383 Y118.205 E11.66291
G1 X131.808 Y118.496 E11.69506
G1 X130.981 Y118.817 E11.73932
G1 X130.186 Y119.036 E11.78046
G1 X129.46 Y119.142 E11.81706
G1 X128.283 Y119.161 E11.87579
G1 X101.337 Y119.154 E13.22013
G1 X100.67 Y119.145 E13.25341
G1 X100.027 Y119.096 E13.28559
G1 X99.395 Y118.968 E13.31776
G1 X98.784 Y118.763 E13.34991
G1 X97.802 Y118.315 E13.40376
G1 X97.238 Y117.987 E13.43631
G1 X96.648 Y117.539 E13.47327
G1 X96.07 Y116.96 E13.51408
G1 X95.688 Y116.553 E13.54193
G1 X95.201 Y115.945 E13.5808
G1 X94.54 Y114.807 E13.64645
G1 X94.213 Y114.103 E13.68518
G1 X94.014 Y113.49 E13.71734
G1 X93.894 Y112.857 E13.74948
G1 X93.853 Y112.285 E13.77809
G1 X93.839 Y111.401 E13.8222
G1 X93.838 Y98.89 E14.44637
G1 X93.8 Y96.215 E14.57984
G1 X93.687 Y93.542 E14.71332
G1 X93.494 Y90.746 E14.85314
G1 X93.477 Y89.69 E14.90583
G1 X93.474 Y87.128 E15.03365
G1 X93.483 Y86.467 E15.06663
G1 X93.532 Y85.824 E15.09881
G1 X93.66 Y85.193 E15.13093
G1 X93.981 Y84.316 E15.17752
G1 X94.213 Y83.825 E15.20461
G1 X94.497 Y83.278 E15.23536
G1 X94.858 Y82.723 E15.26839
G1 X95.257 Y82.232 E15.29996
M205 X10 Y10
G1 F1800 E9.29996
G1 F480 Z0.375
;MESH:v19a - body.stl
G0 F6000 X95.257 Y82.232 Z0.375
G0 X125.245 Y91.229
M205 X8 Y8
;TYPE:WALL-INNER
G1 F480 Z0.3
G1 F1800 E15.29996
G1 F1200 X124.862 Y91.356 E15.32009
G1 X105.133 Y91.356 E16.30437
G1 X104.75 Y91.229 E16.3245
G1 X104.414 Y90.921 E16.34724
G1 X104.24 Y90.469 E16.37141
G1 X104.248 Y86.758 E16.55655
G1 X104.444 Y86.254 E16.58353
G1 X104.669 Y86.037 E16.59913
G1 X105.081 Y85.856 E16.62158
G1 X124.911 Y85.856 E17.6109
G1 X125.339 Y86.042 E17.63418
G1 X125.553 Y86.25 E17.64907
G1 X125.756 Y86.661 E17.67194
G1 X125.753 Y90.44 E17.86047
G1 X125.581 Y90.922 E17.88601
G1 X125.245 Y91.229 E17.90871
M205 X10 Y10
G0 F6000 X124.845 Y90.95
M205 X8 Y8
G1 F1200 X105.176 Y90.956 E18.89
G1 X104.946 Y90.88 E18.90209
G1 X104.744 Y90.695 E18.91575
G1 X104.64 Y90.427 E18.9301
G1 X104.646 Y86.797 E19.1112
G1 X104.764 Y86.495 E19.12737
G1 X105.145 Y86.256 E19.14981
G1 X124.846 Y86.255 E20.1327
G1 X125.106 Y86.368 E20.14684
G1 X125.356 Y86.739 E20.16916
G1 X125.354 Y90.406 E20.35211
G1 X125.251 Y90.696 E20.36746
G1 X124.845 Y90.95 E20.39136
M205 X10 Y10
G1 F1800 E14.39136
G1 F480 Z0.375
G0 F6000 X124.845 Y90.95 Z0.375
G0 X129.963 Y91.231
M205 X8 Y8
G1 F480 Z0.3
G1 F1800 E20.39136
G1 F1200 X130.32 Y90.471 E20.43325
G1 X130.323 Y86.842 E20.6143
G1 X130.146 Y86.337 E20.641
G1 X129.464 Y85.758 E20.68563
G1 X128.817 Y85.466 E20.72104
G1 X128.074 Y85.207 E20.7603
G1 X127.128 Y85.013 E20.80848
G1 X126.277 Y84.92 E20.85119
G1 X125.743 Y84.88 E20.8779
G1 X124.743 Y84.857 E20.92781
G1 X104.984 Y84.859 E21.91359
G1 X104.258 Y84.881 E21.94982
G1 X103.688 Y84.922 E21.97834
G1 X103.02 Y84.995 E22.01186
G1 X102.099 Y85.164 E22.05858
G1 X101.207 Y85.457 E22.10542
G1 X100.493 Y85.786 E22.14464
G1 X100.005 Y86.204 E22.1767
G1 X99.673 Y86.751 E22.20862
G1 X99.676 Y90.464 E22.39386
G1 X100.033 Y91.227 E22.43589
G1 X100.036 Y111.936 E23.46907
G1 X100.327 Y112.451 E23.49858
G1 X100.704 Y112.838 E23.52553
G1 X100.949 Y112.952 E23.53901
G1 X128.934 Y112.96 E24.93519
G1 X129.264 Y112.841 E24.95269
G1 X129.517 Y112.641 E24.96878
G1 X129.96 Y111.997 E25.00778
G1 X129.963 Y91.231 E26.0438
M205 X10 Y10
G0 F6000 X130.362 Y91.273
M205 X8 Y8
G1 F1200 X130.72 Y90.574 E26.08298
G1 X130.723 Y86.774 E26.27256
G1 X130.552 Y86.288 E26.29827
G1 X130.273 Y85.92 E26.32131
G1 X129.68 Y85.417 E26.3601
G1 X128.965 Y85.094 E26.39924
G1 X128.18 Y84.82 E26.44072
G1 X127.19 Y84.618 E26.49113
G1 X126.328 Y84.522 E26.5344
G1 X125.762 Y84.48 E26.56272
G1 X124.743 Y84.457 E26.61357
G1 X104.984 Y84.459 E27.59935
G1 X104.229 Y84.481 E27.63703
G1 X103.645 Y84.524 E27.66625
G1 X102.963 Y84.599 E27.70048
G1 X102.008 Y84.773 E27.74891
G1 X101.061 Y85.084 E27.79864
G1 X100.275 Y85.446 E27.84181
G1 X99.578 Y86.043 E27.88759
G1 X99.273 Y86.657 E27.9218
G1 X99.276 Y90.566 E28.11682
G1 X99.636 Y91.274 E28.15645
G1 X99.636 Y112.042 E29.19257
G1 X100.005 Y112.693 E29.2299
G1 X100.469 Y113.17 E29.2631
G1 X100.861 Y113.352 E29.28466
G1 X129.003 Y113.36 E30.68867
G1 X129.46 Y113.196 E30.71289
G1 X129.812 Y112.917 E30.7353
G1 X130.36 Y112.122 E30.78347
G1 X130.362 Y91.273 E31.82364
M205 X10 Y10
G0 F6000 X130.76 Y91.373
M205 X8 Y8
;TYPE:WALL-OUTER
G1 F1200 X131.045 Y90.816 E31.85485
G1 X131.12 Y90.47 E31.87251
G1 X131.123 Y86.706 E32.0603
G1 X130.909 Y86.096 E32.09255
G1 X130.565 Y85.643 E32.12093
G1 X129.896 Y85.075 E32.16471
G1 X129.113 Y84.722 E32.20756
G1 X128.286 Y84.434 E32.25125
G1 X127.252 Y84.222 E32.30391
G1 X126.365 Y84.124 E32.34844
G1 X125.782 Y84.08 E32.3776
G1 X124.743 Y84.057 E32.42945
G1 X104.984 Y84.059 E33.41523
G1 X104.231 Y84.08 E33.45282
G1 X103.602 Y84.126 E33.48428
G1 X102.905 Y84.203 E33.51926
G1 X102.304 Y84.311 E33.54973
G1 X101.77 Y84.43 E33.57702
G1 X100.914 Y84.711 E33.62197
G1 X100.057 Y85.106 E33.66905
G1 X99.256 Y85.792 E33.72167
G1 X98.873 Y86.563 E33.76462
G1 X98.876 Y90.459 E33.95899
G1 X98.947 Y90.801 E33.97641
G1 X99.236 Y91.37 E34.00825
G1 X99.236 Y112.147 E35.04482
G1 X99.682 Y112.935 E35.09
G1 X100.234 Y113.502 E35.12948
G1 X100.773 Y113.752 E35.15912
G1 X129.073 Y113.76 E36.57101
G1 X129.657 Y113.55 E36.60197
G1 X130.108 Y113.193 E36.63067
G1 X130.509 Y112.611 E36.66593
G1 X130.76 Y112.145 E36.69234
G1 X130.76 Y91.373 E37.72866
M205 X10 Y10
G0 F6000 X130.851 Y91.196
G1 F1800 E31.72866
G1 F480 Z0.375
G0 F6000 X130.851 Y91.196 Z0.375
G0 X124.956 Y90.406
M205 X8 Y8
G1 F480 Z0.3
G1 F1800 E37.72866
G1 F1200 X124.807 Y90.554 E37.73913
G1 X105.21 Y90.554 E38.71683
G1 X105.04 Y90.448 E38.72683
G1 X105.044 Y86.836 E38.90703
G1 X105.201 Y86.66 E38.9188
G1 X124.796 Y86.659 E39.8964
G1 X124.956 Y86.816 E39.90758
G1 X124.956 Y90.406 E40.08669
M205 X10 Y10
G0 F6000 X124.815 Y90.546
G1 F1800 E34.08669
G1 F480 Z0.375
G0 F6000 X124.815 Y90.546 Z0.375
G0 X104.989 Y85.359
M205 X8 Y8
;TYPE:SKIN
G1 F480 Z0.3
G1 F1800 E40.08669
G1 F750 X124.932 Y85.358 E41.67862
M205 X10 Y10
G1 F1800 E35.67862
G1 F480 Z0.375
G0 F6000 X124.932 Y85.358 Z0.375
G0 X129.585 Y91.148
M205 X8 Y8
G1 F480 Z0.3
G1 F1800 E41.67862
G1 F1200 X129.58 Y111.877 E42.7128
G1 X129.242 Y112.363 E42.74233
G1 X128.852 Y112.579 E42.76457
G1 X101.057 Y112.572 E44.15127
G1 X100.625 Y112.21 E44.17939
G1 X100.416 Y111.835 E44.20081
G1 X100.412 Y91.111 E45.23473
G1 X100.056 Y90.377 E45.27543
G1 X100.053 Y86.845 E45.45164
G1 X100.287 Y86.464 E45.47395
G1 X100.698 Y86.11 E45.50101
G1 X101.346 Y85.811 E45.53662
G1 X102.206 Y85.527 E45.5818
G1 X103.069 Y85.371 E45.62555
G1 X103.719 Y85.301 E45.65817
G1 X104.382 Y85.256 E45.69132
G1 F1041.2 X105.002 Y85.35 E45.72738
G1 X104.446 Y85.725 E45.76594
G1 F1200 X104.141 Y86.027 E45.78736
G1 X103.868 Y86.698 E45.8235
G1 X103.86 Y90.527 E46.01453
G1 X104.095 Y91.138 E46.04719
G1 X104.56 Y91.558 E46.07845
G1 X105.09 Y91.734 E46.10631
G1 X124.902 Y91.734 E47.09473
G1 X125.431 Y91.559 E47.12253
G1 X125.9 Y91.14 E47.15391
G1 X126.13 Y90.487 E47.18845
G1 X126.136 Y86.582 E47.38327
G1 X125.851 Y86.012 E47.41506
G1 X125.556 Y85.73 E47.43542
G1 F1045.8 X124.904 Y85.341 E47.47889
G1 X125.622 Y85.258 E47.52027
G1 F1200 X126.242 Y85.296 E47.55126
G1 X127.068 Y85.39 E47.59273
G1 X127.975 Y85.574 E47.63891
G1 X128.669 Y85.814 E47.67554
G1 X129.259 Y86.083 E47.70789
G1 X129.82 Y86.558 E47.74456
G1 X129.94 Y86.902 E47.76274
G1 X129.94 Y90.383 E47.93641
G1 X129.585 Y91.148 E47.97848
M205 X10 Y10
G1 F1800 E41.97848
G1 F480 Z0.375
G0 F6000 X129.585 Y91.148 Z0.375
G0 X129.74 Y87.314
M205 X8 Y8
G1 F480 Z0.3
G1 F1800 E47.97848
G1 F1200 X128.338 Y85.911 E48.07744
G1 X128.268 Y85.841
M205 X10 Y10
G0 F6000 X127.554 Y85.693
M205 X8 Y8
G1 F1200 X129.74 Y87.879 E48.23167
M205 X10 Y10
G0 F6000 X129.74 Y88.445
M205 X8 Y8
G1 F1200 X126.863 Y85.568 E48.43466
M205 X10 Y10
G0 F6000 X126.226 Y85.496
M205 X8 Y8
G1 F1200 X129.74 Y89.011 E48.68263
M205 X10 Y10
G0 F6000 X129.74 Y89.576
M205 X8 Y8
G1 F1200 X125.618 Y85.455 E48.97342
G1 X125.548 Y85.385
M205 X10 Y10
G1 F1800 E42.97342
G1 F480 Z0.375
G0 F6000 X125.548 Y85.385 Z0.375
G0 X126.335 Y86.737
M205 X8 Y8
G1 F480 Z0.3
G1 F1800 E48.97342
G1 F1200 X129.74 Y90.142 E49.21366
M205 X10 Y10
G0 F6000 X129.623 Y90.591
M205 X8 Y8
G1 F1200 X126.334 Y87.302 E49.44572
M205 X10 Y10
G0 F6000 X126.332 Y87.866
M205 X8 Y8
G1 F1200 X129.444 Y90.978 E49.66529
M205 X10 Y10
G0 F6000 X129.386 Y91.485
M205 X8 Y8
G1 F1200 X126.332 Y88.431 E49.88076
M205 X10 Y10
G0 F6000 X126.33 Y88.995
M205 X8 Y8
G1 F1200 X129.386 Y92.05 E50.09635
M205 X10 Y10
G0 F6000 X129.386 Y92.616
M205 X8 Y8
G1 F1200 X126.329 Y89.559 E50.31203
M205 X10 Y10
G0 F6000 X126.328 Y90.124
M205 X8 Y8
G1 F1200 X129.386 Y93.182 E50.52779
M205 X10 Y10
G0 F6000 X129.385 Y93.747
M205 X8 Y8
G1 F1200 X126.284 Y90.645 E50.74662
M205 X10 Y10
G0 F6000 X126.137 Y91.065
M205 X8 Y8
G1 F1200 X129.385 Y94.312 E50.97575
M205 X10 Y10
G0 F6000 X129.385 Y94.878
M205 X8 Y8
G1 F1200 X125.91 Y91.403 E51.22093
M205 X10 Y10
G0 F6000 X125.613 Y91.671
M205 X8 Y8
G1 F1200 X129.385 Y95.444 E51.4871
M205 X10 Y10
G0 F6000 X129.385 Y96.01
M205 X8 Y8
G1 F1200 X125.217 Y91.841 E51.78121
M205 X10 Y10
G0 F6000 X124.741 Y91.932
M205 X8 Y8
G1 F1200 X129.384 Y96.575 E52.1088
M205 X10 Y10
G0 F6000 X129.384 Y97.14
M205 X8 Y8
