;FLAVOR:Marlin
;TIME:831
;Filament used: 0.58829m
;Layer height: 0.2
;MINX:0
;MINY:0
;MINZ:0.3
;MAXX:129.647
;MAXY:129.648
;MAXZ:5.3
;TARGET_MACHINE.NAME:Anycubic i3 Mega S/Pro
;Generated with Cura_SteamEngine 5.11.0
;Profil Homepage: https://github.com/NilsRo/Cura_Anycubic_MegaS_Profile

;Slicer Information - (Support for OctoPrint Slicer Estimator)
;Slicer info:material_guid;0ff92885-617b-4144-a03c-9989872454bc
;Slicer info:material_id;generic_pla_175
;Slicer info:material_brand;Generic
;Slicer info:material_name;PLA
;Slicer info:filament_cost;[0.0];Slicer info:material_bed_temperature;60
;Slicer info:material_bed_temperature_layer_0;60
;Slicer info:material_print_temperature;200
;Slicer info:material_print_temperature_layer_0;205
;Slicer info:material_flow;100
;Slicer info:layer_height;0.2
;Slicer info:machine_nozzle_size;0.4
;Slicer info:wall_thickness;1.2000000000000002
;Slicer info:speed_print;50.0
;Slicer info:speed_topbottom;25.0
;Slicer info:travel_speed;100.0
;Slicer info:support;0
;Slicer info:retraction_speed;30
;Slicer info:retraction_amount;6
;Slicer info:layer_height;0.2
;Slicer info:infill_pattern;grid
;Slicer info:infill_sparse_density;25
;Slicer info:cool_fan_enabled;True
;Slicer info:cool_fan_speed;100
;Slicer info:sliced_at;Sat 13-12-2025 21:51:18
G21                                        ; metric values 
G90                                        ; absolute positioning 
M82                                        ; set extruder to absolute mode 
M900 K0                                    ; disable lin. adv. if not set in GCODE
M107                                       ; start with the fan off 
M140 S60   ; Start heating the bed 
G4 S60                                     ; wait 1 minute 
M104 S205 ; start heating the hot end 
M190 S60   ; wait for bed 
M109 S205 ; wait for hotend 
M300 S1000 P500                            ; BEEP heating done 
G28 X0 Y10 Z0                              ; move X/Y to min endstops 
M420 S1                                    ; Enable leveling 
M420 Z2.0                                  ; Set leveling fading height to 2 mm 
G0 Z0.15                                   ; lift nozzle a bit 
G92 E0                                     ; zero the extruded length 
G1 X50 E20 F500                            ; Extrude 20mm of filament in a 5cm line. 
G92 E0                                     ; zero the extruded length again 
G1 E-2 F500                                ; Retract a little 
G1 X50 F500                                ; wipe away from the filament line
G1 X100 F9000                              ; Quickly wipe away from the filament line
M82 ;absolute extrusion mode
G92 E0
G92 E0
G1 F1800 E-6
;LAYER_COUNT:26
;LAYER:0
M106 S76.5
M205 X10 Y10
G1 F480 Z0.375
G0 F6000 X0.00 Y0.00 Z0.375
G0 X103.93 Y82.679
M205 X8 Y8
;TYPE:SKIRT
G1 F480 Z0.3
G1 F1800 E0
G1 F1200 X104.723 Y82.652 E0.03959
G1 X105.657 Y82.663 E0.08619
G1 X105.803 Y82.818 E0.09681
G1 X105.943 Y83.296 E0.12166
G1 X106.014 Y83.399 E0.1279
G1 X106.089 Y83.435 E0.13205
G1 X106.14 Y83.447 E0.13466
G1 X106.265 Y83.436 E0.14093
G1 X106.331 Y83.389 E0.14497
G1 X106.628 Y83.074 E0.16657
G1 X107.235 Y82.903 E0.19803
G1 X107.616 Y83.012 E0.2178
G1 X107.726 Y83.012 E0.22329
G1 X108.179 Y82.883 E0.24679
G1 X108.923 Y82.994 E0.28432
G1 X109.467 Y83.567 E0.32373
G1 X109.657 Y84.219 E0.35762
G1 X109.467 Y84.898 E0.39279
G1 X108.974 Y85.391 E0.42758
G1 X108.295 Y85.581 E0.46275
G1 X107.642 Y85.39 E0.4967
G1 X107.605 Y85.354 E0.49927
G1 X107.493 Y85.299 E0.5055
G1 X107.412 Y85.304 E0.50955
G1 X107.238 Y85.353 E0.51856
G1 X106.653 Y85.181 E0.54898
G1 X106.183 Y84.711 E0.58215
G1 X106.035 Y84.204 E0.6085
G1 X105.964 Y84.101 E0.61474
G1 X105.846 Y84.06 E0.62097
G1 X105.702 Y84.118 E0.62871
G1 X105.362 Y84.456 E0.65263
G1 X104.753 Y84.627 E0.68419
G1 X104.168 Y84.455 E0.71461
G1 X103.699 Y83.986 E0.7477
G1 X103.679 Y83.918 E0.75124
G1 X103.847 Y83.898 E0.75968
G1 X103.96 Y83.845 E0.76591
G1 X104.022 Y83.681 E0.77465
G1 X103.93 Y82.679 E0.82485
M205 X10 Y10
G0 F6000 X104.368 Y83.065
M205 X8 Y8
G1 F1200 X104.731 Y83.052 E0.84298
G1 X105.457 Y83.061 E0.8792
G1 X105.559 Y83.408 E0.89724
G1 X105.657 Y83.603 E0.90813
G1 X105.732 Y83.671 E0.91318
G1 X105.534 Y83.746 E0.92375
G1 X105.42 Y83.835 E0.93096
G1 X105.155 Y84.099 E0.94962
G1 X104.756 Y84.211 E0.9703
G1 X104.379 Y84.1 E0.98991
G1 X104.311 Y84.032 E0.9947
G1 X104.386 Y83.908 E1.00193
G1 X104.421 Y83.644 E1.01522
G1 X104.368 Y83.065 E1.04423
M205 X10 Y10
G0 F6000 X104.805 Y83.453
M205 X8 Y8
G1 F1200 X105.156 Y83.457 E1.06174
G1 X105.175 Y83.521 E1.06507
G1 X105.138 Y83.551 E1.06745
G1 X104.946 Y83.742 E1.08096
G1 X104.799 Y83.783 E1.08857
G1 X104.819 Y83.608 E1.09736
G1 X104.805 Y83.453 E1.10512
M205 X10 Y10
G1 F1800 E-4.89488
G1 F480 Z0.375
G0 F6000 X104.805 Y83.453 Z0.375
G0 X106.266 Y83.847
M205 X8 Y8
G1 F480 Z0.3
G1 F1800 E1.10512
G1 F1200 X106.474 Y83.778 E1.11606
G1 X106.622 Y83.664 E1.12538
G1 X106.844 Y83.429 E1.14151
G1 X107.233 Y83.319 E1.16167
G1 X107.505 Y83.397 E1.17579
G1 X107.722 Y83.418 E1.18667
G1 X107.835 Y83.397 E1.1924
G1 X108.207 Y83.291 E1.2117
G1 X108.728 Y83.368 E1.23797
G1 X109.11 Y83.771 E1.26568
G1 X109.241 Y84.222 E1.28911
G1 X109.11 Y84.689 E1.31331
G1 X108.765 Y85.034 E1.33765
G1 X108.298 Y85.165 E1.36185
G1 X107.822 Y85.025 E1.3866
G1 X107.703 Y84.946 E1.39373
G1 X107.49 Y84.897 E1.40463
G1 X107.305 Y84.919 E1.41392
G1 X107.242 Y84.937 E1.41719
G1 X106.864 Y84.826 E1.43685
G1 X106.538 Y84.5 E1.45985
G1 X106.419 Y84.092 E1.48105
G1 X106.321 Y83.897 E1.49194
G1 X106.266 Y83.847 E1.49565
M205 X10 Y10
G0 F6000 X106.816 Y84.023
M205 X8 Y8
G1 F1200 X106.913 Y83.938 E1.50208
G1 X107.058 Y83.784 E1.51264
G1 X107.233 Y83.735 E1.5217
G1 X107.395 Y83.781 E1.5301
G1 X107.674 Y83.82 E1.54416
G1 X107.944 Y83.782 E1.55776
G1 X108.233 Y83.7 E1.57275
G1 X108.532 Y83.744 E1.58783
G1 X108.753 Y83.977 E1.60385
G1 X108.825 Y84.224 E1.61668
G1 X108.753 Y84.48 E1.62995
G1 X108.555 Y84.678 E1.64392
G1 X108.301 Y84.749 E1.65708
G1 X107.999 Y84.66 E1.67279
G1 X107.935 Y84.614 E1.67672
G1 X107.67 Y84.518 E1.69078
G1 X107.388 Y84.5 E1.70488
G1 X107.253 Y84.524 E1.71172
G1 X107.076 Y84.472 E1.72092
G1 X106.893 Y84.289 E1.73384
G1 X106.816 Y84.023 E1.74765
M205 X10 Y10
G0 F6000 X107.928 Y84.182
M205 X8 Y8
G1 F1200 X108.054 Y84.167 E1.75398
G1 X108.26 Y84.108 E1.76467
G1 X108.338 Y84.12 E1.76861
G1 X108.396 Y84.181 E1.77281
G1 X108.409 Y84.227 E1.77519
G1 X108.397 Y84.27 E1.77742
G1 X108.346 Y84.321 E1.78102
G1 X108.304 Y84.333 E1.7832
G1 X108.187 Y84.299 E1.78928
G1 X108.177 Y84.291 E1.78992
G1 X107.928 Y84.182 E1.80348
M205 X10 Y10
G1 F1800 E-4.19652
G1 F480 Z0.375
G0 F6000 X107.928 Y84.182 Z0.375
G0 X125.785 Y107.502
M205 X8 Y8
G1 F480 Z0.3
G1 F1800 E1.80348
G1 F1200 X125.994 Y107.444 E1.8143
G1 X125.993 Y107.46 E1.8151
G1 X126.026 Y107.581 E1.82135
G1 X126.177 Y107.67 E1.8301
G1 X127.092 Y107.745 E1.8759
G1 X127.165 Y107.821 E1.88116
G1 X127.066 Y108.538 E1.91727
G1 X127.068 Y108.547 E1.91773
G1 X126.927 Y109.305 E1.9562
G1 X126.82 Y109.406 E1.96354
G1 X126.765 Y109.497 E1.96884
G1 X126.697 Y109.739 E1.98138
G1 X126.262 Y110.176 E2.01214
G1 X126.206 Y110.287 E2.01835
G1 X126.212 Y110.373 E2.02265
G1 X126.398 Y111.005 E2.05552
G1 X126.228 Y111.615 E2.08711
G1 X125.696 Y112.147 E2.12464
G1 X125.639 Y112.258 E2.13087
G1 X125.645 Y112.345 E2.13522
G1 X125.831 Y112.977 E2.16809
G1 X125.56 Y113.746 E2.20877
G1 X125.151 Y114.155 E2.23762
G1 X124.652 Y114.294 E2.26347
G1 X124.548 Y114.364 E2.26972
G1 X124.513 Y114.433 E2.27358
G1 X124.347 Y115.025 E2.30425
G1 X123.731 Y115.642 E2.34775
G1 X123.675 Y115.753 E2.35395
G1 X123.681 Y115.839 E2.35826
G1 X123.72 Y115.97 E2.36507
G1 X123.491 Y116.789 E2.4075
G1 X122.897 Y117.383 E2.44941
G1 X122.181 Y117.583 E2.4865
G1 X122.077 Y117.653 E2.49276
G1 X122.043 Y117.832 E2.50185
G1 X122.127 Y118.121 E2.51686
G1 X121.898 Y118.94 E2.55929
G1 X121.304 Y119.534 E2.6012
G1 X120.484 Y119.763 E2.64367
G1 X119.698 Y119.533 E2.68453
G1 X119.069 Y118.904 E2.72891
G1 X118.839 Y118.119 E2.76972
G1 X119.069 Y117.332 E2.81063
G1 X119.664 Y116.704 E2.85379
G1 X120.378 Y116.504 E2.89078
G1 X120.482 Y116.434 E2.89703
G1 X120.516 Y116.255 E2.90612
G1 X120.432 Y115.968 E2.92104
G1 X120.662 Y115.181 E2.96195
G1 X121.257 Y114.552 E3.00515
G1 X121.377 Y114.52 E3.01134
G1 X121.482 Y114.451 E3.01761
G1 X121.517 Y114.383 E3.02143
G1 X121.759 Y113.557 E3.06437
G1 X122.303 Y112.982 E3.10386
G1 X123.07 Y112.767 E3.1436
G1 X123.174 Y112.697 E3.14985
G1 X123.208 Y112.63 E3.1536
G1 X123.296 Y112.33 E3.1692
G1 X123.79 Y111.808 E3.20505
G1 X123.961 Y111.76 E3.21392
G1 X124.064 Y111.69 E3.22013
G1 X124.099 Y111.511 E3.22923
G1 X123.95 Y111.004 E3.25559
G1 X124.121 Y110.421 E3.2859
G1 X124.561 Y109.954 E3.31791
G1 X124.614 Y109.841 E3.32414
G1 X124.607 Y109.761 E3.32815
G1 X124.421 Y109.128 E3.36106
G1 X124.593 Y108.543 E3.39148
G1 X125.036 Y108.074 E3.42367
G1 X125.265 Y108.011 E3.43552
G1 X125.357 Y107.955 E3.44089
G1 X125.785 Y107.502 E3.47199
M205 X10 Y10
G0 F6000 X125.883 Y107.982
M205 X8 Y8
G1 F1200 X125.891 Y107.989 E3.47252
G1 X126.144 Y108.069 E3.48575
G1 X126.721 Y108.116 E3.51464
G1 X126.67 Y108.483 E3.53312
G1 X126.671 Y108.495 E3.53372
G1 X126.557 Y109.104 E3.56463
G1 X126.545 Y109.116 E3.56548
G1 X126.38 Y109.389 E3.58139
G1 X126.34 Y109.531 E3.58875
G1 X125.979 Y109.894 E3.6143
G1 X125.856 Y110.074 E3.62517
G1 X125.805 Y110.286 E3.63605
G1 X125.828 Y110.486 E3.64609
G1 X125.982 Y111.01 E3.67334
G1 X125.871 Y111.406 E3.69386
G1 X125.413 Y111.864 E3.72618
G1 X125.289 Y112.043 E3.73704
G1 X125.238 Y112.256 E3.74797
G1 X125.262 Y112.458 E3.75811
G1 X125.412 Y112.965 E3.78449
G1 X125.214 Y113.526 E3.81417
G1 X124.942 Y113.798 E3.83336
G1 X124.545 Y113.909 E3.85393
G1 X124.349 Y114.005 E3.86482
G1 X124.2 Y114.165 E3.87573
G1 X124.128 Y114.325 E3.88448
G1 X123.99 Y114.816 E3.90993
G1 X123.448 Y115.359 E3.9482
G1 X123.325 Y115.539 E3.95908
G1 X123.274 Y115.751 E3.96996
G1 X123.297 Y115.952 E3.98005
G1 X123.304 Y115.974 E3.9812
G1 X123.134 Y116.58 E4.0126
G1 X122.688 Y117.026 E4.04407
G1 X122.073 Y117.198 E4.07593
G1 X121.877 Y117.294 E4.08682
G1 X121.729 Y117.454 E4.09769
G1 X121.647 Y117.656 E4.10857
G1 X121.659 Y117.943 E4.1229
G1 X121.711 Y118.123 E4.13225
G1 X121.541 Y118.731 E4.16374
G1 X121.095 Y119.177 E4.19521
G1 X120.487 Y119.347 E4.22671
G1 X119.909 Y119.178 E4.25675
G1 X119.424 Y118.693 E4.29097
G1 X119.256 Y118.119 E4.32081
G1 X119.426 Y117.538 E4.35101
G1 X119.879 Y117.058 E4.38394
G1 X120.485 Y116.889 E4.41533
G1 X120.681 Y116.793 E4.42621
G1 X120.83 Y116.633 E4.43712
G1 X120.912 Y116.431 E4.448
G1 X120.9 Y116.143 E4.46238
G1 X120.849 Y115.968 E4.47147
G1 X121.019 Y115.387 E4.50168
G1 X121.471 Y114.909 E4.5345
G1 X121.481 Y114.906 E4.53502
G1 X121.678 Y114.812 E4.54591
G1 X121.828 Y114.654 E4.55678
G1 X121.901 Y114.496 E4.56546
G1 X122.116 Y113.762 E4.60362
G1 X122.518 Y113.336 E4.63284
G1 X123.178 Y113.152 E4.66702
G1 X123.374 Y113.056 E4.67791
G1 X123.522 Y112.896 E4.68879
G1 X123.592 Y112.743 E4.69718
G1 X123.653 Y112.535 E4.70799
G1 X124.005 Y112.162 E4.73358
G1 X124.068 Y112.145 E4.73684
G1 X124.264 Y112.049 E4.74772
G1 X124.413 Y111.89 E4.7586
G1 X124.495 Y111.688 E4.76947
G1 X124.483 Y111.398 E4.78395
G1 X124.368 Y111.004 E4.80443
G1 X124.479 Y110.624 E4.82418
G1 X124.852 Y110.228 E4.85132
G1 X124.97 Y110.045 E4.86218
G1 X125.015 Y109.832 E4.87305
G1 X124.991 Y109.648 E4.8823
G1 X124.839 Y109.128 E4.90933
G1 X124.95 Y108.748 E4.92908
G1 X125.251 Y108.429 E4.95096
G1 X125.372 Y108.396 E4.95722
G1 X125.648 Y108.23 E4.97329
G1 X125.883 Y107.982 E4.99033
M205 X10 Y10
G0 F6000 X126.004 Y108.436
M205 X8 Y8
G1 F1200 X126.112 Y108.468 E4.99595
G1 X126.267 Y108.481 E5.00371
G1 X126.182 Y108.936 E5.02681
G1 X126.095 Y109.046 E5.0338
G1 X125.995 Y109.281 E5.04655
G1 X125.984 Y109.321 E5.04862
G1 X125.695 Y109.611 E5.06904
G1 X125.527 Y109.837 E5.08309
G1 X125.427 Y110.102 E5.09722
G1 X125.406 Y110.383 E5.11128
G1 X125.445 Y110.599 E5.12223
G1 X125.566 Y111.011 E5.14365
G1 X125.514 Y111.197 E5.15329
G1 X125.13 Y111.581 E5.18038
G1 X124.961 Y111.807 E5.19446
G1 X124.861 Y112.071 E5.20854
G1 X124.839 Y112.352 E5.22261
G1 X124.878 Y112.571 E5.2337
G1 X124.991 Y112.955 E5.25367
G1 X124.867 Y113.307 E5.27229
G1 X124.733 Y113.441 E5.28175
G1 X124.437 Y113.524 E5.29709
G1 X124.179 Y113.637 E5.31114
G1 X123.962 Y113.818 E5.32524
G1 X123.805 Y114.053 E5.33934
G1 X123.743 Y114.217 E5.34808
G1 X123.634 Y114.606 E5.36824
G1 X123.165 Y115.076 E5.40136
G1 X122.996 Y115.302 E5.41544
G1 X122.897 Y115.566 E5.42951
G1 X122.875 Y115.848 E5.44362
G1 X122.894 Y115.954 E5.44899
G1 X122.778 Y116.37 E5.47054
G1 X122.478 Y116.67 E5.49171
G1 X121.966 Y116.813 E5.51823
G1 X121.707 Y116.927 E5.53235
G1 X121.491 Y117.108 E5.5464
G1 X121.334 Y117.342 E5.56046
G1 X121.249 Y117.611 E5.57454
G1 X121.242 Y117.893 E5.58861
G1 X121.275 Y118.054 E5.59681
G1 X121.296 Y118.125 E5.6005
G1 X121.185 Y118.521 E5.62102
G1 X120.885 Y118.821 E5.64219
G1 X120.49 Y118.931 E5.66265
G1 X120.12 Y118.823 E5.68188
G1 X119.779 Y118.482 E5.70593
G1 X119.673 Y118.118 E5.72485
G1 X119.783 Y117.742 E5.74439
G1 X120.093 Y117.414 E5.76691
G1 X120.593 Y117.274 E5.79281
G1 X120.851 Y117.161 E5.80687
G1 X121.068 Y116.98 E5.82096
G1 X121.225 Y116.745 E5.83506
G1 X121.31 Y116.476 E5.84914
G1 X121.317 Y116.194 E5.86321
G1 X121.284 Y116.031 E5.87151
G1 X121.266 Y115.968 E5.87478
G1 X121.376 Y115.591 E5.89437
G1 X121.708 Y115.24 E5.91848
G1 X121.845 Y115.181 E5.92592
G1 X122.063 Y115.002 E5.93999
G1 X122.222 Y114.769 E5.95406
G1 X122.285 Y114.608 E5.96269
G1 X122.472 Y113.968 E5.99595
G1 X122.734 Y113.691 E6.01498
G1 X123.285 Y113.537 E6.04352
G1 X123.544 Y113.424 E6.05762
G1 X123.76 Y113.242 E6.07171
G1 X123.917 Y113.008 E6.08577
G1 X123.976 Y112.855 E6.09395
G1 X124.009 Y112.741 E6.09987
G1 X124.233 Y112.505 E6.1161
G1 X124.433 Y112.417 E6.127
G1 X124.65 Y112.236 E6.1411
G1 X124.807 Y112.002 E6.15516
G1 X124.893 Y111.734 E6.1692
G1 X124.9 Y111.451 E6.18332
G1 X124.867 Y111.286 E6.19172
G1 X124.784 Y111.004 E6.20639
G1 X124.835 Y110.829 E6.21548
G1 X125.143 Y110.503 E6.23785
G1 X125.305 Y110.272 E6.25193
G1 X125.397 Y110.005 E6.26602
G1 X125.411 Y109.724 E6.28006
G1 X125.375 Y109.536 E6.28961
G1 X125.255 Y109.128 E6.31082
G1 X125.306 Y108.954 E6.31987
G1 X125.465 Y108.786 E6.33141
G1 X125.479 Y108.782 E6.33214
G1 X125.737 Y108.669 E6.34619
G1 X125.939 Y108.505 E6.35917
G1 X126.004 Y108.436 E6.3639
M205 X10 Y10
G1 F1800 E0.3639
G1 F480 Z0.375
G0 F6000 X126.004 Y108.436 Z0.375
G0 X124.532 Y112.813
M205 X8 Y8
G1 F480 Z0.3
G1 F1800 E6.3639
G1 F1200 X124.571 Y112.945 E6.37077
G1 X124.521 Y113.086 E6.37823
G1 X124.33 Y113.139 E6.38812
G1 X124.269 Y113.164 E6.39141
G1 X124.36 Y112.967 E6.40223
G1 X124.366 Y112.947 E6.40328
G1 X124.467 Y112.84 E6.41062
G1 X124.532 Y112.813 E6.41413
M205 X10 Y10
G1 F1800 E0.41413
G1 F480 Z0.375
G0 F6000 X124.532 Y112.813 Z0.375
G0 X123.455 Y113.897
M205 X8 Y8
G1 F480 Z0.3
G1 F1800 E6.41413
G1 F1200 X123.358 Y114.109 E6.42576
G1 X123.277 Y114.399 E6.44078
G1 X122.882 Y114.794 E6.46865
G1 X122.676 Y115.057 E6.48532
G1 X122.538 Y115.361 E6.50197
G1 X122.476 Y115.689 E6.51863
G1 X122.498 Y115.887 E6.52857
G1 X122.421 Y116.161 E6.54277
G1 X122.269 Y116.313 E6.55349
G1 X121.858 Y116.428 E6.57478
G1 X121.709 Y116.489 E6.58281
G1 X121.717 Y116.454 E6.58461
G1 X121.711 Y116.12 E6.60127
G1 X121.68 Y115.976 E6.60862
G1 X121.732 Y115.796 E6.61797
G1 X121.938 Y115.579 E6.6329
G1 X122 Y115.554 E6.63623
G1 X122.271 Y115.359 E6.65289
G1 X122.489 Y115.105 E6.66959
G1 X122.669 Y114.72 E6.69079
G1 X122.829 Y114.174 E6.71918
G1 X122.949 Y114.046 E6.72793
G1 X123.393 Y113.922 E6.75093
G1 X123.455 Y113.897 E6.75426
M205 X10 Y10
G1 F1800 E0.75426
G1 F480 Z0.375
G0 F6000 X123.455 Y113.897 Z0.375
G0 X120.85 Y117.598
M205 X8 Y8
G1 F480 Z0.3
G1 F1800 E6.75426
G1 F1200 X120.842 Y117.633 E6.75605
G1 X120.848 Y117.967 E6.77272
G1 X120.881 Y118.123 E6.78068
G1 X120.828 Y118.312 E6.79047
G1 X120.676 Y118.464 E6.80119
G1 X120.493 Y118.515 E6.81067
G1 X120.33 Y118.467 E6.81915
G1 X120.135 Y118.272 E6.83291
