;FLAVOR:Marlin
;TIME:6458
;Filament used: 2.82336m
;Layer height: 0.1
;MINX:0
;MINY:0
;MINZ:0.3
;MAXX:141.369
;MAXY:142.381
;MAXZ:7
;TARGET_MACHINE.NAME:Anycubic i3 Mega S/Pro
;Generated with Cura_SteamEngine 5.11.0
;Profil Homepage: https://github.com/NilsRo/Cura_Anycubic_MegaS_Profile

;Slicer Information - (Support for OctoPrint Slicer Estimator)
;Slicer info:material_guid;0ff92885-617b-4144-a03c-9989872454bc
;Slicer info:material_id;generic_pla_175
;Slicer info:material_brand;Generic
;Slicer info:material_name;PLA
;Slicer info:filament_cost;[0.0];Slicer info:material_bed_temperature;60
;Slicer info:material_bed_temperature_layer_0;60
;Slicer info:material_print_temperature;200
;Slicer info:material_print_temperature_layer_0;205
;Slicer info:material_flow;100
;Slicer info:layer_height;0.1
;Slicer info:machine_nozzle_size;0.4
;Slicer info:wall_thickness;1.2000000000000002
;Slicer info:speed_print;50.0
;Slicer info:speed_topbottom;25.0
;Slicer info:travel_speed;100.0
;Slicer info:support;0
;Slicer info:retraction_speed;30
;Slicer info:retraction_amount;6
;Slicer info:layer_height;0.1
;Slicer info:infill_pattern;grid
;Slicer info:infill_sparse_density;25
;Slicer info:cool_fan_enabled;True
;Slicer info:cool_fan_speed;100
;Slicer info:sliced_at;Thu 19-02-2026 17:41:52
G21                                        ; metric values 
G90                                        ; absolute positioning 
M82                                        ; set extruder to absolute mode 
M900 K0                                    ; disable lin. adv. if not set in GCODE
M107                                       ; start with the fan off 
M140 S60   ; Start heating the bed 
G4 S60                                     ; wait 1 minute 
M104 S205 ; start heating the hot end 
M190 S60   ; wait for bed 
M109 S205 ; wait for hotend 
M300 S1000 P500                            ; BEEP heating done 
G28 X0 Y10 Z0                              ; move X/Y to min endstops 
M420 S1                                    ; Enable leveling 
M420 Z2.0                                  ; Set leveling fading height to 2 mm 
G0 Z0.15                                   ; lift nozzle a bit 
G92 E0                                     ; zero the extruded length 
G1 X50 E20 F500                            ; Extrude 20mm of filament in a 5cm line. 
G92 E0                                     ; zero the extruded length again 
G1 E-2 F500                                ; Retract a little 
G1 X50 F500                                ; wipe away from the filament line
G1 X100 F9000                              ; Quickly wipe away from the filament line
M82 ;absolute extrusion mode
G92 E0
G92 E0
G1 F1800 E-6
;LAYER_COUNT:68
;LAYER:0
M106 S76.5
M205 X10 Y10
G1 F480 Z0.375
G0 F6000 X0.00 Y0.00 Z0.375
G0 X66.867 Y96.692
M205 X8 Y8
;TYPE:SKIRT
G1 F480 Z0.3
G1 F1800 E0
G1 F1200 X98.545 Y65.006 E2.23534
G1 X99.097 Y64.47 E2.27372
G1 X99.858 Y63.813 E2.32388
G1 X100.336 Y63.458 E2.35359
G1 X101.131 Y62.927 E2.40128
G1 X102.072 Y62.416 E2.4547
G1 X103.059 Y61.998 E2.50818
G1 X103.711 Y61.772 E2.54261
G1 X104.539 Y61.538 E2.58553
G1 X105.539 Y61.345 E2.63634
G1 X106.557 Y61.235 E2.68743
G1 X106.635 Y61.244 E2.69135
G1 X107.198 Y61.2 E2.71952
G1 X108.284 Y61.254 E2.77377
G1 X109.107 Y61.345 E2.81508
G1 X109.776 Y61.459 E2.84893
G1 X110.656 Y61.687 E2.89429
G1 X111.294 Y61.885 E2.92762
G1 X112.162 Y62.235 E2.97431
G1 X112.931 Y62.612 E3.01704
G1 X113.618 Y63.001 E3.05642
G1 X114.384 Y63.525 E3.10273
G1 X115.225 Y64.182 E3.15597
G1 X116.192 Y65.115 E3.22301
G1 X137.416 Y86.337 E4.7204
G1 X138.03 Y86.968 E4.76433
G1 X138.746 Y87.773 E4.81808
G1 X139.245 Y88.462 E4.86052
G1 X139.75 Y89.248 E4.90713
G1 X140.231 Y90.166 E4.95884
G1 X140.634 Y91.131 E5.01101
G1 X140.942 Y92.092 E5.06136
G1 X141.153 Y93.002 E5.10796
G1 X141.318 Y94.109 E5.1638
G1 X141.369 Y95.139 E5.21525
G1 X141.346 Y96.021 E5.25927
G1 X141.276 Y96.779 E5.29725
G1 X141.136 Y97.617 E5.33963
G1 X140.941 Y98.424 E5.38105
G1 X140.736 Y99.099 E5.41625
G1 X140.455 Y99.843 E5.45593
G1 X140.212 Y100.397 E5.48611
G1 X139.912 Y100.987 E5.51913
G1 X139.388 Y101.873 E5.57048
G1 X138.949 Y102.484 E5.60802
G1 X136.953 Y105.028 E5.76934
G1 X135.382 Y107.148 E5.90098
G1 X133.847 Y109.348 E6.03482
G1 X132.379 Y111.584 E6.16827
G1 X130.962 Y113.881 E6.30292
G1 X129.645 Y116.157 E6.43411
G1 X128.372 Y118.508 E6.56749
G1 X127.352 Y120.514 E6.67976
G1 X120.107 Y135.174 E7.49559
G1 X119.692 Y135.983 E7.54096
G1 X119.277 Y136.721 E7.5832
G1 X118.539 Y137.77 E7.64719
G1 X117.994 Y138.414 E7.68928
G1 X117.635 Y138.797 E7.71547
G1 X117.102 Y139.309 E7.75234
G1 X116.434 Y139.875 E7.79602
G1 X115.753 Y140.358 E7.83767
G1 X115.207 Y140.703 E7.86989
G1 X114.378 Y141.16 E7.91712
G1 X113.522 Y141.539 E7.96383
G1 X112.869 Y141.773 E7.99843
G1 X111.926 Y142.051 E8.04748
G1 X111.022 Y142.231 E8.09347
G1 X110.237 Y142.331 E8.13295
G1 X109.478 Y142.381 E8.1709
G1 X108.701 Y142.376 E8.20966
G1 X107.804 Y142.325 E8.25449
G1 X106.841 Y142.178 E8.30309
G1 X105.716 Y141.912 E8.36076
G1 X104.86 Y141.619 E8.4059
G1 X104.327 Y141.403 E8.43459
G1 X103.532 Y141.04 E8.47819
G1 X78.992 Y128.919 E9.8437
G1 X78.071 Y128.442 E9.89545
G1 X77.422 Y128.059 E9.93304
G1 X76.504 Y127.442 E9.98823
G1 X75.44 Y126.516 E10.0586
G1 X74.545 Y125.542 E10.12459
G1 X73.768 Y124.501 E10.1894
G1 X73.2 Y123.563 E10.24411
G1 X71.792 Y121.31 E10.37665
G1 X70.303 Y119.074 E10.51068
G1 X68.759 Y116.89 E10.64412
G1 X66.521 Y113.941 E10.82881
G1 X65.691 Y112.89 E10.89563
G1 X65.341 Y112.418 E10.92494
G1 X64.898 Y111.759 E10.96456
G1 X64.258 Y110.578 E11.03157
G1 X63.852 Y109.622 E11.08339
G1 X63.534 Y108.64 E11.13489
G1 X63.277 Y107.52 E11.19222
G1 X63.149 Y106.546 E11.24123
G1 X63.096 Y105.432 E11.29687
G1 X63.137 Y104.4 E11.3484
G1 X63.279 Y103.333 E11.4021
G1 X63.49 Y102.387 E11.45046
G1 X63.745 Y101.55 E11.49411
G1 X64.005 Y100.847 E11.5315
G1 X64.232 Y100.329 E11.55972
G1 X64.477 Y99.854 E11.58638
G1 X64.814 Y99.259 E11.6205
G1 X65.357 Y98.413 E11.67065
G1 X66.185 Y97.403 E11.73581
G1 X66.867 Y96.692 E11.78496
M205 X10 Y10
G0 F6000 X67.15 Y96.975
M205 X8 Y8
G1 F1200 X98.824 Y65.293 E14.02002
G1 X99.376 Y64.757 E14.0584
G1 X100.119 Y64.116 E14.10736
G1 X100.558 Y63.79 E14.13464
G1 X101.322 Y63.279 E14.1805
G1 X102.263 Y62.768 E14.23392
G1 X103.214 Y62.367 E14.28541
G1 X103.821 Y62.157 E14.31745
G1 X104.615 Y61.931 E14.35864
G1 X105.582 Y61.743 E14.40779
G1 X106.6 Y61.633 E14.45887
G1 X106.601 Y61.649 E14.45967
G1 X107.178 Y61.6 E14.48856
G1 X108.24 Y61.652 E14.54161
G1 X109.063 Y61.743 E14.58292
G1 X109.676 Y61.846 E14.61393
G1 X110.538 Y62.069 E14.65835
G1 X111.145 Y62.256 E14.69004
G1 X111.986 Y62.594 E14.73526
G1 X112.735 Y62.961 E14.77687
G1 X113.392 Y63.331 E14.81449
G1 X114.138 Y63.841 E14.85957
G1 X114.947 Y64.47 E14.9107
G1 X115.909 Y65.398 E14.97738
G1 X137.129 Y86.616 E16.4745
G1 X137.743 Y87.247 E16.51842
G1 X138.422 Y88.008 E16.5693
G1 X138.909 Y88.679 E16.61067
G1 X139.396 Y89.434 E16.65549
G1 X139.862 Y90.321 E16.70548
G1 X140.253 Y91.254 E16.75595
G1 X140.552 Y92.183 E16.80464
G1 X140.757 Y93.062 E16.84967
G1 X140.918 Y94.129 E16.90351
G1 X140.969 Y95.159 E16.95496
G1 X140.946 Y96.01 E16.99743
G1 X140.881 Y96.713 E17.03265
G1 X140.741 Y97.551 E17.07504
G1 X140.558 Y98.308 E17.11389
G1 X140.353 Y98.983 E17.14909
G1 X140.089 Y99.682 E17.18636
G1 X139.855 Y100.216 E17.21545
G1 X139.567 Y100.784 E17.24722
G1 X139.063 Y101.64 E17.29678
G1 X138.634 Y102.237 E17.33346
G1 X136.638 Y104.781 E17.49478
G1 X135.054 Y106.919 E17.62753
G1 X133.519 Y109.119 E17.76137
G1 X132.045 Y111.364 E17.89535
G1 X130.622 Y113.671 E18.03058
G1 X129.293 Y115.967 E18.16294
G1 X128.02 Y118.318 E18.29632
G1 X126.995 Y120.333 E18.40911
G1 X119.751 Y134.992 E19.22487
G1 X119.343 Y135.788 E19.2695
G1 X118.95 Y136.491 E19.30968
G1 X118.234 Y137.512 E19.37189
G1 X117.702 Y138.141 E19.41299
G1 X117.358 Y138.509 E19.43813
G1 X116.843 Y139.004 E19.47376
G1 X116.202 Y139.549 E19.51574
G1 X115.539 Y140.02 E19.55631
G1 X114.993 Y140.365 E19.58854
G1 X114.216 Y140.794 E19.63282
G1 X113.387 Y141.162 E19.67807
G1 X112.734 Y141.396 E19.71268
G1 X111.848 Y141.659 E19.75878
G1 X110.971 Y141.834 E19.8034
G1 X110.21 Y141.932 E19.84168
G1 X109.48 Y141.981 E19.87818
G1 X108.723 Y141.977 E19.91595
G1 X107.864 Y141.93 E19.95887
G1 X106.933 Y141.789 E20.00585
G1 X105.845 Y141.533 E20.06161
G1 X105.01 Y141.248 E20.10563
G1 X104.493 Y141.039 E20.13345
G1 X103.709 Y140.681 E20.17645
G1 X79.176 Y128.564 E21.54155
G1 X78.255 Y128.087 E21.5933
G1 X77.645 Y127.727 E21.62864
G1 X76.727 Y127.11 E21.68382
G1 X75.735 Y126.245 E21.74948
G1 X74.84 Y125.271 E21.81548
G1 X74.11 Y124.294 E21.87632
G1 X73.542 Y123.356 E21.93103
G1 X72.125 Y121.088 E22.06445
G1 X70.636 Y118.852 E22.19848
G1 X69.086 Y116.659 E22.33245
G1 X66.84 Y113.699 E22.51783
G1 X66.012 Y112.652 E22.58443
G1 X65.672 Y112.194 E22.61288
G1 X65.249 Y111.568 E22.65058
G1 X64.626 Y110.421 E22.7157
G1 X64.232 Y109.498 E22.76576
G1 X63.924 Y108.55 E22.81549
G1 X63.674 Y107.467 E22.87095
G1 X63.549 Y106.526 E22.91831
G1 X63.496 Y105.447 E22.9722
G1 X63.534 Y104.453 E23.02183
G1 X63.676 Y103.386 E23.07553
G1 X63.873 Y102.504 E23.12062
G1 X64.128 Y101.667 E23.16427
G1 X64.372 Y101.007 E23.19938
G1 X64.588 Y100.512 E23.22632
G1 X64.825 Y100.051 E23.25218
G1 X65.151 Y99.474 E23.28525
G1 X65.667 Y98.666 E23.33308
G1 X66.474 Y97.68 E23.39664
G1 X67.15 Y96.975 E23.44537
M205 X10 Y10
G1 F1800 E17.44537
G1 F480 Z0.375
;MESH:v22 - side.stl
G0 F6000 X67.15 Y96.975 Z0.375
G0 X123.373 Y81.832
M205 X8 Y8
;TYPE:WALL-INNER
G1 F480 Z0.3
G1 F1800 E23.44537
G1 F1200 X110.866 Y69.329 E24.32767
G1 X110.447 Y68.974 E24.35507
G1 X109.978 Y68.672 E24.3829
G1 X109.172 Y68.284 E24.42752
G1 X108.314 Y68.043 E24.47199
G1 X107.421 Y67.945 E24.51681
G1 X106.297 Y68.018 E24.573
G1 X105.253 Y68.365 E24.62789
G1 X104.739 Y68.611 E24.65632
G1 X104.117 Y69.015 E24.69332
G1 X103.583 Y69.501 E24.72934
G1 X71.104 Y101.975 E27.02074
G1 X70.511 Y102.803 E27.07155
G1 X70.077 Y103.783 E27.12502
G1 X69.863 Y104.71 E27.17248
G1 X69.822 Y105.54 E27.21394
G1 X69.873 Y106.119 E27.24294
G1 X70.071 Y107.011 E27.28853
G1 X70.266 Y107.54 E27.31665
G1 X70.641 Y108.268 E27.35751
G1 X71.133 Y108.909 E27.39782
G1 X76.678 Y114.471 E27.78965
G1 X77.142 Y115.017 E27.8254
G1 X77.576 Y115.676 E27.86477
G1 X77.865 Y116.208 E27.89497
G1 X78.184 Y116.927 E27.93422
G1 X78.418 Y117.71 E27.97499
G1 X78.541 Y118.294 E28.00476
G1 X78.67 Y119.14 E28.04746
G1 X78.926 Y119.883 E28.08666
G1 X79.332 Y120.685 E28.13151
G1 X79.643 Y121.14 E28.15901
G1 X80.019 Y121.567 E28.18739
G1 X80.701 Y122.16 E28.23248
G1 X81.162 Y122.468 E28.26014
G1 X106.886 Y135.18 E29.69167
G1 X107.477 Y135.413 E29.72336
G1 X108.021 Y135.547 E29.75131
G1 X108.601 Y135.641 E29.78063
G1 X109.405 Y135.66 E29.82075
G1 X110.247 Y135.529 E29.86326
G1 X110.766 Y135.38 E29.8902
G1 X111.603 Y135.01 E29.93586
G1 X112.095 Y134.713 E29.96453
G1 X112.633 Y134.283 E29.99889
G1 X113.101 Y133.798 E30.03251
G1 X113.453 Y133.317 E30.06225
G1 X113.719 Y132.883 E30.08765
G1 X128.434 Y103.107 E31.74468
G1 X128.775 Y102.545 E31.77747
G1 X129.186 Y101.99 E31.81193
G1 X129.694 Y101.41 E31.8504
G1 X130.352 Y100.837 E31.89393
G1 X130.886 Y100.45 E31.92683
G1 X131.37 Y100.154 E31.95513
G1 X132.03 Y99.809 E31.99229
G1 X132.566 Y99.452 E32.02442
G1 X133.081 Y99 E32.0586
G1 X133.536 Y98.489 E32.09274
G1 X133.915 Y97.928 E32.12651
G1 X134.166 Y97.43 E32.15434
G1 X134.411 Y96.776 E32.18918
G1 X134.594 Y95.895 E32.23407
G1 X134.628 Y94.984 E32.27955
G1 X134.575 Y94.433 E32.30717
G1 X134.42 Y93.76 E32.34162
G1 X134.188 Y93.136 E32.37484
G1 X133.809 Y92.411 E32.41565
G1 X133.306 Y91.762 E32.45662
G1 X123.373 Y81.832 E33.15734
M205 X10 Y10
G0 F6000 X123.664 Y81.557
M205 X8 Y8
G1 F1200 X111.137 Y69.034 E34.04104
G1 X110.686 Y68.652 E34.07053
G1 X110.18 Y68.327 E34.10053
G1 X109.098 Y67.806 E34.16045
G1 X107.66 Y67.53 E34.2335
G1 X106.222 Y67.623 E34.30539
G1 X105.096 Y67.997 E34.36459
G1 X104.543 Y68.261 E34.39516
G1 X103.872 Y68.697 E34.43508
G1 X103.307 Y69.211 E34.47319
G1 X70.797 Y101.716 E36.76677
G1 X70.162 Y102.605 E36.82127
G1 X69.696 Y103.655 E36.87858
G1 X69.464 Y104.661 E36.93009
G1 X69.422 Y105.548 E36.97439
G1 X69.476 Y106.172 E37.00564
G1 X69.689 Y107.131 E37.05465
G1 X69.899 Y107.702 E37.085
G1 X70.186 Y108.258 E37.11622
G1 X70.578 Y108.88 E37.1529
G1 X71.093 Y109.435 E37.19067
G1 X76.373 Y114.73 E37.56374
G1 X76.826 Y115.263 E37.59863
G1 X77.232 Y115.881 E37.63553
G1 X77.517 Y116.407 E37.66537
G1 X77.81 Y117.068 E37.70144
G1 X78.027 Y117.794 E37.73925
G1 X78.146 Y118.354 E37.76781
G1 X78.245 Y119.011 E37.80096
G1 X78.379 Y119.526 E37.82751
G1 X78.554 Y120.032 E37.85422
G1 X78.991 Y120.896 E37.90252
G1 X79.327 Y121.386 E37.93217
G1 X79.732 Y121.845 E37.9627
G1 X80.464 Y122.483 E38.01115
G1 X80.961 Y122.815 E38.04097
G1 X106.724 Y135.546 E39.47466
G1 X107.355 Y135.795 E39.5085
G1 X107.941 Y135.939 E39.53861
G1 X108.564 Y136.041 E39.5701
G1 X109.433 Y136.06 E39.61347
G1 X110.334 Y135.921 E39.65895
G1 X110.895 Y135.759 E39.68808
G1 X111.795 Y135.361 E39.73718
G1 X112.324 Y135.042 E39.768
G1 X112.903 Y134.579 E39.80498
G1 X113.407 Y134.056 E39.84122
G1 X113.785 Y133.541 E39.87309
G1 X114.07 Y133.077 E39.90026
G1 X128.785 Y103.299 E41.55738
G1 X129.108 Y102.767 E41.58843
G1 X129.487 Y102.253 E41.62029
G1 X129.978 Y101.692 E41.65749
G1 X130.549 Y101.192 E41.69535
G1 X131.053 Y100.819 E41.72663
G1 X131.615 Y100.475 E41.75951
G1 X132.234 Y100.154 E41.79429
G1 X132.81 Y99.77 E41.82883
G1 X133.364 Y99.285 E41.86557
G1 X133.853 Y98.735 E41.90228
G1 X134.261 Y98.131 E41.93865
G1 X134.533 Y97.59 E41.96886
G1 X134.86 Y96.721 E42.01518
G1 X134.991 Y95.945 E42.05444
G1 X135.028 Y94.964 E42.10342
G1 X134.97 Y94.369 E42.13324
G1 X134.804 Y93.645 E42.1703
G1 X134.554 Y92.973 E42.20607
G1 X134.129 Y92.157 E42.25197
G1 X133.37 Y91.26 E42.3106
G1 X123.664 Y81.557 E42.9953
M205 X10 Y10
G0 F6000 X123.955 Y81.282
M205 X8 Y8
;TYPE:WALL-OUTER
G1 F1200 X111.408 Y68.74 E43.88038
G1 X110.924 Y68.33 E43.91203
G1 X110.382 Y67.981 E43.94419
G1 X109.921 Y67.737 E43.97021
G1 X109.456 Y67.536 E43.99549
G1 X108.961 Y67.373 E44.02149
G1 X108.466 Y67.257 E44.04685
G1 X107.954 Y67.18 E44.07268
G1 X107.439 Y67.145 E44.09844
G1 X106.933 Y67.156 E44.12369
G1 X106.414 Y67.211 E44.14972
G1 X105.907 Y67.307 E44.17547
G1 X105.423 Y67.446 E44.20059
G1 X104.939 Y67.629 E44.22641
G1 X104.347 Y67.911 E44.25912
G1 X103.627 Y68.379 E44.30196
G1 X103.031 Y68.921 E44.34215
G1 X70.489 Y101.459 E46.63803
G1 X69.973 Y102.181 E46.6823
G1 X69.711 Y102.635 E46.70845
G1 X69.315 Y103.528 E46.75719
G1 X69.118 Y104.384 E46.80101
G1 X69.052 Y104.906 E46.82726
G1 X69.021 Y105.556 E46.85973
G1 X69.079 Y106.225 E46.89323
G1 X69.172 Y106.736 E46.91914
G1 X69.307 Y107.251 E46.9457
G1 X69.532 Y107.863 E46.97823
G1 X69.838 Y108.456 E47.01152
G1 X70.121 Y108.905 E47.038
G1 X70.445 Y109.326 E47.06451
G1 X70.805 Y109.713 E47.09088
G1 X76.069 Y114.99 E47.46274
G1 X76.52 Y115.522 E47.49753
G1 X76.892 Y116.092 E47.53149
G1 X77.159 Y116.586 E47.55951
G1 X77.436 Y117.209 E47.59352
G1 X77.636 Y117.878 E47.62836
G1 X77.75 Y118.414 E47.6557
G1 X77.853 Y119.091 E47.68986
G1 X77.996 Y119.642 E47.71826
G1 X78.182 Y120.181 E47.74671
G1 X78.403 Y120.661 E47.77307
G1 X78.651 Y121.106 E47.79849
G1 X79.011 Y121.632 E47.83029
G1 X79.444 Y122.124 E47.86299
G1 X79.828 Y122.485 E47.88928
G1 X80.227 Y122.806 E47.91483
G1 X80.761 Y123.162 E47.94685
G1 X106.562 Y135.912 E49.38266
G1 X107.233 Y136.177 E49.41865
G1 X107.861 Y136.331 E49.45091
G1 X108.527 Y136.44 E49.48458
G1 X109.462 Y136.461 E49.53124
G1 X110.42 Y136.312 E49.57961
G1 X111.023 Y136.138 E49.61092
G1 X111.519 Y135.944 E49.63749
G1 X111.987 Y135.712 E49.66355
G1 X112.553 Y135.371 E49.69652
G1 X113.173 Y134.875 E49.73613
G1 X113.714 Y134.314 E49.77501
G1 X114.117 Y133.764 E49.80903
G1 X114.42 Y133.271 E49.8379
G1 X129.14 Y103.484 E51.49553
G1 X129.446 Y102.981 E51.52491
G1 X129.778 Y102.529 E51.55289
G1 X130.262 Y101.974 E51.58963
G1 X130.825 Y101.482 E51.62693
G1 X131.303 Y101.133 E51.65646
G1 X131.799 Y100.83 E51.68545
