;FLAVOR:Marlin
;TIME:940
;Filament used: 0.432536m
;Layer height: 0.1
;MINX:0
;MINY:0
;MINZ:0.3
;MAXX:142.061
;MAXY:142.066
;MAXZ:2.075
;TARGET_MACHINE.NAME:Anycubic i3 Mega S/Pro
;Generated with Cura_SteamEngine 5.11.0
;Profil Homepage: https://github.com/NilsRo/Cura_Anycubic_MegaS_Profile

;Slicer Information - (Support for OctoPrint Slicer Estimator)
;Slicer info:material_guid;0ff92885-617b-4144-a03c-9989872454bc
;Slicer info:material_id;generic_pla_175
;Slicer info:material_brand;Generic
;Slicer info:material_name;PLA
;Slicer info:filament_cost;[0.0];Slicer info:material_bed_temperature;60
;Slicer info:material_bed_temperature_layer_0;60
;Slicer info:material_print_temperature;200
;Slicer info:material_print_temperature_layer_0;205
;Slicer info:material_flow;100
;Slicer info:layer_height;0.1
;Slicer info:machine_nozzle_size;0.4
;Slicer info:wall_thickness;1
;Slicer info:speed_print;50.0
;Slicer info:speed_topbottom;25.0
;Slicer info:travel_speed;100.0
;Slicer info:support;0
;Slicer info:retraction_speed;30
;Slicer info:retraction_amount;6
;Slicer info:layer_height;0.1
;Slicer info:infill_pattern;lines
;Slicer info:infill_sparse_density;10
;Slicer info:cool_fan_enabled;True
;Slicer info:cool_fan_speed;100
;Slicer info:sliced_at;Thu 19-02-2026 16:57:04
G21                                        ; metric values 
G90                                        ; absolute positioning 
M82                                        ; set extruder to absolute mode 
M900 K0                                    ; disable lin. adv. if not set in GCODE
M107                                       ; start with the fan off 
M140 S60   ; Start heating the bed 
G4 S60                                     ; wait 1 minute 
M104 S205 ; start heating the hot end 
M190 S60   ; wait for bed 
M109 S205 ; wait for hotend 
M300 S1000 P500                            ; BEEP heating done 
G28 X0 Y10 Z0                              ; move X/Y to min endstops 
M420 S1                                    ; Enable leveling 
M420 Z2.0                                  ; Set leveling fading height to 2 mm 
G0 Z0.15                                   ; lift nozzle a bit 
G92 E0                                     ; zero the extruded length 
G1 X50 E20 F500                            ; Extrude 20mm of filament in a 5cm line. 
G92 E0                                     ; zero the extruded length again 
G1 E-2 F500                                ; Retract a little 
G1 X50 F500                                ; wipe away from the filament line
G1 X100 F9000                              ; Quickly wipe away from the filament line
M82 ;absolute extrusion mode
G92 E0
G92 E0
G1 F1800 E-6
;LAYER_COUNT:18
;LAYER:0
M106 S76.5
M205 X10 Y10
G1 F480 Z0.375
G0 F6000 X0.00 Y0.00 Z0.375
G0 X78.829 Y78.72
M205 X8 Y8
;TYPE:SKIRT
G1 F480 Z0.3
G1 F1800 E0
G1 F1200 X79.646 Y77.928 E0.05677
G1 X80.887 Y76.812 E0.14004
G1 X82.127 Y75.801 E0.21986
G1 X83.345 Y74.887 E0.29583
G1 X85.063 Y73.729 E0.39919
G1 X85.879 Y73.217 E0.44725
G1 X86.376 Y72.925 E0.47601
G1 X87.307 Y72.401 E0.52931
G1 X88.73 Y71.668 E0.60917
G1 X89.201 Y71.444 E0.63519
G1 X90.238 Y70.973 E0.69201
G1 X91.626 Y70.404 E0.76685
G1 X93.126 Y69.862 E0.84642
G1 X95.261 Y69.216 E0.95771
G1 X96.275 Y68.949 E1.01002
G1 X97.747 Y68.625 E1.08522
G1 X98.255 Y68.529 E1.11101
G1 X99.489 Y68.319 E1.17346
G1 X101.685 Y68.059 E1.28378
G1 X102.51 Y67.991 E1.32508
G1 X103.764 Y67.934 E1.38771
G1 X104.481 Y67.953 E1.42349
G1 X105.29 Y68.069 E1.46427
G1 X106.146 Y68.293 E1.50841
G1 X106.745 Y68.531 E1.54057
G1 X107.4 Y68.891 E1.57786
G1 X108.112 Y69.377 E1.62086
G1 X108.637 Y69.84 E1.65579
G1 X109.192 Y70.483 E1.69816
G1 X109.573 Y71.025 E1.73122
G1 X110.25 Y72.064 E1.79309
G1 X111.74 Y74.286 E1.92656
G1 X113.318 Y76.499 E2.06216
G1 X114.905 Y78.599 E2.19348
G1 X116.558 Y80.661 E2.32533
G1 X118.312 Y82.727 E2.46054
G1 X120.091 Y84.705 E2.59326
G1 X121.934 Y86.642 E2.72665
G1 X123.832 Y88.527 E2.86011
G1 X125.767 Y90.344 E2.99254
G1 X127.786 Y92.132 E3.12709
G1 X129.832 Y93.846 E3.26025
G1 X131.894 Y95.475 E3.39135
G1 X134.057 Y97.088 E3.52597
G1 X136.234 Y98.616 E3.65866
G1 X139.181 Y100.559 E3.83477
G1 X139.623 Y100.887 E3.86223
G1 X140.163 Y101.365 E3.8982
G1 X140.726 Y102.01 E3.94092
G1 X141.233 Y102.814 E3.98834
G1 X141.528 Y103.387 E4.02049
G1 X141.776 Y104.044 E4.05553
G1 X142.013 Y104.929 E4.10124
G1 X142.061 Y106.082 E4.15881
G1 X142.017 Y107.293 E4.21927
G1 X141.962 Y108.092 E4.25922
G1 X141.706 Y110.299 E4.37007
G1 X141.552 Y111.31 E4.42109
G1 X141.112 Y113.442 E4.5297
G1 X140.817 Y114.628 E4.59067
G1 X140.256 Y116.503 E4.68831
G1 X139.884 Y117.604 E4.74629
G1 X139.306 Y119.1 E4.8263
G1 X138.752 Y120.38 E4.89589
G1 X138.505 Y120.907 E4.92492
G1 X137.973 Y121.985 E4.9849
G1 X137.188 Y123.429 E5.0669
G1 X136.335 Y124.841 E5.1492
G1 X135.165 Y126.578 E5.25368
G1 X134.681 Y127.245 E5.2948
G1 X133.723 Y128.467 E5.37227
G1 X133.378 Y128.88 E5.39911
G1 X132.56 Y129.823 E5.46139
G1 X131.564 Y130.885 E5.53403
G1 X131.172 Y131.278 E5.56173
G1 X130.349 Y132.076 E5.61892
G1 X129.134 Y133.169 E5.70045
G1 X128.001 Y134.097 E5.77352
G1 X127.578 Y134.425 E5.80022
G1 X126.655 Y135.113 E5.85766
G1 X124.937 Y136.271 E5.96102
G1 X124.121 Y136.783 E6.00908
G1 X123.624 Y137.075 E6.03784
G1 X122.693 Y137.599 E6.09114
G1 X121.27 Y138.332 E6.171
G1 X120.799 Y138.556 E6.19702
G1 X119.762 Y139.027 E6.25384
G1 X118.374 Y139.596 E6.32868
G1 X116.874 Y140.138 E6.40825
G1 X114.739 Y140.784 E6.51954
G1 X113.725 Y141.051 E6.57185
G1 X112.256 Y141.374 E6.64689
G1 X111.745 Y141.471 E6.67284
G1 X110.511 Y141.681 E6.73529
G1 X108.315 Y141.941 E6.84561
G1 X107.49 Y142.009 E6.88691
G1 X106.236 Y142.066 E6.94954
G1 X105.519 Y142.047 E6.98532
G1 X104.71 Y141.931 E7.0261
G1 X103.854 Y141.707 E7.07024
G1 X103.255 Y141.469 E7.1024
G1 X102.603 Y141.111 E7.13951
G1 X102.008 Y140.714 E7.17519
G1 X101.511 Y140.304 E7.20734
G1 X100.831 Y139.543 E7.25825
G1 X100.48 Y139.055 E7.28824
G1 X99.757 Y137.945 E7.35433
G1 X98.254 Y135.705 E7.48891
G1 X96.682 Y133.501 E7.62397
G1 X95.088 Y131.392 E7.75586
G1 X93.442 Y129.339 E7.88714
G1 X91.688 Y127.273 E8.02235
G1 X89.909 Y125.295 E8.15508
G1 X88.058 Y123.35 E8.28903
G1 X86.168 Y121.473 E8.42192
G1 X84.233 Y119.656 E8.55435
G1 X82.214 Y117.868 E8.6889
G1 X80.168 Y116.154 E8.82206
G1 X78.097 Y114.518 E8.95373
G1 X75.943 Y112.912 E9.08778
G1 X73.766 Y111.384 E9.22047
G1 X70.605 Y109.297 E9.40945
G1 X69.889 Y108.666 E9.45706
G1 X69.443 Y108.187 E9.48971
G1 X68.995 Y107.591 E9.52691
G1 X68.565 Y106.798 E9.57192
G1 X68.331 Y106.246 E9.60183
G1 X68.087 Y105.518 E9.64013
G1 X67.965 Y104.814 E9.67578
G1 X67.922 Y103.991 E9.71689
G1 X67.967 Y102.96 E9.76838
G1 X68.064 Y101.63 E9.83491
G1 X68.294 Y99.701 E9.93183
G1 X68.448 Y98.69 E9.98285
G1 X68.888 Y96.558 E10.09146
G1 X69.183 Y95.372 E10.15243
G1 X69.744 Y93.497 E10.25007
G1 X70.116 Y92.396 E10.30805
G1 X70.694 Y90.9 E10.38807
G1 X71.248 Y89.62 E10.45765
G1 X71.495 Y89.094 E10.48664
G1 X71.949 Y88.167 E10.53814
G1 X72.706 Y86.757 E10.61798
G1 X73.586 Y85.276 E10.70393
G1 X74.835 Y83.422 E10.81545
G1 X75.319 Y82.755 E10.85657
G1 X76.277 Y81.532 E10.93408
G1 X76.623 Y81.119 E10.96096
G1 X77.44 Y80.177 E11.02317
G1 X78.436 Y79.115 E11.0958
G1 X78.829 Y78.72 E11.1236
M205 X10 Y10
G0 F6000 X79.108 Y79.007
M205 X8 Y8
G1 F1200 X79.914 Y78.225 E11.17963
G1 X81.14 Y77.122 E11.26191
G1 X82.367 Y76.121 E11.34091
G1 X83.569 Y75.219 E11.41588
G1 X85.276 Y74.068 E11.5186
G1 X86.082 Y73.562 E11.56608
G1 X86.572 Y73.274 E11.59443
G1 X87.49 Y72.757 E11.647
G1 X88.902 Y72.029 E11.72625
G1 X89.367 Y71.808 E11.75194
G1 X90.39 Y71.343 E11.808
G1 X91.762 Y70.78 E11.88199
G1 X93.242 Y70.245 E11.9605
G1 X95.363 Y69.603 E12.07106
G1 X96.361 Y69.34 E12.12255
G1 X97.822 Y69.018 E12.19719
G1 X98.322 Y68.923 E12.22258
G1 X99.536 Y68.716 E12.28402
G1 X101.718 Y68.458 E12.39364
G1 X102.528 Y68.391 E12.43419
G1 X103.782 Y68.334 E12.49682
G1 X104.426 Y68.349 E12.52896
G1 X105.19 Y68.456 E12.56744
G1 X105.998 Y68.665 E12.60908
G1 X106.597 Y68.903 E12.64124
G1 X107.176 Y69.222 E12.67422
G1 X107.849 Y69.678 E12.71478
G1 X108.335 Y70.102 E12.74695
G1 X108.865 Y70.714 E12.78734
G1 X109.238 Y71.243 E12.81964
G1 X109.918 Y72.287 E12.8818
G1 X111.414 Y74.518 E13.01581
G1 X112.992 Y76.731 E13.15141
G1 X114.593 Y78.849 E13.28387
G1 X116.253 Y80.92 E13.41629
G1 X118.007 Y82.986 E13.5515
G1 X119.801 Y84.981 E13.68535
G1 X121.652 Y86.926 E13.81931
G1 X123.558 Y88.819 E13.95333
G1 X125.493 Y90.635 E14.08572
G1 X127.529 Y92.439 E14.22143
G1 X129.575 Y94.153 E14.35459
G1 X131.655 Y95.796 E14.48684
G1 X133.818 Y97.409 E14.62145
G1 X136.014 Y98.95 E14.75529
G1 X138.944 Y100.881 E14.93036
G1 X139.359 Y101.187 E14.95609
G1 X139.863 Y101.63 E14.98956
G1 X140.388 Y102.224 E15.02911
G1 X140.877 Y102.997 E15.07475
G1 X141.172 Y103.57 E15.1069
G1 X141.39 Y104.148 E15.13772
G1 X141.615 Y104.987 E15.18106
G1 X141.661 Y106.068 E15.23504
G1 X141.618 Y107.266 E15.29484
G1 X141.565 Y108.046 E15.33385
G1 X141.311 Y110.239 E15.44399
G1 X141.16 Y111.229 E15.49395
G1 X140.724 Y113.346 E15.60178
G1 X140.434 Y114.513 E15.66178
G1 X139.877 Y116.375 E15.75874
G1 X139.511 Y117.46 E15.81587
G1 X138.939 Y118.941 E15.89507
G1 X138.39 Y120.21 E15.96406
G1 X138.146 Y120.73 E15.99271
G1 X137.622 Y121.794 E16.05188
G1 X136.846 Y123.222 E16.13297
G1 X136.003 Y124.618 E16.21433
G1 X134.841 Y126.343 E16.31809
G1 X134.366 Y126.998 E16.35846
G1 X133.416 Y128.211 E16.43533
G1 X133.076 Y128.618 E16.46179
G1 X132.268 Y129.549 E16.52329
G1 X131.28 Y130.603 E16.59536
G1 X130.894 Y130.991 E16.62267
G1 X130.081 Y131.779 E16.67915
G1 X128.866 Y132.872 E16.76069
G1 X127.756 Y133.781 E16.83227
G1 X127.339 Y134.104 E16.85858
G1 X126.431 Y134.781 E16.91509
G1 X124.724 Y135.932 E17.0178
G1 X123.918 Y136.438 E17.06528
G1 X123.428 Y136.726 E17.09364
G1 X122.51 Y137.243 E17.1462
G1 X121.098 Y137.971 E17.22545
G1 X120.633 Y138.192 E17.25114
G1 X119.61 Y138.657 E17.3072
G1 X118.238 Y139.22 E17.38119
G1 X116.758 Y139.755 E17.45971
G1 X114.637 Y140.397 E17.57026
G1 X113.639 Y140.66 E17.62175
G1 X112.181 Y140.981 E17.69624
G1 X111.678 Y141.077 E17.72178
G1 X110.464 Y141.284 E17.78322
G1 X108.282 Y141.542 E17.89284
G1 X107.472 Y141.609 E17.93339
G1 X106.218 Y141.666 E17.99602
G1 X105.574 Y141.651 E18.02816
G1 X104.81 Y141.544 E18.06665
G1 X104.002 Y141.335 E18.10828
G1 X103.403 Y141.097 E18.14044
G1 X102.824 Y140.778 E18.17342
G1 X102.263 Y140.405 E18.20703
G1 X101.766 Y139.995 E18.23917
G1 X101.13 Y139.278 E18.28699
G1 X100.815 Y138.837 E18.31403
G1 X100.092 Y137.727 E18.38012
G1 X98.586 Y135.482 E18.51499
G1 X97.008 Y133.269 E18.65059
G1 X95.407 Y131.151 E18.78305
G1 X93.747 Y129.08 E18.91547
G1 X91.993 Y127.014 E19.05068
G1 X90.199 Y125.019 E19.18453
G1 X88.348 Y123.074 E19.31849
G1 X86.442 Y121.181 E19.45251
G1 X84.507 Y119.365 E19.5849
G1 X82.471 Y117.561 E19.72061
G1 X80.425 Y115.847 E19.85377
G1 X78.345 Y114.204 E19.98601
G1 X76.182 Y112.591 E20.12063
G1 X73.986 Y111.05 E20.25447
G1 X70.869 Y108.996 E20.44071
G1 X70.182 Y108.393 E20.48631
G1 X69.736 Y107.914 E20.51896
G1 X69.347 Y107.4 E20.55112
G1 X68.917 Y106.607 E20.59613
G1 X68.709 Y106.116 E20.62273
G1 X68.481 Y105.45 E20.65785
G1 X68.359 Y104.746 E20.6935
G1 X68.322 Y104.008 E20.73036
G1 X68.366 Y102.989 E20.78125
G1 X68.461 Y101.677 E20.84688
G1 X68.689 Y99.761 E20.94314
G1 X68.84 Y98.771 E20.9931
G1 X69.276 Y96.654 E21.10094
G1 X69.566 Y95.487 E21.16093
G1 X70.123 Y93.625 E21.25789
G1 X70.489 Y92.54 E21.31502
G1 X71.061 Y91.059 E21.39423
G1 X71.61 Y89.79 E21.46321
G1 X71.854 Y89.27 E21.49186
G1 X72.304 Y88.352 E21.54287
G1 X72.539 Y87.901 E21.56824
G1 X73.05 Y86.961 E21.62162
G1 X73.918 Y85.499 E21.70645
G1 X75.159 Y83.657 E21.81726
G1 X75.634 Y83.002 E21.85762
G1 X76.584 Y81.789 E21.93449
G1 X76.925 Y81.381 E21.96102
G1 X77.732 Y80.451 E22.02245
G1 X78.72 Y79.397 E22.09452
G1 X79.108 Y79.007 E22.12197
M205 X10 Y10
G1 F1800 E16.12197
G1 F480 Z0.375
;MESH:v22 - shutter.stl
G0 F6000 X79.108 Y79.007 Z0.375
G0 X101.843 Y104.325
M205 X8 Y8
;TYPE:WALL-INNER
G1 F480 Z0.3
G1 F1800 E22.12197
G1 F981.6 X102.065 Y105.012 E22.166
G1 F967.7 X102.192 Y104.66 E22.18915
G1 F1176.5 X102.276 Y104.143 E22.21581
G1 F1200 X102.583 Y103.471 E22.25267
G1 X102.983 Y102.983 E22.28415
G1 X103.851 Y102.333 E22.33825
G1 F1159.4 X104.462 Y102.205 E22.37048
G1 F933.9 X104.774 Y102.063 E22.39246
G1 F960 X104.171 Y101.681 E22.43697
G1 F1200 X97.294 Y94.812 E22.9219
G1 X95.615 Y92.293 E23.07293
G1 X95.568 Y92.061 E23.08474
G1 X95.755 Y91.591 E23.10998
G1 X96.634 Y91.029 E23.16203
G1 X97.227 Y90.685 E23.19623
G1 X97.826 Y90.38 E23.22977
G1 X98.448 Y90.09 E23.26401
G1 X99.078 Y89.828 E23.29805
G1 X99.714 Y89.597 E23.3318
G1 X100.369 Y89.385 E23.36615
G1 X101.021 Y89.207 E23.39987
G1 X101.652 Y89.062 E23.43217
G1 X102.356 Y88.929 E23.46792
G1 X103.008 Y88.837 E23.50077
G1 X103.686 Y88.766 E23.53478
G1 X104.256 Y88.733 E23.56326
G1 X104.256 Y74.489 E24.2739
G1 X104.055 Y74.256 E24.28925
G1 X102.67 Y74.331 E24.35845
G1 X101.356 Y74.46 E24.42432
G1 X100.092 Y74.637 E24.488
G1 X98.746 Y74.884 E24.55627
G1 X97.451 Y75.183 E24.62258
G1 X96.149 Y75.539 E24.68992
G1 X94.922 Y75.939 E24.75431
G1 X93.681 Y76.399 E24.82034
G1 X92.437 Y76.92 E24.88762
G1 X91.265 Y77.477 E24.95236
G1 X90.091 Y78.093 E25.01851
G1 X88.95 Y78.76 E25.08444
G1 X87.839 Y79.475 E25.15036
G1 X86.756 Y80.236 E25.21639
G1 X85.709 Y81.044 E25.28237
G1 X84.696 Y81.896 E25.34841
G1 X83.723 Y82.786 E25.4142
G1 X82.786 Y83.723 E25.48031
G1 X81.892 Y84.7 E25.54638
G1 X81.04 Y85.712 E25.61238
G1 X80.236 Y86.76 E25.67828
G1 X79.474 Y87.839 E25.74418
G1 X78.76 Y88.954 E25.81024
G1 X78.093 Y90.095 E25.87617
G1 X77.478 Y91.268 E25.94225
G1 X76.928 Y92.438 E26.00675
G1 X76.398 Y93.682 E26.07421
G1 X75.94 Y94.925 E26.1403
G1 X75.543 Y96.149 E26.2045
G1 X75.182 Y97.452 E26.27195
G1 X74.884 Y98.747 E26.33825
G1 X74.633 Y100.092 E26.40651
G1 X74.461 Y101.355 E26.4701
G1 X74.331 Y102.67 E26.53603
G1 X74.26 Y103.966 E26.60078
G1 X74.479 Y104.252 E26.61875
G1 X88.733 Y104.256 E27.32989
G1 X88.766 Y103.685 E27.35842
G1 X88.83 Y103.033 E27.39111
G1 X88.933 Y102.331 E27.42651
G1 X89.063 Y101.628 E27.46217
G1 X89.209 Y100.998 E27.49444
G1 X89.391 Y100.347 E27.52816
G1 X89.6 Y99.688 E27.56265
G1 X89.835 Y99.055 E27.59634
G1 X90.091 Y98.444 E27.62939
G1 X90.404 Y97.78 E27.66601
G1 X90.697 Y97.208 E27.69808
G1 X91.045 Y96.597 E27.73316
G1 X91.529 Y95.831 E27.77836
G1 X91.753 Y95.628 E27.79344
G1 X92.055 Y95.56 E27.80889
G1 X92.286 Y95.607 E27.82065
G1 X94.816 Y97.306 E27.97269
G1 X101.843 Y104.325 E28.4682
M205 X10 Y10
G0 F6000 X102.065 Y105.012
M205 X8 Y8
G1 F824.7 X102.089 Y105.348 E28.49266
G1 F814.9 X102.222 Y105.97 E28.53938
G1 F819.1 X102.594 Y106.7 E28.59927
G1 X103.199 Y107.346 E28.66395
G1 X103.787 Y107.679 E28.71334
G1 F817.7 X104.565 Y107.915 E28.77287
G1 F805.4 X105.227 Y107.935 E28.8221
M205 X10 Y10
G1 F1800 E22.8221
G1 F480 Z0.375
G0 F6000 X105.227 Y107.935 Z0.375
G0 X107.935 Y105.357
M205 X8 Y8
G1 F480 Z0.3
G1 F1800 E28.8221
G1 F796 X107.908 Y104.639 E28.87614
G1 F809.4 X107.777 Y104.029 E28.92228
G1 F819.1 X107.402 Y103.293 E28.98266
G1 X106.791 Y102.647 E29.04765
G1 X106.21 Y102.317 E29.09648
G1 F816.3 X105.435 Y102.085 E29.15581
G1 F802.7 X104.774 Y102.063 E29.20514
M205 X10 Y10
G1 F1800 E23.20514
G1 F480 Z0.375
G0 F6000 X104.774 Y102.063 Z0.375
G0 X113.847 Y134.457
M205 X8 Y8
G1 F480 Z0.3
G1 F1800 E29.20514
G1 F1200 X115.079 Y134.057 E29.26977
G1 X116.319 Y133.597 E29.33575
G1 X117.562 Y133.076 E29.40299
G1 X118.731 Y132.519 E29.46759
G1 X119.905 Y131.903 E29.53374
G1 X121.046 Y131.236 E29.59967
G1 X122.157 Y130.525 E29.66548
G1 X123.239 Y129.761 E29.73156
G1 X124.288 Y128.952 E29.79765
G1 X125.3 Y128.104 E29.86352
G1 X126.272 Y127.21 E29.92941
G1 X127.21 Y126.272 E29.99559
G1 X128.104 Y125.3 E30.06148
G1 X128.956 Y124.284 E30.12763
G1 X129.761 Y123.239 E30.19344
G1 X130.526 Y122.156 E30.25959
G1 X131.239 Y121.043 E30.32554
G1 X131.902 Y119.901 E30.39142
G1 X132.519 Y118.727 E30.45758
G1 X133.072 Y117.562 E30.52192
G1 X133.597 Y116.319 E30.58924
G1 X134.056 Y115.075 E30.65539
