;FLAVOR:Marlin
;TIME:2612
;Filament used: 0.770203m
;Layer height: 0.1
;MINX:0
;MINY:0
;MINZ:0.3
;MAXX:116.04
;MAXY:115.379
;MAXZ:15.075
;TARGET_MACHINE.NAME:Anycubic i3 Mega S/Pro
;Generated with Cura_SteamEngine 5.11.0
;Profil Homepage: https://github.com/NilsRo/Cura_Anycubic_MegaS_Profile

;Slicer Information - (Support for OctoPrint Slicer Estimator)
;Slicer info:material_guid;0ff92885-617b-4144-a03c-9989872454bc
;Slicer info:material_id;generic_pla_175
;Slicer info:material_brand;Generic
;Slicer info:material_name;PLA
;Slicer info:filament_cost;[0.0];Slicer info:material_bed_temperature;60
;Slicer info:material_bed_temperature_layer_0;60
;Slicer info:material_print_temperature;200
;Slicer info:material_print_temperature_layer_0;205
;Slicer info:material_flow;100
;Slicer info:layer_height;0.1
;Slicer info:machine_nozzle_size;0.4
;Slicer info:wall_thickness;1.2000000000000002
;Slicer info:speed_print;50.0
;Slicer info:speed_topbottom;25.0
;Slicer info:travel_speed;100.0
;Slicer info:support;0
;Slicer info:retraction_speed;30
;Slicer info:retraction_amount;6
;Slicer info:layer_height;0.1
;Slicer info:infill_pattern;lines
;Slicer info:infill_sparse_density;30
;Slicer info:cool_fan_enabled;True
;Slicer info:cool_fan_speed;100
;Slicer info:sliced_at;Sat 07-02-2026 19:12:40
G21                                        ; metric values 
G90                                        ; absolute positioning 
M82                                        ; set extruder to absolute mode 
M900 K0                                    ; disable lin. adv. if not set in GCODE
M107                                       ; start with the fan off 
M140 S60   ; Start heating the bed 
G4 S60                                     ; wait 1 minute 
M104 S205 ; start heating the hot end 
M190 S60   ; wait for bed 
M109 S205 ; wait for hotend 
M300 S1000 P500                            ; BEEP heating done 
G28 X0 Y10 Z0                              ; move X/Y to min endstops 
M420 S1                                    ; Enable leveling 
M420 Z2.0                                  ; Set leveling fading height to 2 mm 
G0 Z0.15                                   ; lift nozzle a bit 
G92 E0                                     ; zero the extruded length 
G1 X50 E20 F500                            ; Extrude 20mm of filament in a 5cm line. 
G92 E0                                     ; zero the extruded length again 
G1 E-2 F500                                ; Retract a little 
G1 X50 F500                                ; wipe away from the filament line
G1 X100 F9000                              ; Quickly wipe away from the filament line
M82 ;absolute extrusion mode
G92 E0
G92 E0
G1 F1800 E-6
;LAYER_COUNT:148
;LAYER:0
M106 S76.5
M205 X10 Y10
G1 F480 Z0.375
G0 F6000 X0.00 Y0.00 Z0.375
G0 X99.826 Y95.09
M205 X8 Y8
;TYPE:SKIRT
G1 F480 Z0.3
G1 F1800 E0
G1 F1200 X100.83 Y94.029 E0.07288
G1 X102.218 Y93.64 E0.14479
G1 X103.606 Y94.029 E0.21671
G1 X104.61 Y95.09 E0.28958
G1 X105 Y96.424 E0.35892
G1 X104.612 Y97.812 E0.43083
G1 X103.607 Y98.817 E0.50173
G1 X102.424 Y99.148 E0.56302
G1 X102.32 Y99.218 E0.56927
G1 X102.278 Y99.335 E0.57548
G1 X102.333 Y99.478 E0.58312
G1 X102.449 Y99.601 E0.59156
G1 X102.839 Y100.935 E0.6609
G1 X102.451 Y102.323 E0.7328
G1 X101.446 Y103.328 E0.80371
G1 X100.058 Y103.716 E0.87561
G1 X98.726 Y103.326 E0.94485
G1 X97.665 Y102.265 E1.01971
G1 X97.275 Y100.934 E1.08891
G1 X97.665 Y99.601 E1.1582
G1 X98.669 Y98.541 E1.23104
G1 X99.858 Y98.208 E1.29264
G1 X99.962 Y98.138 E1.29889
G1 X100.004 Y98.021 E1.3051
G1 X99.946 Y97.874 E1.31298
G1 X99.826 Y97.753 E1.32148
G1 X99.436 Y96.423 E1.39063
G1 X99.826 Y95.09 E1.45992
M205 X10 Y10
G0 F6000 X100.182 Y95.296
M205 X8 Y8
G1 F1200 X101.045 Y94.384 E1.52256
G1 X102.218 Y94.055 E1.58334
G1 X103.391 Y94.384 E1.64412
G1 X104.254 Y95.296 E1.70676
G1 X104.584 Y96.427 E1.76554
G1 X104.255 Y97.603 E1.82647
G1 X103.398 Y98.46 E1.88693
G1 X102.316 Y98.763 E1.94299
G1 X102.12 Y98.859 E1.95388
G1 X101.972 Y99.019 E1.96475
G1 X101.89 Y99.221 E1.97563
G1 X101.886 Y99.439 E1.98651
G1 X101.96 Y99.645 E1.99743
G1 X102.042 Y99.753 E2.00419
G1 X102.092 Y99.806 E2.00783
G1 X102.423 Y100.938 E2.06667
G1 X102.094 Y102.114 E2.12759
G1 X101.237 Y102.971 E2.18806
G1 X100.061 Y103.3 E2.24898
G1 X98.937 Y102.971 E2.30741
G1 X98.02 Y102.054 E2.37211
G1 X97.692 Y100.933 E2.43038
G1 X98.021 Y99.807 E2.48891
G1 X98.884 Y98.896 E2.55151
G1 X99.966 Y98.593 E2.60757
G1 X100.162 Y98.497 E2.61846
G1 X100.31 Y98.337 E2.62933
G1 X100.392 Y98.135 E2.64021
G1 X100.396 Y97.917 E2.65109
G1 X100.322 Y97.712 E2.66196
G1 X100.23 Y97.592 E2.6695
G1 X100.181 Y97.543 E2.67296
G1 X99.853 Y96.422 E2.73123
G1 X100.182 Y95.296 E2.78976
M205 X10 Y10
G0 F6000 X100.539 Y95.5
M205 X8 Y8
G1 F1200 X101.259 Y94.74 E2.84199
G1 X102.218 Y94.471 E2.89168
G1 X103.177 Y94.74 E2.94137
G1 X103.896 Y95.5 E2.99357
G1 X104.168 Y96.43 E3.04191
G1 X103.899 Y97.393 E3.09179
G1 X103.189 Y98.103 E3.14189
G1 X102.208 Y98.378 E3.19272
G1 X101.95 Y98.492 E3.20679
G1 X101.734 Y98.673 E3.22085
G1 X101.577 Y98.907 E3.23491
G1 X101.492 Y99.176 E3.24898
G1 X101.485 Y99.458 E3.26305
G1 X101.557 Y99.731 E3.27714
G1 X101.731 Y99.997 E3.293
G1 X102.007 Y100.941 E3.34207
G1 X101.738 Y101.904 E3.39195
G1 X101.027 Y102.615 E3.44211
G1 X100.065 Y102.884 E3.49195
G1 X99.148 Y102.616 E3.53961
G1 X98.375 Y101.843 E3.59415
G1 X98.109 Y100.933 E3.64145
G1 X98.378 Y100.011 E3.68937
G1 X99.098 Y99.251 E3.7416
G1 X100.073 Y98.978 E3.79211
G1 X100.332 Y98.865 E3.80621
G1 X100.548 Y98.683 E3.8203
G1 X100.705 Y98.449 E3.83436
G1 X100.79 Y98.18 E3.84843
G1 X100.797 Y97.898 E3.86251
G1 X100.725 Y97.625 E3.87659
G1 X100.543 Y97.354 E3.89288
G1 X100.27 Y96.422 E3.94133
G1 X100.539 Y95.5 E3.98925
M205 X10 Y10
G0 F6000 X100.897 Y95.705
M205 X8 Y8
G1 F1200 X101.475 Y95.095 E4.03117
G1 X102.218 Y94.886 E4.06968
G1 X102.961 Y95.095 E4.10819
G1 X103.54 Y95.706 E4.15018
G1 X103.752 Y96.433 E4.18796
G1 X103.542 Y97.184 E4.22687
G1 X102.979 Y97.747 E4.26659
G1 X102.1 Y97.993 E4.31213
G1 X101.792 Y98.121 E4.32877
G1 X101.522 Y98.318 E4.34544
G1 X101.307 Y98.574 E4.36212
G1 X101.159 Y98.873 E4.37877
G1 X101.085 Y99.199 E4.39545
G1 X101.091 Y99.533 E4.41211
G1 X101.176 Y99.856 E4.42877
G1 X101.335 Y100.15 E4.44545
G1 X101.373 Y100.196 E4.44843
G1 X101.591 Y100.944 E4.4873
G1 X101.381 Y101.695 E4.5262
G1 X100.818 Y102.258 E4.56592
G1 X100.068 Y102.468 E4.60478
G1 X99.358 Y102.26 E4.64169
G1 X98.73 Y101.632 E4.686
G1 X98.526 Y100.934 E4.72228
G1 X98.736 Y100.216 E4.7596
G1 X99.314 Y99.606 E4.80153
G1 X100.181 Y99.363 E4.84645
G1 X100.49 Y99.236 E4.86312
G1 X100.759 Y99.038 E4.87978
G1 X100.975 Y98.783 E4.89645
G1 X101.123 Y98.484 E4.9131
G1 X101.197 Y98.158 E4.92978
G1 X101.191 Y97.824 E4.94644
G1 X101.106 Y97.501 E4.96311
G1 X100.947 Y97.207 E4.97978
G1 X100.9 Y97.151 E4.98343
G1 X100.687 Y96.423 E5.02127
G1 X100.897 Y95.705 E5.05859
M205 X10 Y10
G0 F6000 X101.254 Y95.909
M205 X8 Y8
G1 F1200 X101.689 Y95.45 E5.09014
G1 X102.218 Y95.301 E5.11756
G1 X102.747 Y95.45 E5.14498
G1 X103.182 Y95.909 E5.17653
G1 X103.336 Y96.436 E5.20392
G1 X103.185 Y96.975 E5.23185
G1 X102.769 Y97.391 E5.2612
G1 X101.993 Y97.608 E5.3014
G1 X101.64 Y97.748 E5.32034
G1 X101.582 Y97.787 E5.32383
G1 X101.575 Y97.696 E5.32838
G1 X101.469 Y97.332 E5.3473
G1 X101.29 Y96.998 E5.3662
G1 X101.263 Y96.965 E5.36833
G1 X101.104 Y96.422 E5.39656
G1 X101.254 Y95.909 E5.42323
M205 X10 Y10
G0 F6000 X101.61 Y96.115
M205 X8 Y8
G1 F1200 X101.904 Y95.805 E5.44454
G1 X102.218 Y95.717 E5.46081
G1 X102.532 Y95.805 E5.47708
G1 X102.826 Y96.115 E5.49839
G1 X102.92 Y96.437 E5.51513
G1 X102.827 Y96.767 E5.53223
G1 X102.561 Y97.033 E5.551
G1 X101.885 Y97.222 E5.58602
G1 X101.852 Y97.235 E5.58779
G1 X101.814 Y97.12 E5.59383
G1 X101.627 Y96.79 E5.61276
G1 X101.52 Y96.423 E5.63183
G1 X101.61 Y96.115 E5.64784
M205 X10 Y10
G0 F6000 X101.967 Y96.319
M205 X8 Y8
G1 F1200 X102.118 Y96.16 E5.65878
G1 X102.218 Y96.132 E5.66396
G1 X102.318 Y96.16 E5.66914
G1 X102.468 Y96.319 E5.68004
G1 X102.504 Y96.44 E5.68634
G1 X102.47 Y96.56 E5.69256
G1 X102.355 Y96.675 E5.70068
G1 X102.069 Y96.755 E5.71549
G1 X102.001 Y96.642 E5.72207
G1 X101.937 Y96.423 E5.73346
G1 X101.967 Y96.319 E5.73886
M205 X10 Y10
G1 F1800 E-0.26114
G1 F480 Z0.375
G0 F6000 X101.967 Y96.319 Z0.375
G0 X100.7 Y99.569
M205 X8 Y8
G1 F480 Z0.3
G1 F1800 E5.73886
G1 F1200 X100.707 Y99.661 E5.74346
G1 X100.813 Y100.025 E5.76238
G1 X100.993 Y100.358 E5.78126
G1 X101.009 Y100.378 E5.78254
G1 X101.175 Y100.946 E5.81206
G1 X101.024 Y101.486 E5.84004
G1 X100.609 Y101.901 E5.86932
G1 X100.07 Y102.052 E5.89724
G1 X99.569 Y101.905 E5.92329
G1 X99.086 Y101.422 E5.95737
G1 X98.943 Y100.933 E5.98279
G1 X99.093 Y100.42 E6.00945
G1 X99.526 Y99.962 E6.0409
G1 X100.289 Y99.749 E6.08042
G1 X100.641 Y99.609 E6.09932
G1 X100.7 Y99.569 E6.10287
M205 X10 Y10
G0 F6000 X100.429 Y100.121
M205 X8 Y8
G1 F1200 X100.468 Y100.236 E6.10893
G1 X100.639 Y100.537 E6.1262
G1 X100.759 Y100.948 E6.14756
G1 X100.666 Y101.278 E6.16467
G1 X100.401 Y101.543 E6.18337
G1 X100.072 Y101.635 E6.20041
G1 X99.78 Y101.55 E6.21558
G1 X99.44 Y101.21 E6.23957
G1 X99.359 Y100.934 E6.25392
G1 X99.449 Y100.626 E6.26993
G1 X99.742 Y100.317 E6.29118
G1 X100.396 Y100.134 E6.32506
G1 X100.429 Y100.121 E6.32683
M205 X10 Y10
G0 F6000 X100.213 Y100.6
M205 X8 Y8
G1 F1200 X100.266 Y100.688 E6.33195
G1 X100.343 Y100.951 E6.34562
G1 X100.309 Y101.071 E6.35185
G1 X100.194 Y101.186 E6.35996
G1 X100.073 Y101.22 E6.36623
G1 X99.989 Y101.195 E6.3706
G1 X99.795 Y101.001 E6.38429
G1 X99.776 Y100.934 E6.38777
G1 X99.806 Y100.83 E6.39317
G1 X99.956 Y100.672 E6.40403
G1 X100.213 Y100.6 E6.41735
M205 X10 Y10
G1 F1800 E0.41735
G1 F480 Z0.375
G0 F6000 X100.213 Y100.6 Z0.375
G0 X97.79 Y104.01
M205 X8 Y8
G1 F480 Z0.3
G1 F1800 E6.41735
G1 F1200 X98.794 Y105.071 E6.49023
G1 X99.184 Y106.405 E6.55957
G1 X99.075 Y106.799 E6.57996
G1 X99.081 Y106.923 E6.58615
G1 X99.127 Y106.993 E6.59033
G1 X99.164 Y107.03 E6.59294
G1 X99.275 Y107.087 E6.59917
G1 X99.359 Y107.082 E6.60337
G1 X99.993 Y106.904 E6.63622
G1 X101.381 Y107.293 E6.70814
G1 X102.386 Y108.355 E6.78108
G1 X102.776 Y109.69 E6.85047
G1 X102.663 Y110.093 E6.87135
G1 X102.669 Y110.218 E6.8776
G1 X102.756 Y110.32 E6.88428
G1 X102.817 Y110.355 E6.88779
G1 X102.94 Y110.381 E6.89406
G1 X103.062 Y110.32 E6.90087
G1 X103.81 Y109.53 E6.95515
G1 X105.197 Y109.141 E7.02701
G1 X106.587 Y109.532 E7.09905
G1 X106.592 Y109.537 E7.09941
G1 X106.703 Y109.594 E7.10563
G1 X106.839 Y109.568 E7.11254
G1 X106.9 Y109.531 E7.1161
G1 X106.981 Y109.436 E7.12233
G1 X106.983 Y109.375 E7.12537
G1 X107.385 Y108.001 E7.1968
G1 X108.389 Y106.94 E7.26967
G1 X109.777 Y106.551 E7.34159
G1 X110.462 Y106.743 E7.37708
G1 X110.587 Y106.737 E7.38332
G1 X110.708 Y106.606 E7.39222
G1 X110.866 Y106.063 E7.42043
G1 X111.87 Y105.002 E7.49331
G1 X113.258 Y104.613 E7.56523
G1 X114.646 Y105.002 E7.63714
G1 X115.65 Y106.063 E7.71002
G1 X116.04 Y107.397 E7.77936
G1 X115.652 Y108.785 E7.85126
G1 X114.647 Y109.79 E7.92217
G1 X113.259 Y110.178 E7.99407
G1 X112.588 Y109.982 E8.02894
G1 X112.463 Y109.986 E8.03518
G1 X112.339 Y110.12 E8.04429
G1 X112.17 Y110.724 E8.07558
G1 X111.166 Y111.728 E8.14642
G1 X109.778 Y112.116 E8.21832
G1 X108.447 Y111.726 E8.28752
G1 X108.355 Y111.635 E8.29398
G1 X108.243 Y111.579 E8.30022
G1 X108.111 Y111.606 E8.30694
G1 X108.051 Y111.642 E8.31044
G1 X107.969 Y111.736 E8.31666
G1 X107.962 Y111.869 E8.3233
G1 X107.979 Y111.926 E8.32627
G1 X107.591 Y113.313 E8.39812
G1 X106.586 Y114.318 E8.46903
G1 X105.198 Y114.706 E8.54094
G1 X103.866 Y114.316 E8.61018
G1 X102.805 Y113.255 E8.68504
G1 X102.415 Y111.924 E8.75423
G1 X102.518 Y111.574 E8.77244
G1 X102.514 Y111.449 E8.77868
G1 X102.429 Y111.347 E8.7853
G1 X102.369 Y111.311 E8.78879
G1 X102.247 Y111.283 E8.79504
G1 X102.125 Y111.34 E8.80175
G1 X101.382 Y112.082 E8.85414
G1 X99.994 Y112.471 E8.92606
G1 X98.662 Y112.081 E8.9953
G1 X97.6 Y111.019 E9.07023
G1 X97.211 Y109.689 E9.13936
G1 X97.327 Y109.295 E9.15985
G1 X97.323 Y109.17 E9.16609
G1 X97.275 Y109.095 E9.17054
G1 X97.237 Y109.058 E9.17318
G1 X97.124 Y109.003 E9.17945
G1 X97.043 Y109.008 E9.1835
G1 X96.404 Y109.186 E9.2166
G1 X95.071 Y108.796 E9.28589
G1 X94.01 Y107.735 E9.36075
G1 X93.62 Y106.404 E9.42994
G1 X94.01 Y105.071 E9.49923
G1 X95.014 Y104.01 E9.57211
G1 X96.402 Y103.621 E9.64403
G1 X97.79 Y104.01 E9.71594
M205 X10 Y10
G0 F6000 X97.575 Y104.365
M205 X8 Y8
G1 F1200 X98.438 Y105.277 E9.77858
G1 X98.768 Y106.41 E9.83746
G1 X98.69 Y106.692 E9.85205
G1 X98.671 Y106.909 E9.86292
G1 X98.731 Y107.119 E9.87382
G1 X98.844 Y107.276 E9.88347
G1 X98.881 Y107.313 E9.88608
G1 X99.06 Y107.437 E9.89694
G1 X99.273 Y107.488 E9.90787
G1 X99.467 Y107.467 E9.91761
G1 X99.993 Y107.319 E9.94487
G1 X101.166 Y107.648 E10.00565
G1 X102.03 Y108.561 E10.06836
G1 X102.36 Y109.693 E10.12718
G1 X102.278 Y109.985 E10.14232
G1 X102.259 Y110.202 E10.15318
G1 X102.318 Y110.412 E10.16407
G1 X102.448 Y110.587 E10.17494
G1 X102.557 Y110.667 E10.18169
G1 X102.618 Y110.702 E10.1852
G1 X102.824 Y110.775 E10.1961
G1 X103.042 Y110.769 E10.20698
G1 X103.244 Y110.685 E10.2179
G1 X103.353 Y110.595 E10.22495
G1 X104.025 Y109.885 E10.27372
G1 X105.197 Y109.556 E10.33445
G1 X106.428 Y109.902 E10.39825
G1 X106.484 Y109.942 E10.40168
G1 X106.696 Y109.996 E10.41259
G1 X106.912 Y109.97 E10.42345
G1 X107.046 Y109.91 E10.43077
G1 X107.107 Y109.873 E10.43433
G1 X107.27 Y109.728 E10.44522
G1 X107.37 Y109.534 E10.4561
G1 X107.38 Y109.442 E10.46072
G1 X107.741 Y108.207 E10.52491
G1 X108.604 Y107.295 E10.58756
G1 X109.777 Y106.966 E10.64834
G1 X110.354 Y107.128 E10.67824
G1 X110.571 Y107.147 E10.6891
G1 X110.781 Y107.088 E10.69999
G1 X110.956 Y106.958 E10.71086
G1 X111.092 Y106.718 E10.72462
G1 X111.223 Y106.269 E10.74796
G1 X112.085 Y105.357 E10.81057
G1 X113.258 Y105.028 E10.87135
G1 X114.431 Y105.357 E10.93213
G1 X115.294 Y106.269 E10.99477
G1 X115.624 Y107.4 E11.05355
G1 X115.295 Y108.576 E11.11447
G1 X114.438 Y109.433 E11.17494
G1 X113.262 Y109.762 E11.23586
G1 X112.7 Y109.598 E11.26507
G1 X112.483 Y109.576 E11.27595
G1 X112.272 Y109.633 E11.28685
G1 X112.096 Y109.762 E11.29774
G1 X111.954 Y110.012 E11.31208
G1 X111.813 Y110.515 E11.33815
G1 X110.957 Y111.371 E11.39854
G1 X109.781 Y111.7 E11.45946
G1 X108.657 Y111.371 E11.51789
G1 X108.637 Y111.351 E11.51931
G1 X108.456 Y111.228 E11.53022
G1 X108.244 Y111.178 E11.54109
G1 X108.028 Y111.207 E11.55196
G1 X107.905 Y111.263 E11.55871
G1 X107.845 Y111.299 E11.5622
G1 X107.682 Y111.443 E11.57305
G1 X107.581 Y111.636 E11.58391
G1 X107.555 Y111.853 E11.59482
G1 X107.566 Y111.916 E11.59801
G1 X107.234 Y113.104 E11.65955
G1 X106.377 Y113.961 E11.72002
G1 X105.201 Y114.29 E11.78094
G1 X104.077 Y113.961 E11.83937
G1 X103.16 Y113.044 E11.90407
G1 X102.832 Y111.924 E11.96229
G1 X102.902 Y111.687 E11.97462
G1 X102.924 Y111.47 E11.9855
G1 X102.867 Y111.259 E11.99641
G1 X102.739 Y111.083 E12.00726
G1 X102.635 Y111.004 E12.01378
G1 X102.575 Y110.968 E12.01727
G1 X102.37 Y110.891 E12.0282
G1 X102.152 Y110.893 E12.03907
G1 X101.949 Y110.973 E12.04996
G1 X101.842 Y111.057 E12.05674
G1 X101.173 Y111.725 E12.10391
G1 X99.997 Y112.055 E12.16485
G1 X98.873 Y111.726 E12.22328
G1 X97.955 Y110.808 E12.28805
G1 X97.627 Y109.688 E12.34627
G1 X97.71 Y109.408 E12.36084
G1 X97.733 Y109.191 E12.37173
G1 X97.677 Y108.98 E12.38262
G1 X97.554 Y108.808 E12.39317
G1 X97.516 Y108.771 E12.39582
G1 X97.334 Y108.65 E12.40672
G1 X97.121 Y108.601 E12.41762
G1 X96.936 Y108.623 E12.42692
G1 X96.407 Y108.77 E12.45431
G1 X95.282 Y108.441 E12.51279
G1 X94.365 Y107.524 E12.57749
G1 X94.037 Y106.403 E12.63576
G1 X94.366 Y105.277 E12.69428
G1 X95.229 Y104.365 E12.75692
G1 X96.402 Y104.036 E12.8177
G1 X97.575 Y104.365 E12.87848
M205 X10 Y10
G0 F6000 X97.361 Y104.721
M205 X8 Y8
G1 F1200 X98.08 Y105.481 E12.93068
G1 X98.352 Y106.411 E12.97902
G1 X98.304 Y106.585 E12.98803
G1 X98.268 Y106.864 E13.00206
G1 X98.311 Y107.143 E13.01614
G1 X98.431 Y107.399 E13.03025
G1 X98.561 Y107.559 E13.04054
G1 X98.598 Y107.596 E13.04315
G1 X98.824 Y107.765 E13.05723
G1 X99.088 Y107.865 E13.07131
