;FLAVOR:Marlin
;TIME:894
;Filament used: 0.592604m
;Layer height: 0.2
;MINX:0
;MINY:0
;MINZ:0.3
;MAXX:125.221
;MAXY:127.536
;MAXZ:4.975
;TARGET_MACHINE.NAME:Anycubic i3 Mega S/Pro
;Generated with Cura_SteamEngine 5.11.0
;Profil Homepage: https://github.com/NilsRo/Cura_Anycubic_MegaS_Profile

;Slicer Information - (Support for OctoPrint Slicer Estimator)
;Slicer info:material_guid;0ff92885-617b-4144-a03c-9989872454bc
;Slicer info:material_id;generic_pla_175
;Slicer info:material_brand;Generic
;Slicer info:material_name;PLA
;Slicer info:filament_cost;[0.0];Slicer info:material_bed_temperature;60
;Slicer info:material_bed_temperature_layer_0;60
;Slicer info:material_print_temperature;200
;Slicer info:material_print_temperature_layer_0;205
;Slicer info:material_flow;100
;Slicer info:layer_height;0.2
;Slicer info:machine_nozzle_size;0.4
;Slicer info:wall_thickness;0.6
;Slicer info:speed_print;50.0
;Slicer info:speed_topbottom;25.0
;Slicer info:travel_speed;100.0
;Slicer info:support;0
;Slicer info:retraction_speed;30
;Slicer info:retraction_amount;6
;Slicer info:layer_height;0.2
;Slicer info:infill_pattern;grid
;Slicer info:infill_sparse_density;10
;Slicer info:cool_fan_enabled;True
;Slicer info:cool_fan_speed;100
;Slicer info:sliced_at;Thu 05-02-2026 21:49:29
G21                                        ; metric values 
G90                                        ; absolute positioning 
M82                                        ; set extruder to absolute mode 
M900 K0                                    ; disable lin. adv. if not set in GCODE
M107                                       ; start with the fan off 
M140 S60   ; Start heating the bed 
G4 S60                                     ; wait 1 minute 
M104 S205 ; start heating the hot end 
M190 S60   ; wait for bed 
M109 S205 ; wait for hotend 
M300 S1000 P500                            ; BEEP heating done 
G28 X0 Y10 Z0                              ; move X/Y to min endstops 
M420 S1                                    ; Enable leveling 
M420 Z2.0                                  ; Set leveling fading height to 2 mm 
G0 Z0.15                                   ; lift nozzle a bit 
G92 E0                                     ; zero the extruded length 
G1 X50 E20 F500                            ; Extrude 20mm of filament in a 5cm line. 
G92 E0                                     ; zero the extruded length again 
G1 E-2 F500                                ; Retract a little 
G1 X50 F500                                ; wipe away from the filament line
G1 X100 F9000                              ; Quickly wipe away from the filament line
M82 ;absolute extrusion mode
G92 E0
G92 E0
G1 F1800 E-6
;LAYER_COUNT:24
;LAYER:0
M106 S76.5
M205 X10 Y10
G1 F480 Z0.375
G0 F6000 X0.00 Y0.00 Z0.375
G0 X89.755 Y84.202
M205 X8 Y8
;TYPE:SKIRT
G1 F480 Z0.3
G1 F1800 E0
G1 F1200 X90.226 Y83.763 E0.03212
G1 X90.83 Y83.327 E0.06929
G1 X91.439 Y82.996 E0.10387
G1 X92.038 Y82.758 E0.13602
G1 X92.766 Y82.57 E0.17354
G1 X93.711 Y82.466 E0.22097
G1 X107.93 Y82.465 E0.93036
G1 X108.649 Y82.476 E0.96623
G1 X109.27 Y82.521 E0.99729
G1 X110.062 Y82.673 E1.03753
G1 X111.192 Y83.055 E1.09704
G1 X112.17 Y83.4 E1.14878
G1 X114.769 Y84.237 E1.285
G1 X116.783 Y84.831 E1.38976
G1 X117.556 Y85.05 E1.42984
G1 X118.075 Y85.226 E1.45718
G1 X118.66 Y85.497 E1.48935
G1 X119.462 Y85.995 E1.53645
G1 X120.204 Y86.687 E1.58707
G1 X123.157 Y89.641 E1.79545
G1 X123.629 Y90.127 E1.82925
G1 X124.066 Y90.636 E1.86272
G1 X124.477 Y91.256 E1.89983
G1 X124.782 Y91.879 E1.93444
G1 X124.995 Y92.487 E1.96658
G1 X125.144 Y93.165 E2.00121
G1 X125.208 Y93.845 E2.03529
G1 X125.221 Y94.522 E2.06907
G1 X125.22 Y115.349 E3.10813
G1 X125.209 Y116.068 E3.14401
G1 X125.164 Y116.689 E3.17507
G1 X125.033 Y117.371 E3.20972
G1 X124.818 Y118.031 E3.24435
G1 X124.547 Y118.616 E3.27651
G1 X124.152 Y119.248 E3.31369
G1 X123.701 Y119.798 E3.34918
G1 X123.289 Y120.228 E3.37889
G1 X120.412 Y123.104 E3.58184
G1 X119.801 Y123.698 E3.62436
G1 X119.101 Y124.24 E3.66853
G1 X118.496 Y124.587 E3.70332
G1 X117.807 Y124.872 E3.74052
G1 X117.072 Y125.096 E3.77885
G1 X115.405 Y125.568 E3.86529
G1 X112.857 Y126.367 E3.99851
G1 X110.118 Y127.302 E4.14291
G1 X109.316 Y127.474 E4.18383
G1 X108.563 Y127.536 E4.22152
G1 X94.418 Y127.535 E4.92722
G1 X93.696 Y127.524 E4.96324
G1 X93.053 Y127.475 E4.99542
G1 X92.323 Y127.327 E5.03258
G1 X91.667 Y127.103 E5.06716
G1 X91.086 Y126.824 E5.09932
G1 X90.46 Y126.421 E5.13646
G1 X89.93 Y125.973 E5.17108
G1 X89.49 Y125.501 E5.20328
G1 X89.081 Y124.941 E5.23787
G1 X88.723 Y124.289 E5.27498
G1 X88.485 Y123.69 E5.30714
G1 X88.297 Y122.961 E5.3447
G1 X88.193 Y122.009 E5.39248
G1 X88.192 Y88.681 E7.05522
G1 X88.203 Y87.968 E7.09079
G1 X88.252 Y87.325 E7.12297
G1 X88.4 Y86.595 E7.16013
G1 X88.606 Y85.984 E7.19229
G1 X88.929 Y85.314 E7.2294
G1 X89.307 Y84.732 E7.26403
G1 X89.755 Y84.202 E7.29865
M205 X10 Y10
G0 F6000 X90.028 Y84.495
M205 X8 Y8
G1 F1200 X90.499 Y84.056 E7.33077
G1 X91.022 Y83.678 E7.36296
G1 X91.587 Y83.368 E7.39512
G1 X92.186 Y83.13 E7.42727
G1 X92.81 Y82.968 E7.45944
G1 X93.755 Y82.864 E7.50687
G1 X107.924 Y82.865 E8.21376
G1 X108.622 Y82.875 E8.24859
G1 X109.196 Y82.914 E8.27729
G1 X109.934 Y83.052 E8.31475
G1 X111.059 Y83.432 E8.37399
G1 X112.047 Y83.781 E8.42627
G1 X114.648 Y84.619 E8.5626
G1 X116.67 Y85.215 E8.66777
G1 X117.429 Y85.429 E8.70711
G1 X117.907 Y85.589 E8.73226
G1 X118.492 Y85.86 E8.76443
G1 X119.215 Y86.312 E8.80697
G1 X119.921 Y86.97 E8.85511
G1 X122.87 Y89.92 E9.06322
G1 X123.342 Y90.406 E9.09702
G1 X123.762 Y90.896 E9.12921
G1 X124.118 Y91.433 E9.16136
G1 X124.404 Y92.011 E9.19353
G1 X124.617 Y92.619 E9.22567
G1 X124.753 Y93.249 E9.25783
G1 X124.808 Y93.853 E9.28809
G1 X124.821 Y94.522 E9.32147
G1 X124.82 Y115.343 E10.36023
G1 X124.81 Y116.041 E10.39506
G1 X124.771 Y116.615 E10.42376
G1 X124.652 Y117.249 E10.45595
G1 X124.455 Y117.863 E10.48812
G1 X124.184 Y118.448 E10.52028
G1 X123.842 Y118.995 E10.55247
G1 X123.412 Y119.521 E10.58636
G1 X123.006 Y119.945 E10.61565
G1 X120.133 Y122.817 E10.81832
G1 X119.522 Y123.411 E10.86083
G1 X118.9 Y123.894 E10.90012
G1 X118.343 Y124.217 E10.93224
G1 X117.654 Y124.502 E10.96944
G1 X116.963 Y124.711 E11.00546
G1 X115.285 Y125.186 E11.09247
G1 X112.737 Y125.986 E11.2257
G1 X110.033 Y126.911 E11.36828
G1 X109.282 Y127.075 E11.40663
G1 X108.563 Y127.136 E11.44263
G1 X94.424 Y127.135 E12.14803
G1 X93.726 Y127.125 E12.18286
G1 X93.083 Y127.076 E12.21503
G1 X92.451 Y126.948 E12.2472
G1 X91.84 Y126.742 E12.27937
G1 X91.259 Y126.463 E12.31152
G1 X90.717 Y126.114 E12.34369
G1 X90.223 Y125.7 E12.37584
G1 X89.783 Y125.228 E12.40804
G1 X89.405 Y124.706 E12.44019
G1 X89.095 Y124.141 E12.47234
G1 X88.857 Y123.542 E12.5045
G1 X88.695 Y122.918 E12.53666
G1 X88.591 Y121.966 E12.58444
G1 X88.592 Y88.687 E14.24474
G1 X88.602 Y87.998 E14.27911
G1 X88.651 Y87.355 E14.31129
G1 X88.779 Y86.723 E14.34346
G1 X88.985 Y86.112 E14.37563
G1 X89.265 Y85.531 E14.4078
G1 X89.614 Y84.989 E14.43996
G1 X90.028 Y84.495 E14.47212
M205 X10 Y10
G1 F1800 E8.47212
G1 F480 Z0.375
;MESH:clapper - Part 1.stl
G0 F6000 X90.028 Y84.495 Z0.375
G0 X108.356 Y121.736
M205 X8 Y8
;TYPE:WALL-OUTER
G1 F480 Z0.3
G1 F1800 E14.47212
G1 F1200 X93.988 Y121.736 E15.18894
G1 X93.988 Y88.264 E16.85887
G1 X108.356 Y88.264 E17.57569
G1 X108.356 Y121.736 E19.24561
M205 X10 Y10
G0 F6000 X108.156 Y121.736
G1 F1800 E13.24561
G1 F480 Z0.375
G0 F6000 X108.156 Y121.736 Z0.375
G0 X94.368 Y121.356
M205 X8 Y8
;TYPE:SKIN
G1 F480 Z0.3
G1 F1800 E19.24561
G1 F1200 X94.368 Y88.644 E20.87762
G1 X107.976 Y88.644 E21.55653
G1 X107.976 Y121.356 E23.18854
G1 X94.368 Y121.356 E23.86744
M205 X10 Y10
G0 F6000 X95.134 Y121.156
M205 X8 Y8
G1 F1200 X94.568 Y120.589 E23.90741
M205 X10 Y10
G0 F6000 X94.568 Y120.024
M205 X8 Y8
G1 F1200 X95.7 Y121.156 E23.98728
M205 X10 Y10
G0 F6000 X96.266 Y121.156
M205 X8 Y8
G1 F1200 X94.568 Y119.458 E24.10708
M205 X10 Y10
G0 F6000 X94.568 Y118.892
M205 X8 Y8
G1 F1200 X96.831 Y121.156 E24.26679
M205 X10 Y10
G0 F6000 X97.397 Y121.156
M205 X8 Y8
G1 F1200 X94.568 Y118.327 E24.46639
M205 X10 Y10
G0 F6000 X94.568 Y117.761
M205 X8 Y8
G1 F1200 X97.963 Y121.156 E24.70592
M205 X10 Y10
G0 F6000 X98.528 Y121.156
M205 X8 Y8
G1 F1200 X94.568 Y117.195 E24.98536
M205 X10 Y10
G0 F6000 X94.568 Y116.629
M205 X8 Y8
G1 F1200 X99.094 Y121.156 E25.30473
M205 X10 Y10
G0 F6000 X99.66 Y121.156
M205 X8 Y8
G1 F1200 X94.568 Y116.064 E25.66399
M205 X10 Y10
G0 F6000 X94.568 Y115.498
M205 X8 Y8
G1 F1200 X100.225 Y121.156 E26.06316
M205 X10 Y10
G0 F6000 X100.791 Y121.156
M205 X8 Y8
G1 F1200 X94.568 Y114.932 E26.50226
M205 X10 Y10
G0 F6000 X94.568 Y114.367
M205 X8 Y8
G1 F1200 X101.357 Y121.156 E26.98126
M205 X10 Y10
G0 F6000 X101.922 Y121.156
M205 X8 Y8
G1 F1200 X94.568 Y113.801 E27.50016
M205 X10 Y10
G0 F6000 X94.568 Y113.235
M205 X8 Y8
G1 F1200 X102.488 Y121.156 E28.059
M205 X10 Y10
G0 F6000 X103.054 Y121.156
M205 X8 Y8
G1 F1200 X94.568 Y112.67 E28.65773
M205 X10 Y10
G0 F6000 X94.568 Y112.104
M205 X8 Y8
G1 F1200 X103.619 Y121.156 E29.29636
M205 X10 Y10
G0 F6000 X104.185 Y121.156
M205 X8 Y8
G1 F1200 X94.568 Y111.538 E29.97493
M205 X10 Y10
G0 F6000 X94.568 Y110.973
M205 X8 Y8
G1 F1200 X104.751 Y121.156 E30.6934
M205 X10 Y10
G0 F6000 X105.316 Y121.156
M205 X8 Y8
G1 F1200 X94.568 Y110.407 E31.45176
M205 X10 Y10
G0 F6000 X94.568 Y109.841
M205 X8 Y8
G1 F1200 X105.882 Y121.156 E32.25006
M205 X10 Y10
G0 F6000 X106.448 Y121.156
M205 X8 Y8
G1 F1200 X94.568 Y109.276 E33.08826
M205 X10 Y10
G0 F6000 X94.568 Y108.71
M205 X8 Y8
G1 F1200 X107.014 Y121.156 E33.96639
M205 X10 Y10
G0 F6000 X107.579 Y121.156
M205 X8 Y8
G1 F1200 X94.568 Y108.144 E34.88442
M205 X10 Y10
G0 F6000 X94.568 Y107.579
M205 X8 Y8
G1 F1200 X107.776 Y120.787 E35.81632
M205 X10 Y10
G0 F6000 X107.776 Y120.221
M205 X8 Y8
G1 F1200 X94.568 Y107.013 E36.74821
M205 X10 Y10
G0 F6000 X94.568 Y106.447
M205 X8 Y8
G1 F1200 X107.776 Y119.655 E37.68011
M205 X10 Y10
G0 F6000 X107.776 Y119.09
M205 X8 Y8
G1 F1200 X94.568 Y105.881 E38.61204
M205 X10 Y10
G0 F6000 X94.568 Y105.316
M205 X8 Y8
G1 F1200 X107.776 Y118.524 E39.54394
M205 X10 Y10
G0 F6000 X107.776 Y117.958
M205 X8 Y8
G1 F1200 X94.568 Y104.75 E40.47583
M205 X10 Y10
G0 F6000 X94.568 Y104.184
M205 X8 Y8
G1 F1200 X107.776 Y117.392 E41.40773
M205 X10 Y10
G0 F6000 X107.776 Y116.827
M205 X8 Y8
G1 F1200 X94.568 Y103.619 E42.33962
M205 X10 Y10
G0 F6000 X94.568 Y103.053
M205 X8 Y8
G1 F1200 X107.776 Y116.261 E43.27152
M205 X10 Y10
G0 F6000 X107.776 Y115.695
M205 X8 Y8
G1 F1200 X94.568 Y102.487 E44.20341
M205 X10 Y10
G0 F6000 X94.568 Y101.922
M205 X8 Y8
G1 F1200 X107.776 Y115.13 E45.13531
M205 X10 Y10
G0 F6000 X107.776 Y114.564
M205 X8 Y8
G1 F1200 X94.568 Y101.356 E46.06721
M205 X10 Y10
G0 F6000 X94.568 Y100.79
M205 X8 Y8
G1 F1200 X107.776 Y113.998 E46.9991
M205 X10 Y10
G0 F6000 X107.776 Y113.433
M205 X8 Y8
G1 F1200 X94.568 Y100.225 E47.931
M205 X10 Y10
G0 F6000 X94.568 Y99.659
M205 X8 Y8
G1 F1200 X107.776 Y112.867 E48.86289
M205 X10 Y10
G0 F6000 X107.776 Y112.301
M205 X8 Y8
G1 F1200 X94.568 Y99.093 E49.79479
M205 X10 Y10
G0 F6000 X94.568 Y98.528
M205 X8 Y8
G1 F1200 X107.776 Y111.736 E50.72668
M205 X10 Y10
G0 F6000 X107.776 Y111.17
M205 X8 Y8
G1 F1200 X94.568 Y97.962 E51.65858
M205 X10 Y10
G0 F6000 X94.568 Y97.396
M205 X8 Y8
G1 F1200 X107.776 Y110.604 E52.59048
M205 X10 Y10
G0 F6000 X107.776 Y110.039
M205 X8 Y8
G1 F1200 X94.568 Y96.83 E53.52241
M205 X10 Y10
G0 F6000 X94.568 Y96.265
M205 X8 Y8
G1 F1200 X107.776 Y109.473 E54.4543
M205 X10 Y10
G0 F6000 X107.776 Y108.907
M205 X8 Y8
G1 F1200 X94.568 Y95.699 E55.3862
M205 X10 Y10
G0 F6000 X94.568 Y95.133
M205 X8 Y8
G1 F1200 X107.776 Y108.341 E56.31809
M205 X10 Y10
G0 F6000 X107.776 Y107.776
M205 X8 Y8
G1 F1200 X94.568 Y94.568 E57.24999
M205 X10 Y10
G0 F6000 X94.568 Y94.002
M205 X8 Y8
G1 F1200 X107.776 Y107.21 E58.18189
M205 X10 Y10
G0 F6000 X107.776 Y106.644
M205 X8 Y8
G1 F1200 X94.568 Y93.436 E59.11378
M205 X10 Y10
G0 F6000 X94.568 Y92.871
M205 X8 Y8
G1 F1200 X107.776 Y106.079 E60.04568
M205 X10 Y10
G0 F6000 X107.776 Y105.513
M205 X8 Y8
G1 F1200 X94.568 Y92.305 E60.97757
M205 X10 Y10
G0 F6000 X94.568 Y91.739
M205 X8 Y8
G1 F1200 X107.776 Y104.947 E61.90947
M205 X10 Y10
G0 F6000 X107.776 Y104.382
M205 X8 Y8
G1 F1200 X94.568 Y91.174 E62.84136
M205 X10 Y10
G0 F6000 X94.568 Y90.608
M205 X8 Y8
G1 F1200 X107.776 Y103.816 E63.77326
M205 X10 Y10
G0 F6000 X107.776 Y103.25
M205 X8 Y8
G1 F1200 X94.568 Y90.042 E64.70516
M205 X10 Y10
G0 F6000 X94.568 Y89.477
M205 X8 Y8
G1 F1200 X107.776 Y102.685 E65.63705
M205 X10 Y10
G0 F6000 X107.776 Y102.119
M205 X8 Y8
G1 F1200 X94.568 Y88.911 E66.56895
M205 X10 Y10
G0 F6000 X95.067 Y88.844
M205 X8 Y8
G1 F1200 X107.776 Y101.553 E67.46564
M205 X10 Y10
G0 F6000 X107.776 Y100.988
M205 X8 Y8
G1 F1200 X95.633 Y88.844 E68.32243
M205 X10 Y10
G0 F6000 X96.198 Y88.844
M205 X8 Y8
G1 F1200 X107.776 Y100.422 E69.13932
M205 X10 Y10
G0 F6000 X107.776 Y99.856
M205 X8 Y8
G1 F1200 X96.764 Y88.844 E69.91627
M205 X10 Y10
G0 F6000 X97.33 Y88.844
M205 X8 Y8
G1 F1200 X107.776 Y99.291 E70.65333
M205 X10 Y10
G0 F6000 X107.776 Y98.725
M205 X8 Y8
G1 F1200 X97.895 Y88.844 E71.35049
M205 X10 Y10
G0 F6000 X98.461 Y88.844
M205 X8 Y8
G1 F1200 X107.776 Y98.159 E72.00771
M205 X10 Y10
G0 F6000 X107.776 Y97.593
M205 X8 Y8
G1 F1200 X99.027 Y88.844 E72.625
M205 X10 Y10
G0 F6000 X99.592 Y88.844
M205 X8 Y8
G1 F1200 X107.776 Y97.028 E73.20243
M205 X10 Y10
G0 F6000 X107.776 Y96.462
M205 X8 Y8
G1 F1200 X100.158 Y88.844 E73.73992
M205 X10 Y10
G0 F6000 X100.724 Y88.844
M205 X8 Y8
G1 F1200 X107.776 Y95.896 E74.23747
M205 X10 Y10
G0 F6000 X107.776 Y95.331
M205 X8 Y8
G1 F1200 X101.29 Y88.844 E74.69513
M205 X10 Y10
G0 F6000 X101.855 Y88.844
M205 X8 Y8
G1 F1200 X107.776 Y94.765 E75.11289
M205 X10 Y10
G0 F6000 X107.776 Y94.199
M205 X8 Y8
G1 F1200 X102.421 Y88.844 E75.49071
M205 X10 Y10
G0 F6000 X102.987 Y88.844
M205 X8 Y8
G1 F1200 X107.776 Y93.634 E75.82864
M205 X10 Y10
G0 F6000 X107.776 Y93.068
M205 X8 Y8
G1 F1200 X103.552 Y88.844 E76.12666
M205 X10 Y10
G0 F6000 X104.118 Y88.844
M205 X8 Y8
G1 F1200 X107.776 Y92.502 E76.38476
M205 X10 Y10
G0 F6000 X107.776 Y91.937
M205 X8 Y8
G1 F1200 X104.684 Y88.844 E76.60295
M205 X10 Y10
G0 F6000 X105.249 Y88.844
M205 X8 Y8
G1 F1200 X107.776 Y91.371 E76.78124
M205 X10 Y10
G0 F6000 X107.776 Y90.805
M205 X8 Y8
G1 F1200 X105.815 Y88.844 E76.9196
M205 X10 Y10
G0 F6000 X106.381 Y88.844
M205 X8 Y8
G1 F1200 X107.776 Y90.24 E77.01806
M205 X10 Y10
G0 F6000 X107.776 Y89.674
M205 X8 Y8
G1 F1200 X106.946 Y88.844 E77.07662
M205 X10 Y10
G0 F6000 X107.512 Y88.844
M205 X8 Y8
G1 F1200 X107.776 Y89.108 E77.09525
M205 X10 Y10
G1 F1800 E71.09525
G1 F480 Z0.375
;MESH:clapper - Part 2.stl
G0 F6000 X107.776 Y89.108 Z0.375
G0 X116.02 Y90.907
M205 X8 Y8
;TYPE:WALL-OUTER
G1 F480 Z0.3
G1 F1800 E77.09525
G1 F1200 X119.276 Y94.167 E77.32512
G1 X119.276 Y115.833 E78.40604
G1 X116.021 Y119.089 E78.63573
G1 X112.765 Y115.829 E78.8656
G1 X112.764 Y94.167 E79.94632
G1 X116.02 Y90.907 E80.17619
M205 X10 Y10
G0 F6000 X116.161 Y91.048
G1 F1800 E74.17619
G1 F480 Z0.375
G0 F6000 X116.161 Y91.048 Z0.375
G0 X113.145 Y115.669
M205 X8 Y8
;TYPE:SKIN
G1 F480 Z0.3
G1 F1800 E80.17619
G1 F1200 X113.144 Y94.323 E81.24115
G1 X116.02 Y91.444 E81.44417
G1 X118.896 Y94.323 E81.6472
G1 X118.896 Y115.673 E82.71235
G1 X116.021 Y118.549 E82.91523
G1 X113.145 Y115.669 E83.11829
M205 X10 Y10
G0 F6000 X113.344 Y115.041
M205 X8 Y8
G1 F1200 X116.295 Y117.992 E83.3265
M205 X10 Y10
G0 F6000 X116.578 Y117.709
M205 X8 Y8
G1 F1200 X113.344 Y114.476 E83.55464
M205 X10 Y10
G0 F6000 X113.344 Y113.91
M205 X8 Y8
G1 F1200 X116.861 Y117.426 E83.80275
M205 X10 Y10
G0 F6000 X117.144 Y117.144
M205 X8 Y8
G1 F1200 X113.344 Y113.344 E84.07086
M205 X10 Y10
G0 F6000 X113.344 Y112.779
M205 X8 Y8
G1 F1200 X117.426 Y116.861 E84.35887
M205 X10 Y10
G0 F6000 X117.709 Y116.578
M205 X8 Y8
G1 F1200 X113.344 Y112.213 E84.66684
M205 X10 Y10
G0 F6000 X113.344 Y111.647
M205 X8 Y8
G1 F1200 X117.992 Y116.295 E84.99478
M205 X10 Y10
G0 F6000 X118.275 Y116.012
M205 X8 Y8
G1 F1200 X113.344 Y111.082 E85.34266
M205 X10 Y10
G0 F6000 X113.344 Y110.516
M205 X8 Y8
G1 F1200 X118.558 Y115.729 E85.7105
