;FLAVOR:Marlin
;TIME:7528
;Filament used: 10.7972m
;Layer height: 0.3
;MINX:0
;MINY:0
;MINZ:0.3
;MAXX:142.799
;MAXY:142.799
;MAXZ:69.975
;TARGET_MACHINE.NAME:Anycubic i3 Mega S/Pro
;Generated with Cura_SteamEngine 5.11.0
;Profil Homepage: https://github.com/NilsRo/Cura_Anycubic_MegaS_Profile

;Slicer Information - (Support for OctoPrint Slicer Estimator)
;Slicer info:material_guid;0ff92885-617b-4144-a03c-9989872454bc
;Slicer info:material_id;generic_pla_175
;Slicer info:material_brand;Generic
;Slicer info:material_name;PLA
;Slicer info:filament_cost;[0.0];Slicer info:material_bed_temperature;60
;Slicer info:material_bed_temperature_layer_0;60
;Slicer info:material_print_temperature;200
;Slicer info:material_print_temperature_layer_0;205
;Slicer info:material_flow;100
;Slicer info:layer_height;0.3
;Slicer info:machine_nozzle_size;0.4
;Slicer info:wall_thickness;0.6
;Slicer info:speed_print;50.0
;Slicer info:speed_topbottom;25.0
;Slicer info:travel_speed;100.0
;Slicer info:support;0
;Slicer info:retraction_speed;30
;Slicer info:retraction_amount;6
;Slicer info:layer_height;0.3
;Slicer info:infill_pattern;zigzag
;Slicer info:infill_sparse_density;10
;Slicer info:cool_fan_enabled;True
;Slicer info:cool_fan_speed;100
;Slicer info:sliced_at;Sun 01-02-2026 17:07:53
G21                                        ; metric values 
G90                                        ; absolute positioning 
M82                                        ; set extruder to absolute mode 
M900 K0                                    ; disable lin. adv. if not set in GCODE
M107                                       ; start with the fan off 
M140 S60   ; Start heating the bed 
G4 S60                                     ; wait 1 minute 
M104 S205 ; start heating the hot end 
M190 S60   ; wait for bed 
M109 S205 ; wait for hotend 
M300 S1000 P500                            ; BEEP heating done 
G28 X0 Y10 Z0                              ; move X/Y to min endstops 
M420 S1                                    ; Enable leveling 
M420 Z2.0                                  ; Set leveling fading height to 2 mm 
G0 Z0.15                                   ; lift nozzle a bit 
G92 E0                                     ; zero the extruded length 
G1 X50 E20 F500                            ; Extrude 20mm of filament in a 5cm line. 
G92 E0                                     ; zero the extruded length again 
G1 E-2 F500                                ; Retract a little 
G1 X50 F500                                ; wipe away from the filament line
G1 X100 F9000                              ; Quickly wipe away from the filament line
M82 ;absolute extrusion mode
G92 E0
G92 E0
G1 F1800 E-6
;LAYER_COUNT:233
;LAYER:0
M106 S76.5
M205 X10 Y10
G1 F480 Z0.375
G0 F6000 X0.00 Y0.00 Z0.375
G0 X79.846 Y79.094
M205 X8 Y8
;TYPE:SKIRT
G1 F480 Z0.3
G1 F1800 E0
G1 F1200 X80.96 Y78.061 E0.0758
G1 X81.997 Y77.171 E0.14397
G1 X82.45 Y76.804 E0.17306
G1 X83.262 Y76.172 E0.22439
G1 X83.686 Y75.86 E0.25066
G1 X84.699 Y75.143 E0.31257
G1 X85.952 Y74.328 E0.38715
G1 X87.18 Y73.598 E0.45842
G1 X87.629 Y73.35 E0.48401
G1 X88.839 Y72.717 E0.55214
G1 X90.57 Y71.909 E0.64744
G1 X91.5 Y71.513 E0.69787
G1 X92.931 Y70.971 E0.77422
G1 X94.452 Y70.47 E0.85411
G1 X95.91 Y70.058 E0.9297
G1 X96.482 Y69.915 E0.95911
G1 X97.748 Y69.631 E1.02384
G1 X99.023 Y69.394 E1.08854
G1 X99.544 Y69.311 E1.11486
G1 X100.743 Y69.147 E1.17524
G1 X102.128 Y69.01 E1.24467
G1 X102.682 Y68.972 E1.27238
G1 X103.789 Y68.916 E1.32768
G1 X105.384 Y68.897 E1.40726
G1 X106.82 Y68.942 E1.47894
G1 X107.381 Y68.975 E1.50697
G1 X108.603 Y69.075 E1.56814
G1 X109.992 Y69.242 E1.63794
G1 X110.521 Y69.321 E1.66462
G1 X111.735 Y69.525 E1.72604
G1 X113.117 Y69.819 E1.79653
G1 X113.632 Y69.943 E1.82296
G1 X114.841 Y70.261 E1.88533
G1 X116.291 Y70.704 E1.96097
G1 X117.798 Y71.238 E2.04073
G1 X119.335 Y71.864 E2.12353
G1 X121.062 Y72.67 E2.21861
G1 X122.086 Y73.189 E2.27589
G1 X123.4 Y73.935 E2.35127
G1 X124.653 Y74.713 E2.42485
G1 X125.133 Y75.031 E2.45358
G1 X125.946 Y75.592 E2.50286
G1 X127.216 Y76.54 E2.58193
G1 X127.635 Y76.873 E2.60863
G1 X128.493 Y77.583 E2.66419
G1 X129.758 Y78.719 E2.74901
G1 X130.872 Y79.81 E2.8268
G1 X131.815 Y80.822 E2.89582
G1 X132.196 Y81.253 E2.92452
G1 X132.837 Y82.007 E2.97389
G1 X133.826 Y83.26 E3.05353
G1 X134.14 Y83.686 E3.07993
G1 X134.857 Y84.699 E3.14185
G1 X135.672 Y85.952 E3.21642
G1 X136.402 Y87.18 E3.28769
G1 X136.65 Y87.629 E3.31328
G1 X137.283 Y88.839 E3.38141
G1 X138.091 Y90.57 E3.47672
G1 X138.487 Y91.5 E3.52715
G1 X139.029 Y92.931 E3.60349
G1 X139.53 Y94.452 E3.68338
G1 X139.942 Y95.91 E3.75897
G1 X140.075 Y96.441 E3.78628
G1 X140.369 Y97.748 E3.85312
G1 X140.606 Y99.023 E3.91782
G1 X140.689 Y99.544 E3.94414
G1 X140.853 Y100.744 E4.00456
G1 X141.01 Y102.385 E4.08681
G1 X141.084 Y103.789 E4.15695
G1 X141.103 Y105.384 E4.23653
G1 X141.058 Y106.819 E4.30816
G1 X141.025 Y107.381 E4.33624
G1 X140.925 Y108.603 E4.39741
G1 X140.758 Y109.992 E4.46721
G1 X140.679 Y110.521 E4.49389
G1 X140.475 Y111.735 E4.55531
G1 X140.181 Y113.117 E4.6258
G1 X139.803 Y114.61 E4.70264
G1 X139.661 Y115.105 E4.72833
G1 X139.293 Y116.298 E4.79062
G1 X138.775 Y117.765 E4.86823
G1 X138.193 Y119.212 E4.94604
G1 X137.33 Y121.062 E5.04789
G1 X136.796 Y122.116 E5.10684
G1 X135.912 Y123.655 E5.19538
G1 X135.287 Y124.654 E5.25417
G1 X134.969 Y125.133 E5.28286
G1 X134.411 Y125.942 E5.33189
G1 X134.105 Y126.363 E5.35786
G1 X133.459 Y127.218 E5.41132
G1 X133.127 Y127.635 E5.43791
G1 X132.484 Y128.413 E5.48827
G1 X132.128 Y128.824 E5.51539
G1 X131.456 Y129.57 E5.56549
G1 X131.075 Y129.973 E5.59315
G1 X130.155 Y130.905 E5.65849
G1 X129.04 Y131.939 E5.73436
G1 X128.002 Y132.829 E5.80257
G1 X127.559 Y133.187 E5.83099
G1 X126.58 Y133.946 E5.89279
G1 X125.301 Y134.857 E5.97113
G1 X124.048 Y135.672 E6.0457
G1 X122.82 Y136.402 E6.11698
G1 X122.371 Y136.65 E6.14257
G1 X121.161 Y137.283 E6.21069
G1 X119.43 Y138.091 E6.306
G1 X118.5 Y138.487 E6.35643
G1 X117.069 Y139.029 E6.43277
G1 X115.548 Y139.53 E6.51266
G1 X114.09 Y139.942 E6.58825
G1 X113.518 Y140.085 E6.61767
G1 X112.252 Y140.369 E6.6824
G1 X110.977 Y140.606 E6.7471
G1 X110.456 Y140.689 E6.77342
G1 X109.257 Y140.853 E6.83379
G1 X107.872 Y140.99 E6.90323
G1 X107.318 Y141.028 E6.93093
G1 X106.211 Y141.084 E6.98623
G1 X104.616 Y141.103 E7.06581
G1 X103.18 Y141.058 E7.13749
G1 X102.619 Y141.025 E7.16553
G1 X101.397 Y140.925 E7.2267
G1 X100.008 Y140.758 E7.29649
G1 X99.479 Y140.679 E7.32318
G1 X98.265 Y140.475 E7.38459
G1 X96.883 Y140.181 E7.45509
G1 X96.368 Y140.057 E7.48151
G1 X95.16 Y139.739 E7.54383
G1 X93.856 Y139.343 E7.61182
G1 X92.202 Y138.762 E7.69929
G1 X90.665 Y138.136 E7.78208
G1 X88.938 Y137.33 E7.87717
G1 X87.914 Y136.811 E7.93444
G1 X86.6 Y136.065 E8.00982
G1 X85.347 Y135.287 E8.08341
G1 X84.867 Y134.969 E8.11213
G1 X84.054 Y134.408 E8.16141
G1 X82.784 Y133.46 E8.24048
G1 X82.365 Y133.127 E8.26718
G1 X81.507 Y132.417 E8.32274
G1 X80.239 Y131.278 E8.40778
G1 X79.13 Y130.193 E8.48518
G1 X78.185 Y129.178 E8.55437
G1 X77.804 Y128.747 E8.58307
G1 X77.018 Y127.823 E8.64359
G1 X76.058 Y126.585 E8.72175
G1 X75.143 Y125.301 E8.80041
G1 X74.328 Y124.048 E8.87498
G1 X73.598 Y122.82 E8.94625
G1 X73.35 Y122.371 E8.97184
G1 X72.717 Y121.161 E9.03997
G1 X71.909 Y119.43 E9.13528
G1 X71.513 Y118.5 E9.18571
G1 X70.971 Y117.069 E9.26205
G1 X70.47 Y115.548 E9.34194
G1 X70.058 Y114.09 E9.41753
G1 X69.915 Y113.519 E9.4469
G1 X69.643 Y112.33 E9.50775
G1 X69.393 Y110.975 E9.57649
G1 X69.311 Y110.456 E9.60271
G1 X69.147 Y109.257 E9.66308
G1 X68.993 Y107.692 E9.74154
G1 X68.916 Y106.211 E9.81552
G1 X68.897 Y104.731 E9.88937
G1 X68.906 Y104.146 E9.91856
G1 X68.942 Y103.177 E9.96693
G1 X68.975 Y102.619 E9.99482
G1 X69.075 Y101.397 E10.05599
G1 X69.242 Y100.008 E10.12579
G1 X69.32 Y99.479 E10.15246
G1 X69.491 Y98.461 E10.20396
G1 X69.819 Y96.883 E10.28437
G1 X69.943 Y96.368 E10.3108
G1 X70.261 Y95.16 E10.37312
G1 X70.657 Y93.856 E10.44111
G1 X71.238 Y92.202 E10.52857
G1 X71.864 Y90.665 E10.61137
G1 X72.67 Y88.938 E10.70645
G1 X73.189 Y87.914 E10.76373
G1 X73.935 Y86.6 E10.83911
G1 X74.715 Y85.344 E10.91287
G1 X75.031 Y84.867 E10.94142
G1 X75.592 Y84.054 E10.9907
G1 X76.54 Y82.784 E11.06977
G1 X76.873 Y82.365 E11.09647
G1 X77.516 Y81.587 E11.14682
G1 X77.872 Y81.176 E11.17395
G1 X78.544 Y80.43 E11.22404
G1 X78.925 Y80.027 E11.25171
G1 X79.846 Y79.094 E11.31712
M205 X10 Y10
G0 F6000 X80.118 Y79.387
M205 X8 Y8
G1 F1200 X81.22 Y78.365 E11.3921
G1 X82.249 Y77.482 E11.45975
G1 X82.696 Y77.12 E11.48844
G1 X83.5 Y76.494 E11.53928
G1 X83.917 Y76.186 E11.56514
G1 X84.917 Y75.478 E11.62627
G1 X86.156 Y74.672 E11.70002
G1 X87.374 Y73.948 E11.77071
G1 X87.815 Y73.704 E11.79585
G1 X89.008 Y73.079 E11.86304
G1 X90.727 Y72.277 E11.95768
G1 X91.642 Y71.887 E12.0073
G1 X93.056 Y71.351 E12.08275
G1 X94.561 Y70.855 E12.1618
G1 X96.007 Y70.446 E12.23677
G1 X96.57 Y70.305 E12.26573
G1 X97.821 Y70.024 E12.3297
G1 X99.086 Y69.789 E12.39389
G1 X99.598 Y69.707 E12.41976
G1 X100.782 Y69.545 E12.47938
G1 X102.156 Y69.409 E12.54826
G1 X102.702 Y69.371 E12.57557
G1 X103.794 Y69.316 E12.63012
G1 X105.372 Y69.297 E12.70885
G1 X106.796 Y69.341 E12.77993
G1 X107.349 Y69.374 E12.80757
G1 X108.555 Y69.472 E12.86793
G1 X109.934 Y69.638 E12.93723
G1 X110.455 Y69.715 E12.9635
G1 X111.652 Y69.916 E13.02406
G1 X113.023 Y70.208 E13.09399
G1 X113.53 Y70.33 E13.12001
G1 X114.724 Y70.644 E13.1816
G1 X116.174 Y71.087 E13.25724
G1 X117.647 Y71.608 E13.33519
G1 X119.166 Y72.227 E13.41703
G1 X120.881 Y73.027 E13.51144
G1 X121.889 Y73.537 E13.5678
G1 X123.189 Y74.275 E13.64238
G1 X124.432 Y75.046 E13.71535
G1 X124.906 Y75.36 E13.74372
G1 X125.707 Y75.912 E13.79225
G1 X126.967 Y76.853 E13.87071
G1 X127.38 Y77.181 E13.89702
G1 X128.226 Y77.881 E13.9518
G1 X129.478 Y79.005 E14.03574
G1 X130.579 Y80.083 E14.11262
G1 X131.515 Y81.087 E14.1811
G1 X131.891 Y81.512 E14.20941
G1 X132.526 Y82.258 E14.25829
G1 X132.854 Y82.664 E14.28433
G1 X133.504 Y83.498 E14.33708
G1 X133.814 Y83.917 E14.36308
G1 X134.522 Y84.917 E14.42421
G1 X135.328 Y86.156 E14.49795
G1 X136.052 Y87.374 E14.56864
G1 X136.296 Y87.815 E14.59379
G1 X136.921 Y89.008 E14.66098
G1 X137.723 Y90.727 E14.75562
G1 X138.113 Y91.642 E14.80524
G1 X138.649 Y93.056 E14.88068
G1 X139.145 Y94.561 E14.95974
G1 X139.554 Y96.007 E15.03471
G1 X139.685 Y96.529 E15.06156
G1 X139.976 Y97.821 E15.12763
G1 X140.211 Y99.086 E15.19183
G1 X140.293 Y99.598 E15.21769
G1 X140.455 Y100.782 E15.27731
G1 X140.611 Y102.406 E15.35871
G1 X140.684 Y103.794 E15.42805
G1 X140.703 Y105.372 E15.50679
G1 X140.659 Y106.795 E15.57781
G1 X140.626 Y107.349 E15.6055
G1 X140.528 Y108.555 E15.66587
G1 X140.362 Y109.934 E15.73516
G1 X140.285 Y110.455 E15.76144
G1 X140.084 Y111.652 E15.82199
G1 X139.792 Y113.023 E15.89193
G1 X139.67 Y113.53 E15.91794
G1 X139.418 Y114.5 E15.96794
G1 X139.279 Y114.987 E15.99321
G1 X138.916 Y116.165 E16.05471
G1 X138.404 Y117.616 E16.13147
G1 X137.83 Y119.043 E16.20821
G1 X136.973 Y120.881 E16.30938
G1 X136.449 Y121.917 E16.36731
G1 X135.573 Y123.443 E16.45509
G1 X134.953 Y124.433 E16.51337
G1 X134.64 Y124.906 E16.54167
G1 X134.088 Y125.707 E16.5902
G1 X133.786 Y126.122 E16.6158
G1 X133.146 Y126.969 E16.66877
G1 X132.819 Y127.38 E16.69497
G1 X132.182 Y128.151 E16.74487
G1 X131.831 Y128.556 E16.7716
G1 X131.165 Y129.295 E16.82124
G1 X130.79 Y129.692 E16.84848
G1 X129.883 Y130.612 E16.91294
G1 X128.78 Y131.635 E16.98799
G1 X127.751 Y132.518 E17.05564
G1 X127.314 Y132.871 E17.08366
G1 X126.348 Y133.62 E17.14465
G1 X125.083 Y134.522 E17.22216
G1 X123.844 Y135.328 E17.2959
G1 X122.626 Y136.052 E17.36659
G1 X122.185 Y136.296 E17.39174
G1 X120.992 Y136.921 E17.45893
G1 X119.273 Y137.723 E17.55357
G1 X118.358 Y138.113 E17.60319
G1 X116.944 Y138.649 E17.67863
G1 X115.439 Y139.145 E17.75769
G1 X113.993 Y139.554 E17.83266
G1 X113.43 Y139.695 E17.86162
G1 X112.179 Y139.976 E17.92558
G1 X110.914 Y140.211 E17.98977
G1 X110.402 Y140.293 E18.01564
G1 X109.218 Y140.455 E18.07526
G1 X107.844 Y140.591 E18.14415
G1 X107.298 Y140.629 E18.17145
G1 X106.206 Y140.684 E18.226
G1 X104.628 Y140.703 E18.30474
G1 X103.204 Y140.659 E18.37581
G1 X102.651 Y140.626 E18.40345
G1 X101.445 Y140.528 E18.46382
G1 X100.066 Y140.362 E18.53311
G1 X99.545 Y140.285 E18.55939
G1 X98.348 Y140.084 E18.61994
G1 X96.977 Y139.792 E18.68988
G1 X96.47 Y139.67 E18.71589
G1 X95.276 Y139.356 E18.77749
G1 X93.972 Y138.96 E18.84548
G1 X92.353 Y138.392 E18.93108
G1 X90.834 Y137.773 E19.01291
G1 X89.119 Y136.973 E19.10732
G1 X88.111 Y136.463 E19.16368
G1 X86.811 Y135.725 E19.23826
G1 X85.568 Y134.954 E19.31124
G1 X85.094 Y134.64 E19.3396
G1 X84.293 Y134.088 E19.38814
G1 X83.033 Y133.147 E19.46659
G1 X82.62 Y132.819 E19.4929
G1 X81.774 Y132.119 E19.54769
G1 X80.519 Y130.992 E19.63184
G1 X79.423 Y129.92 E19.70833
G1 X78.485 Y128.913 E19.77698
G1 X78.109 Y128.488 E19.80529
G1 X77.334 Y127.578 E19.86493
G1 X76.384 Y126.353 E19.94227
G1 X75.478 Y125.083 E20.0201
G1 X74.672 Y123.844 E20.09384
G1 X73.948 Y122.626 E20.16453
G1 X73.704 Y122.185 E20.18968
G1 X73.079 Y120.992 E20.25687
G1 X72.277 Y119.273 E20.35151
G1 X71.887 Y118.358 E20.40113
G1 X71.351 Y116.944 E20.47657
G1 X70.855 Y115.439 E20.55563
G1 X70.446 Y113.993 E20.6306
G1 X70.305 Y113.43 E20.65956
G1 X70.036 Y112.257 E20.7196
G1 X69.788 Y110.912 E20.78783
G1 X69.707 Y110.402 E20.81359
G1 X69.545 Y109.218 E20.87321
G1 X69.392 Y107.671 E20.95077
G1 X69.316 Y106.206 E21.02396
G1 X69.297 Y104.737 E21.09725
G1 X69.306 Y104.161 E21.12599
G1 X69.341 Y103.201 E21.17392
G1 X69.374 Y102.651 E21.20141
G1 X69.472 Y101.445 E21.26177
G1 X69.638 Y100.066 E21.33107
G1 X69.715 Y99.545 E21.35734
G1 X69.883 Y98.542 E21.40808
G1 X70.208 Y96.977 E21.48782
G1 X70.33 Y96.47 E21.51384
G1 X70.644 Y95.276 E21.57544
G1 X71.04 Y93.972 E21.64343
G1 X71.608 Y92.353 E21.72902
G1 X72.227 Y90.834 E21.81086
G1 X73.027 Y89.119 E21.90527
G1 X73.537 Y88.111 E21.96163
G1 X74.275 Y86.811 E22.03621
G1 X75.048 Y85.565 E22.10937
G1 X75.36 Y85.094 E22.13755
G1 X75.912 Y84.293 E22.18608
G1 X76.853 Y83.033 E22.26454
G1 X77.181 Y82.62 E22.29085
G1 X77.818 Y81.849 E22.34075
G1 X78.169 Y81.444 E22.36749
G1 X78.835 Y80.705 E22.41712
G1 X79.21 Y80.308 E22.44436
G1 X80.118 Y79.387 E22.50889
M205 X10 Y10
G1 F1800 E16.50889
G1 F480 Z0.375
;MESH:scan v4 - tube.stl
G0 F6000 X80.118 Y79.387 Z0.375
G0 X80.492 Y112.741
M205 X8 Y8
;TYPE:WALL-OUTER
G1 F480 Z0.3
G1 F1800 E22.50889
G1 F1200 X80.846 Y113.785 E22.56389
G1 X81.221 Y114.768 E22.61638
G1 X81.713 Y115.881 E22.67709
G1 X82.2 Y116.865 E22.73186
G1 X82.736 Y117.844 E22.78755
G1 X83.316 Y118.804 E22.8435
G1 X83.941 Y119.736 E22.89949
G1 X84.619 Y120.655 E22.95646
G1 X85.303 Y121.517 E23.01136
G1 X86.045 Y122.361 E23.06743
G1 X86.819 Y123.171 E23.12332
G1 X87.629 Y123.945 E23.17922
G1 X88.476 Y124.687 E23.2354
G1 X89.346 Y125.388 E23.29114
G1 X90.249 Y126.05 E23.347
G1 X91.185 Y126.671 E23.40304
G1 X92.143 Y127.255 E23.45901
G1 X93.123 Y127.796 E23.51486
G1 X94.107 Y128.28 E23.56957
G1 X95.155 Y128.743 E23.62673
G1 X96.219 Y129.155 E23.68366
G1 X97.284 Y129.514 E23.73973
G1 X98.343 Y129.824 E23.79478
G1 X99.428 Y130.091 E23.85052
G1 X100.529 Y130.309 E23.90652
G1 X101.661 Y130.482 E23.96365
G1 X102.802 Y130.607 E24.02092
G1 X103.875 Y130.676 E24.07456
G1 X104.995 Y130.7 E24.13045
G1 X106.113 Y130.676 E24.18624
G1 X107.205 Y130.608 E24.24082
G1 X108.346 Y130.483 E24.29809
G1 X109.459 Y130.31 E24.35428
G1 X110.559 Y130.093 E24.41022
G1 X111.668 Y129.819 E24.46721
G1 X112.74 Y129.509 E24.52289
G1 X113.785 Y129.154 E24.57795
G1 X114.768 Y128.775 E24.63051
G1 X115.881 Y128.283 E24.69122
G1 X116.865 Y127.8 E24.74591
G1 X117.845 Y127.26 E24.80173
G1 X118.804 Y126.675 E24.85777
G1 X119.739 Y126.055 E24.91374
G1 X120.655 Y125.382 E24.97045
G1 X121.517 Y124.693 E25.02551
G1 X122.361 Y123.951 E25.08157
G1 X123.171 Y123.177 E25.13747
G1 X123.949 Y122.367 E25.1935
G1 X124.687 Y121.524 E25.2494
G1 X125.388 Y120.65 E25.30529
G1 X126.05 Y119.742 E25.36136
G1 X126.675 Y118.812 E25.41726
G1 X127.256 Y117.852 E25.47324
G1 X127.796 Y116.873 E25.52902
G1 X128.28 Y115.889 E25.58373
G1 X128.743 Y114.841 E25.64089
