;FLAVOR:Marlin
;TIME:13109
;Filament used: 15.3476m
;Layer height: 0.3
;MINX:0
;MINY:0
;MINZ:0.3
;MAXX:141.528
;MAXY:145.3
;MAXZ:47.475
;TARGET_MACHINE.NAME:Anycubic i3 Mega S/Pro
;Generated with Cura_SteamEngine 5.11.0
;Profil Homepage: https://github.com/NilsRo/Cura_Anycubic_MegaS_Profile

;Slicer Information - (Support for OctoPrint Slicer Estimator)
;Slicer info:material_guid;0ff92885-617b-4144-a03c-9989872454bc
;Slicer info:material_id;generic_pla_175
;Slicer info:material_brand;Generic
;Slicer info:material_name;PLA
;Slicer info:filament_cost;[0.0];Slicer info:material_bed_temperature;60
;Slicer info:material_bed_temperature_layer_0;60
;Slicer info:material_print_temperature;200
;Slicer info:material_print_temperature_layer_0;205
;Slicer info:material_flow;100
;Slicer info:layer_height;0.3
;Slicer info:machine_nozzle_size;0.4
;Slicer info:wall_thickness;0.6
;Slicer info:speed_print;50.0
;Slicer info:speed_topbottom;25.0
;Slicer info:travel_speed;100.0
;Slicer info:support;0
;Slicer info:retraction_speed;30
;Slicer info:retraction_amount;6
;Slicer info:layer_height;0.3
;Slicer info:infill_pattern;grid
;Slicer info:infill_sparse_density;20
;Slicer info:cool_fan_enabled;True
;Slicer info:cool_fan_speed;100
;Slicer info:sliced_at;Thu 05-02-2026 16:34:17
G21                                        ; metric values 
G90                                        ; absolute positioning 
M82                                        ; set extruder to absolute mode 
M900 K0                                    ; disable lin. adv. if not set in GCODE
M107                                       ; start with the fan off 
M140 S60   ; Start heating the bed 
G4 S60                                     ; wait 1 minute 
M104 S205 ; start heating the hot end 
M190 S60   ; wait for bed 
M109 S205 ; wait for hotend 
M300 S1000 P500                            ; BEEP heating done 
G28 X0 Y10 Z0                              ; move X/Y to min endstops 
M420 S1                                    ; Enable leveling 
M420 Z2.0                                  ; Set leveling fading height to 2 mm 
G0 Z0.15                                   ; lift nozzle a bit 
G92 E0                                     ; zero the extruded length 
G1 X50 E20 F500                            ; Extrude 20mm of filament in a 5cm line. 
G92 E0                                     ; zero the extruded length again 
G1 E-2 F500                                ; Retract a little 
G1 X50 F500                                ; wipe away from the filament line
G1 X100 F9000                              ; Quickly wipe away from the filament line
M82 ;absolute extrusion mode
G92 E0
G92 E0
G1 F1800 E-6
;LAYER_COUNT:158
;LAYER:0
M106 S76.5
M205 X10 Y10
G1 F480 Z0.375
G0 F6000 X0.00 Y0.00 Z0.375
G0 X83.508 Y71.835
M205 X8 Y8
;TYPE:SKIRT
G1 F480 Z0.3
G1 F1800 E0
G1 F1200 X83.924 Y71.744 E0.02125
G1 X84.117 Y71.802 E0.0313
G1 X84.264 Y71.777 E0.03874
G1 X84.28 Y71.795 E0.03994
G1 X84.389 Y71.856 E0.04617
G1 X84.421 Y71.849 E0.04781
G1 X84.671 Y72.154 E0.06748
G1 X84.727 Y72.201 E0.07113
G1 X85.803 Y72.812 E0.13286
G1 X85.891 Y72.835 E0.1374
G1 X86.025 Y73.038 E0.14953
G1 X86.044 Y73.264 E0.16085
G1 X86.093 Y73.38 E0.16713
G1 X86.018 Y73.513 E0.17475
G1 X85.99 Y73.595 E0.17907
G1 X85.865 Y74.793 E0.23917
G1 X85.865 Y74.832 E0.24111
G1 X85.976 Y76.058 E0.30253
G1 X86.009 Y76.151 E0.30745
G1 X86.06 Y76.227 E0.31202
G1 X85.98 Y76.345 E0.31913
G1 X85.946 Y76.465 E0.32535
G1 X85.973 Y76.529 E0.32882
G1 X84.606 Y77.55 E0.41394
G1 X84.567 Y77.589 E0.41669
G1 X84.429 Y77.77 E0.42805
G1 X84.405 Y77.763 E0.42929
G1 X84.298 Y77.8 E0.43494
G1 X84.223 Y77.854 E0.43955
G1 X84.105 Y77.836 E0.44551
G1 X83.909 Y77.885 E0.45559
G1 X83.509 Y77.692 E0.47774
G1 X83.508 Y71.835 E0.76995
M205 X10 Y10
G0 F6000 X83.908 Y72.157
M205 X8 Y8
G1 F1200 X84.002 Y72.185 E0.77485
G1 X84.186 Y72.205 E0.78408
G1 X84.198 Y72.208 E0.7847
G1 X84.362 Y72.408 E0.7976
G1 X84.53 Y72.549 E0.80854
G1 X85.606 Y73.16 E0.87027
G1 X85.631 Y73.167 E0.87157
G1 X85.635 Y73.172 E0.87189
G1 X85.645 Y73.297 E0.87815
G1 X85.66 Y73.352 E0.88099
G1 X85.592 Y73.554 E0.89162
G1 X85.467 Y74.752 E0.95172
G1 X85.466 Y74.868 E0.9575
G1 X85.577 Y76.094 E1.01892
G1 X85.615 Y76.2 E1.02454
G1 X85.562 Y76.321 E1.03113
G1 X85.561 Y76.337 E1.03193
G1 X84.367 Y77.229 E1.10628
G1 X84.249 Y77.347 E1.11461
G1 X84.189 Y77.426 E1.11956
G1 X84.144 Y77.444 E1.12198
G1 X84.009 Y77.448 E1.12872
G1 X83.953 Y77.462 E1.13159
G1 X83.908 Y77.44 E1.13409
G1 X83.908 Y72.157 E1.39766
M205 X10 Y10
G0 F6000 X84.308 Y72.877
M205 X8 Y8
G1 F1200 X84.332 Y72.897 E1.39922
G1 X85.215 Y73.398 E1.44987
G1 X85.194 Y73.512 E1.45566
G1 X85.069 Y74.71 E1.51575
G1 X85.068 Y74.904 E1.52543
G1 X85.178 Y76.124 E1.58654
G1 X84.308 Y76.775 E1.64075
G1 X84.308 Y72.877 E1.83522
M205 X10 Y10
G0 F6000 X84.708 Y73.569
M205 X8 Y8
G1 F1200 X84.782 Y73.612 E1.83949
G1 X84.708 Y74.324 E1.87521
G1 X84.708 Y73.569 E1.91287
M205 X10 Y10
G1 F1800 E-4.08713
G1 F480 Z0.375
G0 F6000 X84.708 Y73.569 Z0.375
G0 X84.708 Y75.36
M205 X8 Y8
G1 F480 Z0.3
G1 F1800 E1.91287
G1 F1200 X84.76 Y75.936 E1.94173
G1 X84.708 Y75.975 E1.94497
G1 X84.708 Y75.36 E1.97565
M205 X10 Y10
G1 F1800 E-4.02435
G1 F480 Z0.375
G0 F6000 X84.708 Y75.36 Z0.375
G0 X105.428 Y74.531
M205 X8 Y8
G1 F480 Z0.3
G1 F1800 E1.97565
G1 F1200 X105.428 Y69.469 E2.2282
G1 X106.028 Y69.469 E2.25813
G1 X106.028 Y74.531 E2.51067
G1 X105.428 Y74.531 E2.54061
M205 X10 Y10
G1 F1800 E-3.45939
G1 F480 Z0.375
G0 F6000 X105.428 Y74.531 Z0.375
G0 X123.933 Y73.099
M205 X8 Y8
G1 F480 Z0.3
G1 F1800 E2.54061
G1 F1200 X124.216 Y72.791 E2.56148
G1 X124.817 Y72.434 E2.59635
G1 X124.842 Y72.417 E2.59786
G1 X125.481 Y71.892 E2.63912
G1 X125.514 Y71.857 E2.64152
G1 X125.594 Y71.751 E2.64814
G1 X125.687 Y71.777 E2.65296
G1 X125.806 Y71.73 E2.65935
G1 X125.856 Y71.688 E2.6626
G1 X125.988 Y71.715 E2.66933
G1 X126.203 Y71.679 E2.6802
G1 X126.523 Y71.877 E2.69898
G1 X126.528 Y71.881 E2.69929
G1 X126.528 Y77.722 E2.9907
G1 X126.475 Y77.748 E2.99365
G1 X126.468 Y77.752 E2.99405
G1 X126.186 Y77.906 E3.01008
G1 X125.993 Y77.878 E3.01981
G1 X125.859 Y77.917 E3.02677
G1 X125.818 Y77.887 E3.02931
G1 X125.699 Y77.848 E3.03556
G1 X125.686 Y77.853 E3.03625
G1 X125.202 Y77.383 E3.06991
G1 X125.174 Y77.359 E3.07175
G1 X124.281 Y76.767 E3.1252
G1 X124.163 Y76.751 E3.13114
G1 X124.004 Y76.547 E3.14405
G1 X123.94 Y76.191 E3.16209
G1 X124.157 Y75.284 E3.20862
G1 X124.162 Y75.236 E3.21103
G1 X124.151 Y74.26 E3.25972
G1 X124.147 Y74.225 E3.26148
G1 X123.933 Y73.099 E3.31866
M205 X10 Y10
G0 F6000 X124.363 Y73.223
M205 X8 Y8
G1 F1200 X124.473 Y73.103 E3.32678
G1 X125.021 Y72.778 E3.35857
G1 X125.096 Y72.726 E3.36312
G1 X125.735 Y72.201 E3.40438
G1 X125.764 Y72.171 E3.40646
G1 X125.948 Y72.108 E3.41617
G1 X126.055 Y72.11 E3.42151
G1 X126.121 Y72.099 E3.42485
G1 X126.128 Y72.103 E3.42525
G1 X126.128 Y77.482 E3.69361
G1 X126.112 Y77.491 E3.69452
G1 X126.051 Y77.482 E3.6976
G1 X125.897 Y77.488 E3.70529
G1 X125.871 Y77.475 E3.70674
G1 X125.481 Y77.096 E3.73387
G1 X125.395 Y77.026 E3.7394
G1 X124.502 Y76.434 E3.79285
G1 X124.384 Y76.383 E3.79927
G1 X124.349 Y76.201 E3.80851
G1 X124.546 Y75.377 E3.85078
G1 X124.562 Y75.231 E3.85811
G1 X124.551 Y74.255 E3.90681
G1 X124.54 Y74.15 E3.91207
G1 X124.363 Y73.223 E3.95916
M205 X10 Y10
G0 F6000 X124.8 Y73.374
M205 X8 Y8
G1 F1200 X125.225 Y73.122 E3.98381
G1 X125.35 Y73.035 E3.9914
G1 X125.728 Y72.724 E4.01583
G1 X125.728 Y76.783 E4.21833
G1 X125.616 Y76.693 E4.2255
G1 X124.776 Y76.136 E4.27578
G1 X124.935 Y75.47 E4.30994
G1 X124.962 Y75.227 E4.32214
G1 X124.951 Y74.251 E4.37084
G1 X124.933 Y74.075 E4.37966
G1 X124.8 Y73.374 E4.41526
M205 X10 Y10
G0 F6000 X125.245 Y73.576
M205 X8 Y8
G1 F1200 X125.328 Y73.527 E4.42007
G1 X125.328 Y74.02 E4.44466
G1 X125.326 Y74 E4.44567
G1 X125.245 Y73.576 E4.4672
M205 X10 Y10
G1 F1800 E-1.5328
G1 F480 Z0.375
G0 F6000 X125.245 Y73.576 Z0.375
G0 X125.328 Y75.527
M205 X8 Y8
G1 F480 Z0.3
G1 F1800 E4.4672
G1 F1200 X125.328 Y76.022 E4.4919
G1 X125.23 Y75.957 E4.49777
G1 X125.324 Y75.563 E4.51797
G1 X125.328 Y75.527 E4.51978
M205 X10 Y10
G1 F1800 E-1.48022
G1 F480 Z0.375
G0 F6000 X125.328 Y75.527 Z0.375
G0 X106.028 Y102.469
M205 X8 Y8
G1 F480 Z0.3
G1 F1800 E4.51978
G1 F1200 X106.028 Y104.302 E4.61123
G1 X106.042 Y104.344 E4.61344
G1 X106.039 Y105.677 E4.67994
G1 X106.028 Y105.699 E4.68117
G1 X106.028 Y107.531 E4.77257
G1 X105.428 Y107.531 E4.8025
G1 X105.428 Y102.469 E5.05505
G1 X106.028 Y102.469 E5.08498
M205 X10 Y10
G0 F6000 X104.608 Y102.469
M205 X8 Y8
G1 F1200 X104.608 Y107.531 E5.33753
G1 X104.008 Y107.531 E5.36746
G1 X104.008 Y105.698 E5.45891
G1 X103.994 Y105.656 E5.46112
G1 X103.997 Y104.323 E5.52762
G1 X104.008 Y104.301 E5.52885
G1 X104.008 Y102.469 E5.62025
G1 X104.608 Y102.469 E5.65018
M205 X10 Y10
G1 F1800 E-0.34982
G1 F480 Z0.375
G0 F6000 X104.608 Y102.469 Z0.375
G0 X104.608 Y135.469
M205 X8 Y8
G1 F480 Z0.3
G1 F1800 E5.65018
G1 F1200 X104.608 Y140.531 E5.90273
G1 X104.008 Y140.531 E5.93266
G1 X104.008 Y135.469 E6.1852
G1 X104.608 Y135.469 E6.21514
M205 X10 Y10
G1 F1800 E0.21514
G1 F480 Z0.375
G0 F6000 X104.608 Y135.469 Z0.375
G0 X86.091 Y136.659
M205 X8 Y8
G1 F480 Z0.3
G1 F1800 E6.21514
G1 F1200 X86.018 Y136.773 E6.22189
G1 X85.986 Y136.894 E6.22814
G1 X86.019 Y136.974 E6.23245
G1 X85.102 Y137.56 E6.28675
G1 X85.082 Y137.575 E6.28799
G1 X84.56 Y138.007 E6.3218
G1 X84.526 Y138.043 E6.32427
G1 X84.436 Y138.167 E6.33191
G1 X84.412 Y138.161 E6.33315
G1 X84.297 Y138.208 E6.33934
G1 X84.225 Y138.27 E6.34408
G1 X84.1 Y138.24 E6.3505
G1 X83.899 Y138.283 E6.36075
G1 X83.508 Y138.141 E6.38151
G1 X83.508 Y132.277 E6.67406
G1 X83.982 Y132.125 E6.6989
G1 X84.224 Y132.12 E6.71097
G1 X85.162 Y132.858 E6.77052
G1 X85.19 Y132.876 E6.77218
G1 X85.915 Y133.272 E6.81339
G1 X86.025 Y133.438 E6.82333
G1 X86.046 Y133.678 E6.83535
G1 X86.085 Y133.781 E6.84084
G1 X86.088 Y133.786 E6.84113
G1 X86.009 Y133.914 E6.84864
G1 X85.98 Y134.003 E6.85331
G1 X85.901 Y134.974 E6.90191
G1 X85.9 Y135.003 E6.90336
G1 X85.947 Y135.723 E6.93936
G1 X85.948 Y135.734 E6.93991
G1 X86.046 Y136.552 E6.98101
G1 X86.076 Y136.635 E6.98541
G1 X86.091 Y136.659 E6.98682
M205 X10 Y10
G0 F6000 X85.656 Y136.619
M205 X8 Y8
G1 F1200 X85.598 Y136.76 E6.99443
G1 X85.598 Y136.769 E6.99488
G1 X84.887 Y137.223 E7.03697
G1 X84.827 Y137.267 E7.04068
G1 X84.305 Y137.699 E7.07448
G1 X84.203 Y137.808 E7.08193
G1 X84.183 Y137.836 E7.08365
G1 X84.141 Y137.855 E7.08595
G1 X84.016 Y137.849 E7.09219
G1 X83.928 Y137.868 E7.09668
G1 X83.908 Y137.86 E7.09776
G1 X83.908 Y132.569 E7.36173
G1 X84.05 Y132.523 E7.36917
G1 X84.088 Y132.523 E7.37107
G1 X84.915 Y133.173 E7.42355
G1 X84.998 Y133.227 E7.42849
G1 X85.635 Y133.576 E7.46472
G1 X85.647 Y133.712 E7.47153
G1 X85.656 Y133.743 E7.47315
G1 X85.581 Y133.97 E7.48507
G1 X85.502 Y134.941 E7.53368
G1 X85.501 Y135.029 E7.53807
G1 X85.548 Y135.749 E7.57406
G1 X85.551 Y135.781 E7.57567
G1 X85.649 Y136.599 E7.61677
G1 X85.656 Y136.619 E7.61783
M205 X10 Y10
G0 F6000 X85.237 Y136.525
M205 X8 Y8
G1 F1200 X84.672 Y136.886 E7.65128
G1 X84.572 Y136.959 E7.65745
G1 X84.308 Y137.177 E7.67454
G1 X84.308 Y133.204 E7.87275
G1 X84.668 Y133.487 E7.89559
G1 X84.806 Y133.578 E7.90384
G1 X85.208 Y133.798 E7.9267
G1 X85.182 Y133.938 E7.93381
G1 X85.103 Y134.909 E7.98241
G1 X85.102 Y135.055 E7.9897
G1 X85.149 Y135.775 E8.02569
G1 X85.154 Y135.829 E8.0284
G1 X85.237 Y136.525 E8.06337
M205 X10 Y10
G0 F6000 X84.81 Y136.323
M205 X8 Y8
G1 F1200 X84.708 Y136.388 E8.0694
G1 X84.708 Y135.158 E8.13077
G1 X84.75 Y135.801 E8.16292
G1 X84.757 Y135.877 E8.16672
G1 X84.81 Y136.323 E8.18913
M205 X10 Y10
G0 F6000 X84.708 Y134.839
M205 X8 Y8
G1 F1200 X84.708 Y133.98 E8.23199
G1 X84.775 Y134.017 E8.2358
G1 X84.708 Y134.839 E8.27695
M205 X10 Y10
G1 F1800 E2.27695
G1 F480 Z0.375
G0 F6000 X84.708 Y134.839 Z0.375
G0 X123.861 Y133.446
M205 X8 Y8
G1 F480 Z0.3
G1 F1800 E8.27695
G1 F1200 X124.934 Y132.752 E8.3407
G1 X124.953 Y132.738 E8.34188
G1 X125.486 Y132.296 E8.37643
G1 X125.52 Y132.26 E8.3789
G1 X125.608 Y132.139 E8.38636
G1 X125.663 Y132.155 E8.38922
G1 X125.76 Y132.126 E8.39427
G1 X125.834 Y132.081 E8.39859
G1 X125.943 Y132.107 E8.40418
G1 X126.22 Y132.088 E8.41803
G1 X126.528 Y132.255 E8.43551
G1 X126.528 Y138.12 E8.72812
G1 X126.497 Y138.148 E8.7302
G1 X126.179 Y138.313 E8.74808
G1 X125.938 Y138.303 E8.76011
G1 X125.798 Y138.352 E8.76751
G1 X125.792 Y138.357 E8.7679
G1 X125.161 Y137.747 E8.81169
G1 X125.128 Y137.721 E8.81378
G1 X124.114 Y137.088 E8.87342
G1 X124.004 Y136.947 E8.88234
G1 X123.939 Y136.585 E8.90069
G1 X124.107 Y135.667 E8.94725
G1 X124.11 Y135.627 E8.94925
G1 X124.09 Y134.673 E8.99686
G1 X124.087 Y134.642 E8.99841
G1 X123.929 Y133.765 E9.04287
G1 X123.9 Y133.712 E9.04588
G1 X123.861 Y133.446 E9.0593
M205 X10 Y10
G0 F6000 X124.301 Y133.638
M205 X8 Y8
G1 F1200 X125.151 Y133.088 E9.10981
G1 X125.208 Y133.046 E9.11334
G1 X125.741 Y132.604 E9.14788
G1 X125.82 Y132.519 E9.15367
G1 X125.874 Y132.501 E9.15651
G1 X125.97 Y132.506 E9.16131
G1 X126.128 Y132.495 E9.16921
G1 X126.128 Y137.889 E9.43832
G1 X126.09 Y137.909 E9.44046
G1 X125.954 Y137.903 E9.44725
G1 X125.906 Y137.91 E9.44967
G1 X125.439 Y137.459 E9.48206
G1 X125.34 Y137.382 E9.48832
G1 X124.385 Y136.786 E9.54448
G1 X124.381 Y136.78 E9.54484
G1 X124.346 Y136.583 E9.55482
G1 X124.5 Y135.739 E9.59763
G1 X124.51 Y135.618 E9.60368
G1 X124.49 Y134.664 E9.65129
G1 X124.48 Y134.571 E9.65596
G1 X124.322 Y133.694 E9.70041
G1 X124.301 Y133.638 E9.7034
M205 X10 Y10
G0 F6000 X124.752 Y133.823
M205 X8 Y8
G1 F1200 X125.368 Y133.424 E9.74001
G1 X125.463 Y133.354 E9.7459
G1 X125.728 Y133.134 E9.76308
G1 X125.728 Y137.183 E9.96509
G1 X125.717 Y137.172 E9.96587
G1 X125.552 Y137.043 E9.97631
G1 X124.759 Y136.548 E10.02295
G1 X124.894 Y135.811 E10.06033
G1 X124.91 Y135.61 E10.07039
G1 X124.89 Y134.656 E10.118
G1 X124.874 Y134.5 E10.12582
G1 X124.752 Y133.823 E10.16014
M205 X10 Y10
G0 F6000 X125.193 Y134.013
M205 X8 Y8
G1 F1200 X125.328 Y133.925 E10.16818
G1 X125.328 Y136.432 E10.29326
G1 X125.201 Y136.352 E10.30075
G1 X125.287 Y135.882 E10.32458
G1 X125.31 Y135.602 E10.3386
G1 X125.29 Y134.648 E10.38621
G1 X125.268 Y134.429 E10.39719
G1 X125.193 Y134.013 E10.41827
M205 X10 Y10
G1 F1800 E4.41827
G1 F480 Z0.375
;MESH:scan v6 - base x2 for neewerRGB61.stl
G0 F6000 X125.193 Y134.013 Z0.375
G0 X97.346 Y80.974
M205 X8 Y8
;TYPE:WALL-OUTER
G1 F480 Z0.3
G1 F1800 E10.41827
G1 F1200 X98.168 Y80.754 E10.46073
G1 X98.584 Y80.368 E10.48904
G1 X98.69 Y79.836 E10.5161
G1 X95.906 Y69.348 E11.05747
G1 X95.554 Y68.896 E11.08605
G1 X95.184 Y68.752 E11.10586
G1 X94.313 Y68.75 E11.14932
G1 X93.778 Y69.067 E11.18034
G1 X93.604 Y69.677 E11.21199
G1 X96.472 Y80.458 E11.76856
G1 X96.805 Y80.837 E11.79373
G1 X97.346 Y80.974 E11.82157
M205 X10 Y10
G0 F6000 X97.539 Y80.923
G1 F1800 E5.82157
G1 F480 Z0.375
G0 F6000 X97.539 Y80.923 Z0.375
G0 X86.466 Y80.24
M205 X8 Y8
G1 F480 Z0.3
G1 F1800 E11.82157
G1 F1200 X87.304 Y80.24 E11.86338
G1 X88.028 Y80.192 E11.89958
G1 X88.908 Y79.996 E11.94456
G1 X89.799 Y79.633 E11.99256
G1 X90.379 Y79.289 E12.0262
G1 X91.124 Y78.675 E12.07437
G1 X91.712 Y77.991 E12.11937
G1 X92.3 Y77.015 E12.17622
G1 X92.66 Y75.863 E12.23643
G1 X92.744 Y74.913 E12.28401
G1 X92.67 Y73.752 E12.34205
G1 X92.311 Y72.611 E12.40173
G1 X91.732 Y71.636 E12.4583
G1 X91.092 Y70.893 E12.50723
G1 X90.244 Y70.193 E12.56208
G1 X89.348 Y69.756 E12.61182
G1 X88.484 Y69.488 E12.65695
G1 X87.546 Y69.365 E12.70415
G1 X82.033 Y69.363 E12.97919
G1 X81.868 Y69.519 E12.99052
G1 X81.869 Y80.064 E13.51661
G1 X82.033 Y80.238 E13.52854
G1 X86.466 Y80.24 E13.74971
M205 X10 Y10
G0 F6000 X86.666 Y80.24
G1 F1800 E7.74971
G1 F480 Z0.375
G0 F6000 X86.666 Y80.24 Z0.375
G0 X86.058 Y143.652
M205 X8 Y8
G1 F480 Z0.3
G1 F1800 E13.74971
G1 F1200 X70.764 Y143.652 E14.51273
G1 X70.407 Y143.504 E14.53201
G1 X70.249 Y143.329 E14.54377
G1 X70.152 Y143.039 E14.55903
G1 X70.153 Y128.497 E15.28453
G1 X70.188 Y127.782 E15.32024
G1 X70.278 Y127.079 E15.3556
G1 X70.477 Y126.197 E15.40071
G1 X70.777 Y125.373 E15.44446
G1 X71.16 Y124.557 E15.48943
G1 X71.633 Y123.819 E15.53317
