;FLAVOR:Marlin
;TIME:2120
;Filament used: 1.58979m
;Layer height: 0.2
;MINX:0
;MINY:0
;MINZ:0.3
;MAXX:158.7
;MAXY:151.084
;MAXZ:2.975
;TARGET_MACHINE.NAME:Anycubic i3 Mega S/Pro
;Generated with Cura_SteamEngine 5.11.0
;Profil Homepage: https://github.com/NilsRo/Cura_Anycubic_MegaS_Profile

;Slicer Information - (Support for OctoPrint Slicer Estimator)
;Slicer info:material_guid;0ff92885-617b-4144-a03c-9989872454bc
;Slicer info:material_id;generic_pla_175
;Slicer info:material_brand;Generic
;Slicer info:material_name;PLA
;Slicer info:filament_cost;[0.0];Slicer info:material_bed_temperature;60
;Slicer info:material_bed_temperature_layer_0;60
;Slicer info:material_print_temperature;200
;Slicer info:material_print_temperature_layer_0;205
;Slicer info:material_flow;100
;Slicer info:layer_height;0.2
;Slicer info:machine_nozzle_size;0.4
;Slicer info:wall_thickness;1.2000000000000002
;Slicer info:speed_print;50.0
;Slicer info:speed_topbottom;25.0
;Slicer info:travel_speed;100.0
;Slicer info:support;0
;Slicer info:retraction_speed;30
;Slicer info:retraction_amount;6
;Slicer info:layer_height;0.2
;Slicer info:infill_pattern;grid
;Slicer info:infill_sparse_density;25
;Slicer info:cool_fan_enabled;True
;Slicer info:cool_fan_speed;100
;Slicer info:sliced_at;Fri 02-01-2026 20:57:31
G21                                        ; metric values 
G90                                        ; absolute positioning 
M82                                        ; set extruder to absolute mode 
M900 K0                                    ; disable lin. adv. if not set in GCODE
M107                                       ; start with the fan off 
M140 S60   ; Start heating the bed 
G4 S60                                     ; wait 1 minute 
M104 S205 ; start heating the hot end 
M190 S60   ; wait for bed 
M109 S205 ; wait for hotend 
M300 S1000 P500                            ; BEEP heating done 
G28 X0 Y10 Z0                              ; move X/Y to min endstops 
M420 S1                                    ; Enable leveling 
M420 Z2.0                                  ; Set leveling fading height to 2 mm 
G0 Z0.15                                   ; lift nozzle a bit 
G92 E0                                     ; zero the extruded length 
G1 X50 E20 F500                            ; Extrude 20mm of filament in a 5cm line. 
G92 E0                                     ; zero the extruded length again 
G1 E-2 F500                                ; Retract a little 
G1 X50 F500                                ; wipe away from the filament line
G1 X100 F9000                              ; Quickly wipe away from the filament line
M82 ;absolute extrusion mode
G92 E0
G92 E0
G1 F1800 E-6
;LAYER_COUNT:14
;LAYER:0
M106 S76.5
M205 X10 Y10
G1 F480 Z0.375
G0 F6000 X0.00 Y0.00 Z0.375
G0 X53.335 Y60.215
M205 X8 Y8
;TYPE:SKIRT
G1 F480 Z0.3
G1 F1800 E0
G1 F1200 X53.939 Y59.779 E0.03716
G1 X54.548 Y59.448 E0.07175
G1 X55.147 Y59.21 E0.1039
G1 X55.875 Y59.022 E0.14141
G1 X56.82 Y58.918 E0.18884
G1 X106.187 Y58.916 E2.65177
G1 X106.967 Y58.928 E2.69069
G1 X107.66 Y58.984 E2.72538
G1 X108.432 Y59.145 E2.76472
G1 X109.561 Y59.531 E2.82425
G1 X137.147 Y69.57 E4.28882
G1 X139.708 Y70.461 E4.4241
G1 X142.241 Y71.263 E4.55666
G1 X144.82 Y72 E4.69048
G1 X147.393 Y72.658 E4.82297
G1 X150.019 Y73.249 E4.95726
G1 X152.631 Y73.761 E5.09006
G1 X154.114 Y74.023 E5.16519
G1 X154.814 Y74.201 E5.20122
G1 X155.415 Y74.435 E5.2334
G1 X156.069 Y74.788 E5.27048
G1 X156.632 Y75.193 E5.30508
G1 X157.142 Y75.665 E5.33975
G1 X157.59 Y76.196 E5.37441
G1 X157.943 Y76.735 E5.40655
G1 X158.251 Y77.357 E5.44118
G1 X158.48 Y78.013 E5.47584
G1 X158.626 Y78.69 E5.5104
G1 X158.699 Y79.492 E5.55057
G1 X158.7 Y81.842 E5.66782
G1 X158.688 Y82.635 E5.70738
G1 X158.632 Y83.403 E5.7458
G1 X158.292 Y84.988 E5.82668
G1 X158.275 Y85.101 E5.83238
G1 X157.904 Y86.857 E5.92192
G1 X157.431 Y89.462 E6.05401
G1 X157.033 Y92.071 E6.18568
G1 X156.702 Y94.751 E6.3204
G1 X156.445 Y97.445 E6.45541
G1 X156.272 Y100.056 E6.58596
G1 X156.168 Y102.733 E6.71962
G1 X156.142 Y105.43 E6.85418
G1 X156.19 Y108.08 E6.98641
G1 X156.314 Y110.741 E7.11931
G1 X156.514 Y113.404 E7.25254
G1 X156.788 Y116.058 E7.38566
G1 X157.135 Y118.688 E7.518
G1 X157.561 Y121.332 E7.65161
G1 X158.064 Y123.983 E7.78623
G1 X158.58 Y126.353 E7.90724
G1 X158.688 Y127.309 E7.95524
G1 X158.7 Y127.853 E7.98239
G1 X158.7 Y129.821 E8.08057
G1 X158.689 Y130.57 E8.11794
G1 X158.643 Y131.188 E8.14886
G1 X158.512 Y131.87 E8.18351
G1 X158.297 Y132.53 E8.21814
G1 X158.026 Y133.115 E8.2503
G1 X157.632 Y133.746 E8.28742
G1 X157.192 Y134.283 E8.32205
G1 X156.689 Y134.761 E8.35667
G1 X156.131 Y135.173 E8.39128
G1 X155.525 Y135.514 E8.42597
G1 X154.929 Y135.76 E8.45814
G1 X154.164 Y135.967 E8.49768
G1 X153.4 Y136.101 E8.53637
G1 X150.779 Y136.592 E8.66941
G1 X148.15 Y137.162 E8.80362
G1 X145.603 Y137.79 E8.93449
G1 X142.999 Y138.51 E9.06928
G1 X140.45 Y139.295 E9.20235
G1 X137.124 Y140.438 E9.37781
G1 X109.394 Y150.53 E10.85003
G1 X108.726 Y150.761 E10.8853
G1 X108.056 Y150.946 E10.91997
G1 X107.329 Y151.054 E10.95664
G1 X105.936 Y151.083 E11.02616
G1 X57.602 Y151.084 E13.43755
G1 X56.806 Y151.072 E13.47727
G1 X56.163 Y151.023 E13.50944
G1 X55.433 Y150.875 E13.5466
G1 X54.777 Y150.651 E13.58118
G1 X54.196 Y150.372 E13.61334
G1 X53.57 Y149.969 E13.65048
G1 X53.04 Y149.521 E13.6851
G1 X52.6 Y149.049 E13.7173
G1 X52.191 Y148.489 E13.75189
G1 X51.833 Y147.837 E13.789
G1 X51.595 Y147.238 E13.82116
G1 X51.407 Y146.51 E13.85867
G1 X51.302 Y145.558 E13.90645
G1 X51.301 Y140.127 E14.17741
G1 X51.312 Y139.41 E14.21318
G1 X51.349 Y138.857 E14.24083
G1 X51.506 Y137.993 E14.28464
G1 X52.509 Y135.138 E14.43562
G1 X53.331 Y132.575 E14.5699
G1 X54.07 Y130.029 E14.70216
G1 X54.748 Y127.416 E14.83684
G1 X55.339 Y124.837 E14.96884
G1 X55.866 Y122.206 E15.10271
G1 X56.313 Y119.59 E15.23512
G1 X56.691 Y116.918 E15.36975
G1 X56.986 Y114.308 E15.50079
G1 X57.215 Y111.607 E15.63603
G1 X57.362 Y108.964 E15.76809
G1 X57.437 Y106.285 E15.9018
G1 X57.435 Y103.62 E16.03476
G1 X57.358 Y100.926 E16.16922
G1 X57.207 Y98.305 E16.3002
G1 X56.977 Y95.609 E16.43519
G1 X56.679 Y93.002 E16.5661
G1 X56.298 Y90.337 E16.70041
G1 X55.842 Y87.685 E16.83466
G1 X55.318 Y85.084 E16.96703
G1 X54.714 Y82.47 E17.10088
G1 X54.041 Y79.882 E17.23429
G1 X53.302 Y77.349 E17.36593
G1 X52.467 Y74.76 E17.50165
G1 X51.584 Y72.229 E17.63539
G1 X51.391 Y71.439 E17.67596
G1 X51.3 Y70.522 E17.72193
G1 X51.301 Y65.133 E17.99079
G1 X51.312 Y64.42 E18.02637
G1 X51.361 Y63.777 E18.05854
G1 X51.509 Y63.047 E18.0957
G1 X51.715 Y62.436 E18.12787
G1 X52.038 Y61.766 E18.16498
G1 X52.416 Y61.184 E18.1996
G1 X52.864 Y60.654 E18.23422
G1 X53.335 Y60.215 E18.26634
M205 X10 Y10
G0 F6000 X53.608 Y60.508
M205 X8 Y8
G1 F1200 X54.131 Y60.13 E18.29854
G1 X54.696 Y59.82 E18.33069
G1 X55.295 Y59.582 E18.36285
G1 X55.919 Y59.42 E18.39501
G1 X56.864 Y59.316 E18.44244
G1 X106.181 Y59.316 E20.90288
G1 X106.937 Y59.327 E20.9406
G1 X107.58 Y59.376 E20.97277
G1 X108.303 Y59.524 E21.00959
G1 X109.424 Y59.907 E21.06869
G1 X137.01 Y69.946 E22.53326
G1 X139.577 Y70.839 E22.66886
G1 X142.131 Y71.648 E22.80252
G1 X144.721 Y72.388 E22.9369
G1 X147.294 Y73.046 E23.0694
G1 X149.942 Y73.642 E23.20482
G1 X152.554 Y74.154 E23.33761
G1 X154.044 Y74.417 E23.41309
G1 X154.669 Y74.574 E23.44524
G1 X155.27 Y74.808 E23.47742
G1 X155.837 Y75.114 E23.50957
G1 X156.362 Y75.488 E23.54172
G1 X156.837 Y75.924 E23.57389
G1 X157.255 Y76.415 E23.60606
G1 X157.608 Y76.954 E23.63821
G1 X157.892 Y77.533 E23.67038
G1 X158.102 Y78.143 E23.70257
G1 X158.235 Y78.773 E23.73469
G1 X158.299 Y79.492 E23.7707
G1 X158.3 Y81.836 E23.88765
G1 X158.289 Y82.608 E23.92617
G1 X158.241 Y83.319 E23.96172
G1 X157.898 Y84.917 E24.04326
G1 X157.884 Y85.018 E24.04835
G1 X157.51 Y86.786 E24.1385
G1 X157.038 Y89.391 E24.27058
G1 X156.636 Y92.022 E24.40337
G1 X156.305 Y94.702 E24.53809
G1 X156.047 Y97.407 E24.67366
G1 X155.872 Y100.04 E24.80531
G1 X155.768 Y102.717 E24.93896
G1 X155.742 Y105.426 E25.07412
G1 X155.79 Y108.099 E25.2075
G1 X155.915 Y110.771 E25.34095
G1 X156.116 Y113.445 E25.47473
G1 X156.391 Y116.11 E25.6084
G1 X156.74 Y118.752 E25.74135
G1 X157.168 Y121.407 E25.87552
G1 X157.673 Y124.068 E26.01065
G1 X158.189 Y126.438 E26.13166
G1 X158.288 Y127.318 E26.17584
G1 X158.3 Y127.862 E26.20299
G1 X158.3 Y129.815 E26.30042
G1 X158.29 Y130.542 E26.3367
G1 X158.25 Y131.114 E26.3653
G1 X158.131 Y131.748 E26.39749
G1 X157.934 Y132.362 E26.42966
G1 X157.663 Y132.947 E26.46182
G1 X157.321 Y133.494 E26.49401
G1 X156.915 Y133.994 E26.52614
G1 X156.45 Y134.44 E26.55828
G1 X155.933 Y134.825 E26.59044
G1 X155.372 Y135.144 E26.62264
G1 X154.776 Y135.39 E26.65481
G1 X154.095 Y135.573 E26.68999
G1 X153.331 Y135.707 E26.72869
G1 X150.694 Y136.201 E26.86254
G1 X148.065 Y136.771 E26.99674
G1 X145.496 Y137.405 E27.12876
G1 X142.892 Y138.125 E27.26355
G1 X140.332 Y138.913 E27.39718
G1 X136.987 Y140.062 E27.57363
G1 X109.263 Y150.152 E29.04554
G1 X108.618 Y150.376 E29.07961
G1 X107.997 Y150.55 E29.11178
G1 X107.27 Y150.658 E29.14845
G1 X105.936 Y150.683 E29.21502
G1 X57.608 Y150.684 E31.62611
G1 X56.836 Y150.673 E31.66463
G1 X56.193 Y150.624 E31.6968
G1 X55.561 Y150.496 E31.72897
G1 X54.95 Y150.29 E31.76114
G1 X54.369 Y150.011 E31.7933
G1 X53.827 Y149.662 E31.82546
G1 X53.333 Y149.248 E31.85761
G1 X52.893 Y148.776 E31.88981
G1 X52.515 Y148.254 E31.92196
G1 X52.205 Y147.689 E31.95411
G1 X51.967 Y147.09 E31.98627
G1 X51.805 Y146.466 E32.01843
G1 X51.7 Y145.514 E32.06622
G1 X51.701 Y140.133 E32.33468
G1 X51.711 Y139.435 E32.3695
G1 X51.743 Y138.926 E32.39495
G1 X51.883 Y138.126 E32.43547
G1 X52.886 Y135.271 E32.58644
G1 X53.712 Y132.697 E32.7213
G1 X54.454 Y130.141 E32.85409
G1 X55.135 Y127.516 E32.98939
G1 X55.729 Y124.926 E33.12196
G1 X56.258 Y122.285 E33.25633
G1 X56.707 Y119.657 E33.38934
G1 X57.087 Y116.974 E33.52454
G1 X57.385 Y114.342 E33.65669
G1 X57.613 Y111.641 E33.79192
G1 X57.762 Y108.975 E33.92513
G1 X57.837 Y106.296 E34.05884
G1 X57.835 Y103.62 E34.19235
G1 X57.758 Y100.915 E34.32736
G1 X57.606 Y98.271 E34.45948
G1 X57.375 Y95.575 E34.59448
G1 X57.075 Y92.945 E34.72654
G1 X56.694 Y90.28 E34.86085
G1 X56.236 Y87.617 E34.99566
G1 X55.708 Y84.994 E35.12915
G1 X55.104 Y82.38 E35.263
G1 X54.428 Y79.781 E35.39697
G1 X53.683 Y77.226 E35.52975
G1 X52.848 Y74.637 E35.66547
G1 X51.962 Y72.097 E35.79968
G1 X51.78 Y71.345 E35.83828
G1 X51.7 Y70.522 E35.87953
G1 X51.701 Y65.139 E36.14809
G1 X51.711 Y64.45 E36.18247
G1 X51.76 Y63.807 E36.21464
G1 X51.888 Y63.175 E36.24681
G1 X52.094 Y62.564 E36.27898
G1 X52.374 Y61.983 E36.31116
G1 X52.723 Y61.441 E36.34332
G1 X53.137 Y60.947 E36.37548
G1 X53.608 Y60.508 E36.4076
M205 X10 Y10
G1 F1800 E30.4076
G1 F480 Z0.375
;MESH:Part Studio 4 - Part 1 (1).stl
G0 F6000 X53.608 Y60.508 Z0.375
G0 X77.5 Y123.4
M205 X8 Y8
;TYPE:WALL-INNER
G1 F480 Z0.3
G1 F1800 E36.4076
G1 F1200 X77.104 Y123.6 E36.42973
G1 X75.699 Y123.6 E36.49983
G1 X75.3 Y123.4 E36.52209
G1 X75.017 Y123.071 E36.54375
G1 X74.9 Y122.729 E36.56178
G1 X74.9 Y87.4 E38.32435
G1 X75.017 Y86.929 E38.34856
G1 X75.3 Y86.6 E38.37021
G1 X75.699 Y86.4 E38.39248
G1 X77.104 Y86.4 E38.46258
G1 X77.5 Y86.6 E38.48471
G1 X77.784 Y86.929 E38.50639
G1 X77.9 Y87.4 E38.53059
G1 X77.9 Y122.732 E40.29331
G1 X77.784 Y123.071 E40.31119
G1 X77.5 Y123.4 E40.33287
M205 X10 Y10
G0 F6000 X77.26 Y123.08
M205 X8 Y8
G1 F1200 X77.024 Y123.2 E40.34608
G1 X75.779 Y123.2 E40.40819
G1 X75.54 Y123.08 E40.42154
G1 X75.3 Y122.678 E40.44489
G1 X75.3 Y87.4 E42.20492
G1 X75.37 Y87.117 E42.21947
G1 X75.54 Y86.92 E42.23245
G1 X75.779 Y86.8 E42.24579
G1 X77.024 Y86.8 E42.3079
G1 X77.43 Y87.117 E42.3336
G1 X77.5 Y87.4 E42.34815
G1 X77.5 Y122.681 E44.10832
G1 X77.26 Y123.08 E44.13155
M205 X10 Y10
G1 F1800 E38.13155
G1 F480 Z0.375
G0 F6000 X77.26 Y123.08 Z0.375
G0 X79.429 Y143.355
M205 X8 Y8
G1 F480 Z0.3
G1 F1800 E44.13155
G1 F1200 X79.1 Y143.073 E44.15317
G1 X78.9 Y142.673 E44.17548
G1 X78.9 Y67.323 E47.93471
G1 X79.1 Y66.924 E47.95698
G1 X79.429 Y66.641 E47.97863
G1 X79.771 Y66.524 E47.99666
G1 X103.884 Y66.524 E49.19966
G1 X104.227 Y66.584 E49.21703
G1 X145.273 Y81.54 E51.39653
G1 X152.1 Y81.54 E51.73713
G1 X152.1 Y80.536 E51.78722
G1 X148.1 Y80.536 E51.98678
G1 X147.757 Y80.476 E52.00415
G1 X106.711 Y65.525 E54.18357
G1 X57.9 Y65.524 E56.61876
G1 X57.9 Y69.5 E56.81712
G1 X73.079 Y69.5 E57.5744
G1 X73.396 Y69.631 E57.59152
G1 X73.729 Y69.939 E57.61415
G1 X73.9 Y70.344 E57.63608
G1 X73.9 Y139.626 E61.09257
G1 X73.82 Y139.893 E61.10648
G1 X73.588 Y140.227 E61.12677
G1 X73.1 Y140.5 E61.15466
G1 X57.9 Y140.5 E61.913
G1 X57.9 Y144.476 E62.11136
G1 X106.711 Y144.472 E64.54655
G1 X147.757 Y129.524 E66.72591
G1 X148.099 Y129.464 E66.74323
G1 X152.1 Y129.461 E66.94284
G1 X152.1 Y128.456 E66.99298
G1 X145.273 Y128.456 E67.33358
G1 X104.062 Y143.472 E69.52184
G1 X79.9 Y143.472 E70.72729
G1 X79.429 Y143.355 E70.7515
M205 X10 Y10
G0 F6000 X79.617 Y143.002
M205 X8 Y8
G1 F1200 X79.42 Y142.833 E70.76445
G1 X79.3 Y142.593 E70.77784
G1 X79.3 Y67.403 E74.52908
G1 X79.42 Y67.164 E74.54242
G1 X79.822 Y66.924 E74.56578
G1 X103.991 Y66.924 E75.77158
G1 X145.202 Y81.94 E77.95983
G1 X152.5 Y81.94 E78.32393
G1 X152.5 Y80.136 E78.41394
G1 X147.993 Y80.136 E78.63879
G1 X106.782 Y65.125 E80.82696
G1 X57.5 Y65.124 E83.28565
G1 X57.5 Y69.9 E83.52393
G1 X73.008 Y69.9 E84.29762
G1 X73.397 Y70.163 E84.32105
G1 X73.5 Y70.406 E84.33422
G1 X73.5 Y139.578 E87.78522
G1 X73.313 Y139.936 E87.80537
G1 X73.021 Y140.1 E87.82208
G1 X57.5 Y140.1 E88.59643
G1 X57.5 Y144.876 E88.8347
G1 X106.782 Y144.872 E91.29339
G1 X147.993 Y129.864 E93.48151
G1 X152.5 Y129.86 E93.70637
G1 X152.5 Y128.056 E93.79637
G1 X145.202 Y128.056 E94.16047
G1 X103.991 Y143.072 E96.34872
G1 X79.9 Y143.072 E97.55063
G1 X79.617 Y143.002 E97.56517
M205 X10 Y10
G0 F6000 X79.823 Y142.672
M205 X8 Y8
;TYPE:WALL-OUTER
G1 F1200 X79.7 Y142.513 E97.5752
G1 X79.7 Y67.483 E101.31846
G1 X79.865 Y67.327 E101.32979
G1 X103.92 Y67.324 E102.5299
G1 X145.132 Y82.34 E104.71821
G1 X152.9 Y82.34 E105.10575
G1 X152.9 Y79.736 E105.23567
G1 X148.064 Y79.736 E105.47694
G1 X106.852 Y64.725 E107.66515
G1 X57.1 Y64.724 E110.14729
G1 X57.1 Y70.3 E110.42548
G1 X72.953 Y70.306 E111.21639
G1 X73.096 Y70.459 E111.22684
G1 X73.098 Y139.535 E114.67305
G1 X72.953 Y139.694 E114.68379
G1 X57.1 Y139.7 E115.4747
G1 X57.1 Y145.276 E115.75289
G1 X106.852 Y145.272 E118.23502
G1 X148.064 Y130.264 E120.42319
G1 X152.9 Y130.26 E120.66446
G1 X152.9 Y127.656 E120.79437
G1 X145.132 Y127.656 E121.18192
G1 X103.919 Y142.669 E123.37022
G1 X79.823 Y142.672 E124.57237
M205 X10 Y10
G0 F6000 X79.701 Y142.514
G1 F1800 E118.57237
G1 F480 Z0.375
G0 F6000 X79.701 Y142.514 Z0.375
G0 X77.098 Y122.635
M205 X8 Y8
G1 F480 Z0.3
G1 F1800 E124.57237
G1 F1200 X76.944 Y122.8 E124.58363
G1 X75.859 Y122.8 E124.63776
G1 X75.703 Y122.635 E124.64909
G1 X75.7 Y87.323 E126.41082
G1 X75.859 Y87.2 E126.42084
G1 X76.944 Y87.2 E126.47498
G1 X77.1 Y87.323 E126.48489
G1 X77.098 Y122.635 E128.24661
M205 X10 Y10
G0 F6000 X76.962 Y122.781
G1 F1800 E122.24661
G1 F480 Z0.375
G0 F6000 X76.962 Y122.781 Z0.375
G0 X79.693 Y66.026
M205 X8 Y8
;TYPE:SKIN
G1 F480 Z0.3
G1 F1800 E128.24661
G1 F744.2 X103.933 Y66.026 E130.19667
G1 F706.9 X104.347 Y66.06 E130.23185
M205 X10 Y10
G1 F1800 E124.23185
G1 F480 Z0.375
G0 F6000 X104.347 Y66.06 Z0.375
G0 X145.619 Y80.102
M205 X8 Y8
G1 F480 Z0.3
G1 F1800 E130.23185
G1 F1090.9 X146.635 Y80.547 E130.29272
G1 F923.1 X147.651 Y80.991 E130.36463
G1 F781.8 X147.566 Y81.026 E130.37167
G1 F770.5 X146.822 Y81.071 E130.42959
G1 F898.9 X146.079 Y81.115 E130.47916
G1 F1078.7 X145.335 Y81.16 E130.52053
G1 F1200 X106.363 Y66.955 E132.58998
G1 F1093.4 X105.344 Y66.512 E132.65082
G1 F926.6 X104.326 Y66.068 E132.72257
G1 F788.2 X104.413 Y66.034 E132.72967
G1 F776.7 X105.157 Y65.991 E132.78711
G1 F905.7 X105.9 Y65.947 E132.83631
G1 F1081.1 X106.644 Y65.904 E132.87758
G1 F1200 X145.619 Y80.102 E134.94706
M205 X10 Y10
G1 F1800 E128.94706
G1 F480 Z0.375
G0 F6000 X145.619 Y80.102 Z0.375
G0 X147.63 Y80.999
M205 X8 Y8
G1 F480 Z0.3
G1 F1800 E134.94706
G1 F700.7 X148.048 Y81.036 E134.98291
