;FLAVOR:Marlin
;TIME:2708
;Filament used: 1.56125m
;Layer height: 0.2
;MINX:0
;MINY:0
;MINZ:0.3
;MAXX:136.484
;MAXY:111.317
;MAXZ:13.975
;TARGET_MACHINE.NAME:Anycubic i3 Mega S/Pro
;Generated with Cura_SteamEngine 5.11.0
;Profil Homepage: https://github.com/NilsRo/Cura_Anycubic_MegaS_Profile

;Slicer Information - (Support for OctoPrint Slicer Estimator)
;Slicer info:material_guid;0ff92885-617b-4144-a03c-9989872454bc
;Slicer info:material_id;generic_pla_175
;Slicer info:material_brand;Generic
;Slicer info:material_name;PLA
;Slicer info:filament_cost;[0.0];Slicer info:material_bed_temperature;60
;Slicer info:material_bed_temperature_layer_0;60
;Slicer info:material_print_temperature;200
;Slicer info:material_print_temperature_layer_0;205
;Slicer info:material_flow;100
;Slicer info:layer_height;0.2
;Slicer info:machine_nozzle_size;0.4
;Slicer info:wall_thickness;1.2000000000000002
;Slicer info:speed_print;50.0
;Slicer info:speed_topbottom;25.0
;Slicer info:travel_speed;100.0
;Slicer info:support;0
;Slicer info:retraction_speed;30
;Slicer info:retraction_amount;6
;Slicer info:layer_height;0.2
;Slicer info:infill_pattern;grid
;Slicer info:infill_sparse_density;25
;Slicer info:cool_fan_enabled;True
;Slicer info:cool_fan_speed;100
;Slicer info:sliced_at;Mon 09-03-2026 06:37:22
G21                                        ; metric values 
G90                                        ; absolute positioning 
M82                                        ; set extruder to absolute mode 
M900 K0                                    ; disable lin. adv. if not set in GCODE
M107                                       ; start with the fan off 
M140 S60   ; Start heating the bed 
G4 S60                                     ; wait 1 minute 
M104 S205 ; start heating the hot end 
M190 S60   ; wait for bed 
M109 S205 ; wait for hotend 
M300 S1000 P500                            ; BEEP heating done 
G28 X0 Y10 Z0                              ; move X/Y to min endstops 
M420 S1                                    ; Enable leveling 
M420 Z2.0                                  ; Set leveling fading height to 2 mm 
G0 Z0.15                                   ; lift nozzle a bit 
G92 E0                                     ; zero the extruded length 
G1 X50 E20 F500                            ; Extrude 20mm of filament in a 5cm line. 
G92 E0                                     ; zero the extruded length again 
G1 E-2 F500                                ; Retract a little 
G1 X50 F500                                ; wipe away from the filament line
G1 X100 F9000                              ; Quickly wipe away from the filament line
M82 ;absolute extrusion mode
G92 E0
G92 E0
G1 F1800 E-6
;LAYER_COUNT:69
;LAYER:0
M106 S76.5
M205 X10 Y10
G1 F480 Z0.375
G0 F6000 X0.00 Y0.00 Z0.375
G0 X81.533 Y99.371
M205 X8 Y8
;TYPE:SKIRT
G1 F480 Z0.3
G1 F1800 E0
G1 F1200 X82.212 Y99.181 E0.03518
G1 X82.891 Y99.371 E0.07035
G1 X83.385 Y99.894 E0.10625
G1 X83.477 Y100.21 E0.12267
G1 X83.548 Y100.313 E0.12891
G1 X83.623 Y100.349 E0.13306
G1 X83.674 Y100.361 E0.13567
G1 X83.799 Y100.35 E0.14193
G1 X83.866 Y100.303 E0.14601
G1 X84.201 Y99.946 E0.17044
G1 X84.88 Y99.751 E0.20568
G1 X85.562 Y99.939 E0.24098
G1 X86.058 Y100.466 E0.27708
G1 X86.13 Y100.721 E0.2903
G1 X86.199 Y100.825 E0.29653
G1 X86.309 Y100.867 E0.3024
G1 X86.372 Y100.871 E0.30555
G1 X86.493 Y100.839 E0.3118
G1 X86.568 Y100.752 E0.31753
G1 X86.612 Y100.653 E0.32293
G1 X87.062 Y100.16 E0.35623
G1 X87.529 Y100.029 E0.38043
G1 X87.62 Y99.974 E0.38574
G1 X87.721 Y99.868 E0.39304
G1 X88.259 Y99.717 E0.42092
G1 X88.798 Y99.868 E0.44885
G1 X89.191 Y100.284 E0.4774
G1 X89.244 Y100.466 E0.48685
G1 X89.315 Y100.569 E0.4931
G1 X89.39 Y100.605 E0.49725
G1 X89.441 Y100.617 E0.49986
G1 X89.566 Y100.606 E0.50612
G1 X89.633 Y100.558 E0.51023
G1 X90.192 Y99.959 E0.55111
G1 X90.855 Y99.758 E0.58567
G1 X90.938 Y99.756 E0.58981
G1 X91.575 Y99.576 E0.62284
G1 X92.339 Y99.79 E0.66242
G1 X92.75 Y100.204 E0.69153
G1 X92.861 Y100.261 E0.69775
G1 X92.985 Y100.24 E0.70403
G1 X93.037 Y100.201 E0.70727
G1 X93.583 Y99.625 E0.74686
G1 X94.261 Y99.435 E0.78199
G1 X94.94 Y99.625 E0.81717
G1 X95.434 Y100.148 E0.85306
G1 X95.511 Y100.412 E0.86678
G1 X95.582 Y100.515 E0.87302
G1 X95.7 Y100.556 E0.87926
G1 X95.767 Y100.557 E0.8826
G1 X95.886 Y100.52 E0.88882
G1 X95.96 Y100.419 E0.89506
G1 X96.021 Y100.23 E0.90497
G1 X96.591 Y99.627 E0.94637
G1 X97.27 Y99.437 E0.98154
G1 X97.949 Y99.627 E1.01672
G1 X98.443 Y100.15 E1.05261
G1 X98.517 Y100.403 E1.06576
G1 X98.588 Y100.506 E1.07201
G1 X98.709 Y100.547 E1.07838
G1 X98.777 Y100.547 E1.08177
G1 X98.896 Y100.508 E1.08802
G1 X98.969 Y100.402 E1.09444
G1 X99.001 Y100.291 E1.1002
G1 X99.495 Y99.768 E1.1361
G1 X100.174 Y99.578 E1.17127
G1 X100.853 Y99.769 E1.20646
G1 X101.348 Y100.292 E1.24239
G1 X101.45 Y100.593 E1.25824
G1 X101.525 Y100.693 E1.26448
G1 X101.645 Y100.729 E1.27073
G1 X101.785 Y100.667 E1.27837
G1 X102.322 Y100.102 E1.31726
G1 X102.996 Y99.911 E1.35221
G1 X103.677 Y100.102 E1.3875
G1 X104.172 Y100.625 E1.42342
G1 X104.281 Y100.991 E1.44247
G1 X104.353 Y101.094 E1.44874
G1 X104.473 Y101.134 E1.45505
G1 X104.541 Y101.134 E1.45845
G1 X104.66 Y101.095 E1.46469
G1 X104.733 Y100.99 E1.47107
G1 X104.906 Y100.394 E1.50204
G1 X105.4 Y99.871 E1.53793
G1 X106.079 Y99.681 E1.57311
G1 X106.758 Y99.871 E1.60828
G1 X107.252 Y100.394 E1.64417
G1 X107.443 Y101.047 E1.67812
G1 X107.368 Y101.315 E1.692
G1 X107.371 Y101.432 E1.69784
G1 X107.417 Y101.57 E1.7051
G1 X107.492 Y101.67 E1.71133
G1 X107.661 Y101.7 E1.7199
G1 X107.925 Y101.626 E1.73358
G1 X108.029 Y101.556 E1.73983
G1 X108.063 Y101.377 E1.74892
G1 X107.894 Y100.801 E1.77887
G1 X108.085 Y100.149 E1.81276
G1 X108.579 Y99.626 E1.84866
G1 X109.258 Y99.436 E1.88383
G1 X109.937 Y99.626 E1.91901
G1 X110.431 Y100.149 E1.9549
G1 X110.483 Y100.328 E1.9642
G1 X110.553 Y100.431 E1.97041
G1 X110.669 Y100.472 E1.97655
G1 X110.736 Y100.474 E1.9799
G1 X110.856 Y100.438 E1.98615
G1 X110.932 Y100.335 E1.99253
G1 X110.936 Y100.322 E1.99321
G1 X111.512 Y99.712 E2.03507
G1 X112.191 Y99.522 E2.07024
G1 X112.87 Y99.712 E2.10542
G1 X113.364 Y100.235 E2.14131
G1 X113.437 Y100.485 E2.15431
G1 X113.508 Y100.588 E2.16055
G1 X113.626 Y100.629 E2.16678
G1 X113.693 Y100.63 E2.17012
G1 X113.812 Y100.593 E2.17634
G1 X113.886 Y100.492 E2.18259
G1 X113.946 Y100.306 E2.19234
G1 X114.522 Y99.697 E2.23416
G1 X115.201 Y99.507 E2.26933
G1 X115.88 Y99.697 E2.30451
G1 X116.374 Y100.22 E2.3404
G1 X116.463 Y100.527 E2.35635
G1 X116.533 Y100.63 E2.36256
G1 X116.655 Y100.671 E2.36898
G1 X116.722 Y100.671 E2.37233
G1 X116.841 Y100.632 E2.37857
G1 X116.913 Y100.532 E2.38472
G1 X117.009 Y100.232 E2.40044
G1 X117.571 Y99.637 E2.44127
G1 X118.25 Y99.447 E2.47645
G1 X118.928 Y99.637 E2.51158
G1 X119.363 Y100.096 E2.54313
G1 X119.473 Y100.155 E2.54935
G1 X119.562 Y100.15 E2.5538
G1 X120.279 Y99.948 E2.59096
G1 X120.96 Y100.138 E2.62624
G1 X121.232 Y100.426 E2.646
G1 X121.342 Y100.486 E2.65225
G1 X121.426 Y100.483 E2.65644
G1 X121.48 Y100.47 E2.65922
G1 X121.974 Y100.636 E2.68522
G1 X122.396 Y101.105 E2.71669
G1 X122.579 Y101.738 E2.74957
G1 X122.649 Y101.841 E2.75578
G1 X122.717 Y101.875 E2.75957
G1 X122.976 Y101.947 E2.77298
G1 X123.079 Y102.055 E2.78043
G1 X123.189 Y102.114 E2.78666
G1 X123.313 Y102.096 E2.79291
G1 X123.369 Y102.055 E2.79637
G1 X123.945 Y101.449 E2.83808
G1 X124.991 Y101.157 E2.89226
G1 X126.077 Y101.437 E2.94821
G1 X126.814 Y102.17 E3.00007
G1 X127.091 Y103.085 E3.04777
G1 X126.802 Y104.045 E3.09779
G1 X126.063 Y104.742 E3.14847
G1 X126.003 Y104.851 E3.15467
G1 X126.055 Y105.024 E3.16369
G1 X126.812 Y105.824 E3.21864
G1 X126.851 Y105.957 E3.22555
G1 X126.922 Y106.06 E3.23179
G1 X127.043 Y106.101 E3.23817
G1 X127.111 Y106.101 E3.24156
G1 X127.23 Y106.062 E3.24781
G1 X127.303 Y105.957 E3.25419
G1 X127.396 Y105.636 E3.27086
G1 X128.091 Y104.902 E3.32129
G1 X129.092 Y104.621 E3.37316
G1 X129.196 Y104.551 E3.37941
G1 X129.23 Y104.372 E3.3885
G1 X128.875 Y103.158 E3.45161
G1 X129.365 Y101.481 E3.53877
G1 X130.631 Y100.144 E3.63063
G1 X132.378 Y99.654 E3.72116
G1 X134.125 Y100.144 E3.81168
G1 X135.391 Y101.481 E3.90354
G1 X135.881 Y103.159 E3.99075
G1 X135.392 Y104.907 E4.08131
G1 X134.127 Y106.172 E4.17056
G1 X132.379 Y106.661 E4.26112
G1 X131.248 Y106.33 E4.31991
G1 X131.123 Y106.334 E4.32615
G1 X130.999 Y106.468 E4.33526
G1 X130.705 Y107.518 E4.38966
G1 X130.01 Y108.213 E4.43869
G1 X129.052 Y108.481 E4.48832
G1 X128.131 Y108.211 E4.5362
G1 X127.396 Y107.476 E4.58806
G1 X127.362 Y107.36 E4.59409
G1 X127.291 Y107.257 E4.60033
G1 X127.17 Y107.216 E4.60671
G1 X127.102 Y107.216 E4.6101
G1 X126.983 Y107.255 E4.61635
G1 X126.909 Y107.362 E4.62284
G1 X126.813 Y107.706 E4.64066
G1 X126.118 Y108.401 E4.68969
G1 X125.16 Y108.669 E4.73932
G1 X124.24 Y108.399 E4.78716
G1 X123.926 Y108.086 E4.80928
G1 X123.815 Y108.03 E4.81548
G1 X123.644 Y108.086 E4.82446
G1 X123.277 Y108.452 E4.85032
G1 X122.97 Y108.538 E4.86622
G1 X122.866 Y108.608 E4.87248
G1 X122.831 Y108.679 E4.87642
G1 X122.7 Y109.167 E4.90163
G1 X122.305 Y109.566 E4.92964
G1 X121.225 Y109.868 E4.98559
G1 X120.573 Y109.677 E5.01949
G1 X120.52 Y109.625 E5.02319
G1 X120.408 Y109.57 E5.02942
G1 X120.285 Y109.592 E5.03565
G1 X120.187 Y109.715 E5.0435
G1 X120.135 Y109.904 E5.05328
G1 X119.642 Y110.397 E5.08806
G1 X118.963 Y110.587 E5.12324
G1 X118.311 Y110.396 E5.15713
G1 X117.788 Y109.873 E5.19403
G1 X117.736 Y109.694 E5.20333
G1 X117.665 Y109.591 E5.20957
G1 X117.544 Y109.55 E5.21595
G1 X117.476 Y109.55 E5.21934
G1 X117.357 Y109.589 E5.22559
G1 X117.283 Y109.696 E5.23208
G1 X117.232 Y109.88 E5.2416
G1 X116.739 Y110.373 E5.27639
G1 X116.06 Y110.563 E5.31157
G1 X115.408 Y110.372 E5.34546
G1 X114.885 Y109.849 E5.38236
G1 X114.687 Y109.171 E5.4176
G1 X114.616 Y109.068 E5.42384
G1 X114.611 Y109.066 E5.42411
G1 X114.7 Y109.037 E5.42878
G1 X114.773 Y108.931 E5.4352
G1 X114.868 Y108.602 E5.45228
G1 X114.864 Y108.478 E5.45847
G1 X114.812 Y108.401 E5.46311
G1 X114.682 Y108.28 E5.47197
G1 X114.569 Y108.227 E5.4782
G1 X114.492 Y108.234 E5.48205
G1 X114.34 Y108.277 E5.48994
G1 X114.236 Y108.346 E5.49616
G1 X114.202 Y108.525 E5.50525
G1 X114.321 Y108.932 E5.52641
G1 X114.392 Y109.035 E5.53265
G1 X114.397 Y109.037 E5.53292
G1 X114.308 Y109.066 E5.53759
G1 X114.234 Y109.173 E5.54408
G1 X114.121 Y109.577 E5.56501
G1 X113.628 Y110.07 E5.59979
G1 X112.949 Y110.26 E5.63497
G1 X112.201 Y110.041 E5.67385
G1 X111.715 Y109.58 E5.70727
G1 X111.687 Y109.487 E5.71212
G1 X111.615 Y109.385 E5.71835
G1 X111.495 Y109.345 E5.72466
G1 X111.428 Y109.345 E5.728
G1 X111.309 Y109.384 E5.73425
G1 X111.235 Y109.491 E5.74074
G1 X111.121 Y109.899 E5.76187
G1 X110.628 Y110.392 E5.79666
G1 X109.949 Y110.582 E5.83183
G1 X109.297 Y110.391 E5.86573
G1 X108.774 Y109.868 E5.90263
G1 X108.688 Y109.575 E5.91786
G1 X108.617 Y109.472 E5.9241
G1 X108.499 Y109.431 E5.93034
G1 X108.355 Y109.489 E5.93808
G1 X107.85 Y109.991 E5.97361
G1 X107.17 Y110.182 E6.00885
G1 X106.519 Y109.991 E6.04269
G1 X105.996 Y109.468 E6.07959
G1 X105.977 Y109.402 E6.08302
G1 X105.907 Y109.299 E6.08923
G1 X105.785 Y109.258 E6.09565
G1 X105.717 Y109.258 E6.09905
G1 X105.598 Y109.297 E6.10529
G1 X105.524 Y109.404 E6.11178
G1 X105.44 Y109.706 E6.12742
G1 X104.947 Y110.199 E6.16221
G1 X104.268 Y110.389 E6.19738
G1 X103.616 Y110.198 E6.23128
G1 X103.092 Y109.674 E6.26825
G1 X103.026 Y109.447 E6.28004
G1 X102.955 Y109.344 E6.28629
G1 X102.834 Y109.303 E6.29266
G1 X102.766 Y109.303 E6.29605
G1 X102.647 Y109.342 E6.3023
G1 X102.573 Y109.45 E6.30883
G1 X102.538 Y109.578 E6.31545
G1 X102.045 Y110.071 E6.35024
G1 X101.366 Y110.261 E6.38541
G1 X100.714 Y110.07 E6.41931
G1 X100.191 Y109.547 E6.45621
G1 X100.054 Y109.08 E6.48049
G1 X99.983 Y108.977 E6.48673
G1 X99.862 Y108.936 E6.4931
G1 X99.794 Y108.936 E6.4965
G1 X99.675 Y108.975 E6.50274
G1 X99.601 Y109.082 E6.50923
G1 X99.442 Y109.651 E6.53871
G1 X98.95 Y110.143 E6.57342
G1 X98.271 Y110.333 E6.6086
G1 X97.619 Y110.142 E6.64249
G1 X97.096 Y109.619 E6.6794
G1 X96.945 Y109.103 E6.70622
G1 X96.874 Y109 E6.71246
G1 X96.753 Y108.959 E6.71883
G1 X96.685 Y108.959 E6.72223
G1 X96.566 Y108.998 E6.72847
G1 X96.492 Y109.105 E6.73496
G1 X96.355 Y109.597 E6.76044
G1 X95.862 Y110.09 E6.79523
G1 X95.181 Y110.281 E6.83051
G1 X94.476 Y110.077 E6.86713
G1 X93.938 Y109.55 E6.9047
G1 X93.924 Y109.505 E6.90705
G1 X93.852 Y109.403 E6.91328
G1 X93.733 Y109.364 E6.91953
G1 X93.666 Y109.364 E6.92287
G1 X93.547 Y109.403 E6.92912
G1 X93.473 Y109.51 E6.93561
G1 X93.412 Y109.729 E6.94695
G1 X92.92 Y110.221 E6.98167
G1 X92.241 Y110.411 E7.01684
G1 X91.589 Y110.22 E7.05074
G1 X91.066 Y109.697 E7.08764
G1 X90.875 Y109.044 E7.12158
G1 X90.982 Y108.639 E7.14248
G1 X90.982 Y108.536 E7.14762
G1 X90.935 Y108.362 E7.15661
G1 X90.866 Y108.257 E7.16288
G1 X90.688 Y108.222 E7.17193
G1 X90.366 Y108.313 E7.18862
G1 X90.262 Y108.382 E7.19485
G1 X90.227 Y108.557 E7.20375
G1 X90.38 Y109.126 E7.23315
G1 X90.167 Y109.829 E7.2698
G1 X89.592 Y110.399 E7.31019
G1 X88.912 Y110.59 E7.34543
G1 X88.261 Y110.399 E7.37928
G1 X87.738 Y109.876 E7.41618
G1 X87.529 Y109.165 E7.45315
G1 X87.458 Y109.062 E7.45939
G1 X87.343 Y109.021 E7.46548
G1 X87.277 Y109.019 E7.46878
G1 X87.157 Y109.054 E7.47501
G1 X87.082 Y109.154 E7.48125
G1 X86.973 Y109.469 E7.49788
G1 X86.496 Y109.914 E7.53042
G1 X85.653 Y110.14 E7.57397
G1 X85.001 Y109.95 E7.60785
G1 X84.667 Y109.619 E7.63131
G1 X84.555 Y109.563 E7.63756
G1 X84.432 Y109.584 E7.64378
G1 X84.333 Y109.707 E7.65166
G1 X84.266 Y109.95 E7.66423
G1 X83.774 Y110.441 E7.69891
G1 X83.095 Y110.631 E7.73409
G1 X82.443 Y110.44 E7.76798
G1 X81.92 Y109.917 E7.80488
G1 X81.86 Y109.71 E7.81564
G1 X81.79 Y109.607 E7.82185
G1 X81.672 Y109.566 E7.82808
G1 X81.527 Y109.625 E7.83589
G1 X80.996 Y110.156 E7.87336
G1 X80.248 Y110.365 E7.9121
G1 X79.529 Y110.154 E7.94949
G1 X78.952 Y109.577 E7.9902
G1 X78.742 Y108.861 E8.02742
G1 X78.952 Y108.144 E8.0647
G1 X79.168 Y107.915 E8.0804
G1 X79.214 Y107.834 E8.08505
G1 X79.351 Y107.365 E8.10943
G1 X79.845 Y106.842 E8.14532
G1 X79.899 Y106.802 E8.14867
G1 X79.936 Y106.681 E8.15498
G1 X79.934 Y106.615 E8.15828
G1 X79.891 Y106.498 E8.1645
G1 X79.814 Y106.445 E8.16916
G1 X79.438 Y106.069 E8.19569
G1 X79.306 Y105.62 E8.21904
G1 X79.437 Y105.171 E8.24237
G1 X79.692 Y104.902 E8.26087
G1 X79.745 Y104.789 E8.26709
G1 X79.695 Y104.63 E8.27541
G1 X79.528 Y104.445 E8.28784
G1 X79.31 Y103.693 E8.3269
G1 X79.26 Y103.608 E8.33182
G1 X78.954 Y103.301 E8.35345
G1 X78.743 Y102.585 E8.39069
G1 X78.954 Y101.866 E8.42807
G1 X79.499 Y101.289 E8.46767
G1 X80.246 Y101.079 E8.50638
G1 X80.672 Y101.201 E8.52849
G1 X80.797 Y101.197 E8.53473
G1 X80.868 Y101.15 E8.53898
G1 X80.906 Y101.112 E8.54166
G1 X80.963 Y101.001 E8.54789
G1 X80.957 Y100.915 E8.55219
G1 X80.848 Y100.546 E8.57138
G1 X81.039 Y99.894 E8.60528
G1 X81.533 Y99.371 E8.64117
M205 X10 Y10
G0 F6000 X81.748 Y99.726
M205 X8 Y8
G1 F1200 X82.212 Y99.596 E8.66521
G1 X82.676 Y99.726 E8.68925
G1 X83.028 Y100.099 E8.71484
G1 X83.093 Y100.322 E8.72643
G1 X83.191 Y100.516 E8.73727
G1 X83.352 Y100.663 E8.74815
G1 X83.532 Y100.738 E8.75787
G1 X83.583 Y100.75 E8.76049
G1 X83.8 Y100.761 E8.77133
G1 X84.008 Y100.692 E8.78226
G1 X84.157 Y100.577 E8.79165
G1 X84.416 Y100.302 E8.8105
G1 X84.885 Y100.166 E8.83486
G1 X85.347 Y100.294 E8.85878
G1 X85.699 Y100.668 E8.8844
G1 X85.745 Y100.83 E8.8928
G1 X85.841 Y101.026 E8.90369
G1 X86.001 Y101.174 E8.91457
G1 X86.284 Y101.266 E8.92941
G1 X86.347 Y101.27 E8.93256
G1 X86.564 Y101.244 E8.94347
G1 X86.757 Y101.142 E8.95436
G1 X86.933 Y100.915 E8.96869
G1 X86.951 Y100.875 E8.97088
G1 X87.28 Y100.515 E8.99521
G1 X87.638 Y100.414 E9.01376
G1 X87.91 Y100.25 E9.02961
G1 X87.935 Y100.223 E9.03145
G1 X88.259 Y100.132 E9.04824
G1 X88.583 Y100.223 E9.06503
G1 X88.834 Y100.489 E9.08327
G1 X88.86 Y100.578 E9.0879
G1 X88.958 Y100.772 E9.09874
G1 X89.119 Y100.919 E9.10962
G1 X89.299 Y100.994 E9.11935
G1 X89.35 Y101.006 E9.12196
G1 X89.567 Y101.017 E9.1328
G1 X89.775 Y100.948 E9.14373
G1 X89.926 Y100.831 E9.15326
G1 X90.412 Y100.31 E9.18881
G1 X90.966 Y100.143 E9.21768
G1 X91.047 Y100.141 E9.22172
G1 X91.576 Y99.991 E9.24915
