;FLAVOR:Marlin
;TIME:7818
;Filament used: 6.5852m
;Layer height: 0.3
;MINX:0
;MINY:0
;MINZ:0.3
;MAXX:138.191
;MAXY:141.134
;MAXZ:50.7
;TARGET_MACHINE.NAME:Anycubic i3 Mega S/Pro
;Generated with Cura_SteamEngine 5.11.0
;Profil Homepage: https://github.com/NilsRo/Cura_Anycubic_MegaS_Profile

;Slicer Information - (Support for OctoPrint Slicer Estimator)
;Slicer info:material_guid;0ff92885-617b-4144-a03c-9989872454bc
;Slicer info:material_id;generic_pla_175
;Slicer info:material_brand;Generic
;Slicer info:material_name;PLA
;Slicer info:filament_cost;[0.0];Slicer info:material_bed_temperature;60
;Slicer info:material_bed_temperature_layer_0;60
;Slicer info:material_print_temperature;200
;Slicer info:material_print_temperature_layer_0;205
;Slicer info:material_flow;100
;Slicer info:layer_height;0.3
;Slicer info:machine_nozzle_size;0.4
;Slicer info:wall_thickness;0.6
;Slicer info:speed_print;50.0
;Slicer info:speed_topbottom;25.0
;Slicer info:travel_speed;100.0
;Slicer info:support;0
;Slicer info:retraction_speed;30
;Slicer info:retraction_amount;6
;Slicer info:layer_height;0.3
;Slicer info:infill_pattern;grid
;Slicer info:infill_sparse_density;10
;Slicer info:cool_fan_enabled;True
;Slicer info:cool_fan_speed;100
;Slicer info:sliced_at;Mon 09-03-2026 06:47:34
G21                                        ; metric values 
G90                                        ; absolute positioning 
M82                                        ; set extruder to absolute mode 
M900 K0                                    ; disable lin. adv. if not set in GCODE
M107                                       ; start with the fan off 
M140 S60   ; Start heating the bed 
G4 S60                                     ; wait 1 minute 
M104 S205 ; start heating the hot end 
M190 S60   ; wait for bed 
M109 S205 ; wait for hotend 
M300 S1000 P500                            ; BEEP heating done 
G28 X0 Y10 Z0                              ; move X/Y to min endstops 
M420 S1                                    ; Enable leveling 
M420 Z2.0                                  ; Set leveling fading height to 2 mm 
G0 Z0.15                                   ; lift nozzle a bit 
G92 E0                                     ; zero the extruded length 
G1 X50 E20 F500                            ; Extrude 20mm of filament in a 5cm line. 
G92 E0                                     ; zero the extruded length again 
G1 E-2 F500                                ; Retract a little 
G1 X50 F500                                ; wipe away from the filament line
G1 X100 F9000                              ; Quickly wipe away from the filament line
M82 ;absolute extrusion mode
G92 E0
G92 E0
G1 F1800 E-6
;LAYER_COUNT:169
;LAYER:0
M106 S76.5
M205 X10 Y10
G1 F480 Z0.375
G0 F6000 X0.00 Y0.00 Z0.375
G0 X80.789 Y76.635
M205 X8 Y8
;TYPE:SKIRT
G1 F480 Z0.3
G1 F1800 E0
G1 F1200 X82.98 Y76.021 E0.11352
G1 X85.171 Y76.635 E0.22704
G1 X86.757 Y78.31 E0.34212
G1 X87.371 Y80.414 E0.45147
G1 X86.758 Y82.606 E0.56503
G1 X85.174 Y84.19 E0.67679
G1 X83.551 Y84.644 E0.76087
G1 X83.447 Y84.714 E0.76712
G1 X83.413 Y84.893 E0.77621
G1 X84.031 Y87.011 E0.88628
G1 X83.398 Y89.269 E1.00328
G1 X83.404 Y89.394 E1.00952
G1 X83.446 Y89.46 E1.01343
G1 X83.91 Y89.952 E1.04717
G1 X84.16 Y90.807 E1.09161
G1 X83.911 Y91.697 E1.13772
G1 X83.267 Y92.341 E1.18315
G1 X82.377 Y92.59 E1.22926
G1 X81.524 Y92.34 E1.27361
G1 X80.842 Y91.658 E1.32173
G1 X80.766 Y91.397 E1.33529
G1 X80.695 Y91.294 E1.34153
G1 X80.52 Y91.26 E1.35042
G1 X79.496 Y91.546 E1.40347
G1 X77.321 Y90.91 E1.51652
G1 X75.593 Y89.182 E1.63844
G1 X74.957 Y87.009 E1.7514
G1 X75.592 Y84.836 E1.86435
G1 X77.23 Y83.106 E1.98321
G1 X79.019 Y82.605 E2.07589
G1 X79.123 Y82.535 E2.08215
G1 X79.157 Y82.356 E2.09124
G1 X78.589 Y80.413 E2.19223
G1 X79.203 Y78.31 E2.30153
G1 X80.789 Y76.635 E2.41661
M205 X10 Y10
G0 F6000 X81.004 Y76.99
M205 X8 Y8
G1 F1200 X82.98 Y76.436 E2.519
G1 X84.956 Y76.99 E2.62138
G1 X86.4 Y78.515 E2.72616
G1 X86.955 Y80.417 E2.82501
G1 X86.401 Y82.397 E2.92759
G1 X84.965 Y83.833 E3.0289
G1 X83.443 Y84.259 E3.10775
G1 X83.247 Y84.355 E3.11864
G1 X83.099 Y84.515 E3.12952
G1 X83.017 Y84.717 E3.14039
G1 X83.029 Y85.005 E3.15477
G1 X83.615 Y87.014 E3.25918
G1 X83.013 Y89.161 E3.37043
G1 X82.994 Y89.378 E3.38129
G1 X83.053 Y89.588 E3.39218
G1 X83.155 Y89.735 E3.4011
G1 X83.553 Y90.157 E3.43004
G1 X83.744 Y90.81 E3.46399
G1 X83.554 Y91.488 E3.49911
G1 X83.058 Y91.984 E3.53411
G1 X82.38 Y92.174 E3.56924
G1 X81.735 Y91.985 E3.60277
G1 X81.197 Y91.447 E3.64073
G1 X81.15 Y91.285 E3.64915
G1 X81.052 Y91.09 E3.66003
G1 X80.891 Y90.943 E3.67091
G1 X80.688 Y90.864 E3.68178
G1 X80.413 Y90.875 E3.69551
G1 X79.499 Y91.13 E3.74285
G1 X77.532 Y90.555 E3.84509
G1 X75.948 Y88.971 E3.95685
G1 X75.374 Y87.009 E4.05884
G1 X75.949 Y85.041 E4.16113
G1 X77.445 Y83.461 E4.26968
G1 X79.127 Y82.99 E4.35682
G1 X79.323 Y82.894 E4.36771
G1 X79.471 Y82.734 E4.37859
G1 X79.553 Y82.532 E4.38946
G1 X79.541 Y82.244 E4.40384
G1 X79.006 Y80.413 E4.49901
G1 X79.56 Y78.515 E4.59766
G1 X81.004 Y76.99 E4.70243
M205 X10 Y10
G0 F6000 X81.218 Y77.345
M205 X8 Y8
G1 F1200 X82.98 Y76.852 E4.79372
G1 X84.742 Y77.345 E4.885
G1 X86.043 Y78.72 E4.97944
G1 X86.539 Y80.42 E5.06779
G1 X86.045 Y82.187 E5.15932
G1 X84.756 Y83.476 E5.25027
G1 X83.335 Y83.874 E5.32389
G1 X83.077 Y83.988 E5.33796
G1 X82.861 Y84.169 E5.35202
G1 X82.704 Y84.403 E5.36608
G1 X82.619 Y84.672 E5.38016
G1 X82.612 Y84.954 E5.39423
G1 X82.645 Y85.117 E5.40253
G1 X83.199 Y87.016 E5.50122
G1 X82.628 Y89.053 E5.60676
G1 X82.591 Y89.333 E5.62085
G1 X82.634 Y89.612 E5.63494
G1 X82.752 Y89.868 E5.649
G1 X82.864 Y90.009 E5.65798
G1 X83.196 Y90.361 E5.68212
G1 X83.328 Y90.812 E5.70557
G1 X83.197 Y91.279 E5.72977
G1 X82.849 Y91.627 E5.75432
G1 X82.383 Y91.758 E5.77847
G1 X81.946 Y91.63 E5.80119
G1 X81.552 Y91.236 E5.82899
G1 X81.534 Y91.173 E5.83226
G1 X81.418 Y90.916 E5.84632
G1 X81.234 Y90.702 E5.8604
G1 X80.998 Y90.547 E5.87449
G1 X80.728 Y90.465 E5.88857
G1 X80.446 Y90.461 E5.90264
G1 X80.305 Y90.49 E5.90982
G1 X79.502 Y90.714 E5.95141
G1 X77.742 Y90.199 E6.0429
G1 X76.303 Y88.76 E6.14443
G1 X75.791 Y87.008 E6.23549
G1 X76.306 Y85.246 E6.32708
G1 X77.659 Y83.816 E6.42529
G1 X79.235 Y83.375 E6.50694
G1 X79.493 Y83.261 E6.52101
G1 X79.709 Y83.08 E6.53507
G1 X79.866 Y82.846 E6.54913
G1 X79.951 Y82.577 E6.5632
G1 X79.958 Y82.295 E6.57728
G1 X79.925 Y82.132 E6.58557
G1 X79.423 Y80.413 E6.67492
G1 X79.917 Y78.72 E6.7629
G1 X81.218 Y77.345 E6.85734
M205 X10 Y10
G0 F6000 X81.434 Y77.7
M205 X8 Y8
G1 F1200 X82.98 Y77.267 E6.93744
G1 X84.526 Y77.7 E7.01754
G1 X85.686 Y78.925 E7.10171
G1 X86.123 Y80.423 E7.17956
G1 X85.688 Y81.978 E7.26012
G1 X84.546 Y83.12 E7.34069
G1 X83.228 Y83.489 E7.40898
G1 X82.919 Y83.617 E7.42566
G1 X82.649 Y83.814 E7.44234
G1 X82.434 Y84.069 E7.45898
G1 X82.286 Y84.369 E7.47567
G1 X82.212 Y84.695 E7.49234
G1 X82.218 Y85.029 E7.50901
G1 X82.261 Y85.229 E7.51922
G1 X82.783 Y87.019 E7.61224
G1 X82.243 Y88.945 E7.71203
G1 X82.192 Y89.275 E7.72869
G1 X82.22 Y89.608 E7.74536
G1 X82.327 Y89.925 E7.76206
G1 X82.573 Y90.284 E7.78377
G1 X82.839 Y90.566 E7.80311
G1 X82.912 Y90.815 E7.81605
G1 X82.841 Y91.069 E7.82921
G1 X82.639 Y91.271 E7.84346
G1 X82.387 Y91.342 E7.85653
G1 X82.157 Y91.275 E7.86848
G1 X81.899 Y91.017 E7.88668
G1 X81.787 Y90.754 E7.90094
G1 X81.587 Y90.487 E7.91759
G1 X81.329 Y90.274 E7.93428
G1 X81.028 Y90.129 E7.95095
G1 X80.702 Y90.059 E7.96758
G1 X80.368 Y90.068 E7.98425
G1 X80.198 Y90.104 E7.99292
G1 X79.504 Y90.298 E8.02887
G1 X77.953 Y89.844 E8.1095
G1 X76.659 Y88.55 E8.2008
G1 X76.208 Y87.009 E8.2809
G1 X76.663 Y85.451 E8.36188
G1 X77.875 Y84.171 E8.44982
G1 X79.343 Y83.76 E8.52588
G1 X79.651 Y83.632 E8.54252
G1 X79.921 Y83.435 E8.55919
G1 X80.136 Y83.179 E8.57587
G1 X80.284 Y82.88 E8.59252
G1 X80.358 Y82.554 E8.60919
G1 X80.352 Y82.22 E8.62586
G1 X80.309 Y82.019 E8.63611
G1 X79.84 Y80.412 E8.71963
G1 X80.274 Y78.925 E8.79691
G1 X81.434 Y77.7 E8.88108
M205 X10 Y10
G0 F6000 X81.648 Y78.056
M205 X8 Y8
G1 F1200 X82.98 Y77.682 E8.95011
G1 X84.312 Y78.056 E9.01913
G1 X85.329 Y79.129 E9.09289
G1 X85.707 Y80.425 E9.16024
G1 X85.331 Y81.769 E9.22987
G1 X84.337 Y82.763 E9.3
G1 X83.12 Y83.104 E9.36305
G1 X82.768 Y83.244 E9.38195
G1 X82.453 Y83.454 E9.40084
G1 X82.189 Y83.726 E9.41975
G1 X81.988 Y84.047 E9.43865
G1 X81.858 Y84.403 E9.45755
G1 X81.806 Y84.779 E9.47649
G1 X81.877 Y85.341 E9.50475
G1 X82.367 Y87.021 E9.59206
G1 X81.858 Y88.837 E9.68615
G1 X81.794 Y89.211 E9.70508
G1 X81.811 Y89.589 E9.72396
G1 X81.906 Y89.956 E9.74287
G1 X82.076 Y90.295 E9.76179
G1 X82.282 Y90.558 E9.77846
G1 X82.482 Y90.77 E9.793
G1 X82.496 Y90.818 E9.7955
G1 X82.485 Y90.859 E9.79761
G1 X82.429 Y90.915 E9.80156
G1 X82.389 Y90.926 E9.80363
G1 X82.367 Y90.919 E9.80479
G1 X82.236 Y90.788 E9.81403
G1 X82.159 Y90.599 E9.82421
G1 X81.945 Y90.286 E9.84313
G1 X81.67 Y90.025 E9.86204
G1 X81.347 Y89.827 E9.88094
G1 X80.989 Y89.702 E9.89986
G1 X80.613 Y89.653 E9.91878
G1 X80.09 Y89.719 E9.94508
G1 X79.507 Y89.882 E9.97528
G1 X78.164 Y89.489 E10.04509
G1 X77.014 Y88.339 E10.12623
G1 X76.625 Y87.009 E10.19537
G1 X77.02 Y85.655 E10.26573
G1 X78.089 Y84.527 E10.34327
G1 X79.451 Y84.145 E10.41384
G1 X79.803 Y84.005 E10.43274
G1 X80.118 Y83.795 E10.45162
G1 X80.382 Y83.523 E10.47054
G1 X80.583 Y83.201 E10.48947
G1 X80.712 Y82.845 E10.50836
G1 X80.764 Y82.47 E10.52725
G1 X80.736 Y82.092 E10.54616
G1 X80.693 Y81.907 E10.55564
G1 X80.256 Y80.412 E10.63334
G1 X80.631 Y79.129 E10.70003
G1 X81.648 Y78.056 E10.77379
M205 X10 Y10
G0 F6000 X81.863 Y78.411
M205 X8 Y8
G1 F1200 X82.98 Y78.097 E10.83168
G1 X84.097 Y78.411 E10.88956
G1 X84.972 Y79.335 E10.95305
G1 X85.291 Y80.426 E11.00976
G1 X84.973 Y81.561 E11.06857
G1 X84.129 Y82.405 E11.12812
G1 X83.012 Y82.718 E11.18599
G1 X82.621 Y82.869 E11.2069
G1 X82.266 Y83.092 E11.22782
G1 X81.959 Y83.377 E11.24872
G1 X81.712 Y83.716 E11.26964
G1 X81.534 Y84.095 E11.29053
G1 X81.431 Y84.501 E11.31143
G1 X81.407 Y84.919 E11.33232
G1 X81.493 Y85.453 E11.3593
G1 X81.951 Y87.024 E11.44094
G1 X81.473 Y88.729 E11.52928
G1 X81.398 Y89.142 E11.55023
G1 X81.402 Y89.424 E11.5643
G1 X81.294 Y89.374 E11.57023
G1 X80.887 Y89.275 E11.59113
G1 X80.468 Y89.256 E11.61206
G1 X79.983 Y89.334 E11.63656
G1 X79.51 Y89.466 E11.66106
G1 X78.375 Y89.134 E11.72006
G1 X77.369 Y88.128 E11.79104
G1 X77.042 Y87.008 E11.84925
G1 X77.377 Y85.861 E11.90887
G1 X78.304 Y84.881 E11.97617
G1 X79.558 Y84.53 E12.04113
G1 X79.949 Y84.379 E12.06204
G1 X80.305 Y84.157 E12.08298
G1 X80.611 Y83.872 E12.10384
G1 X80.858 Y83.533 E12.12476
G1 X81.036 Y83.154 E12.14565
G1 X81.139 Y82.747 E12.1666
G1 X81.163 Y82.329 E12.18749
G1 X81.077 Y81.795 E12.21447
G1 X80.673 Y80.413 E12.28631
G1 X80.988 Y79.335 E12.34234
G1 X81.863 Y78.411 E12.40582
M205 X10 Y10
G0 F6000 X82.076 Y78.767
M205 X8 Y8
G1 F1200 X82.98 Y78.514 E12.45266
G1 X83.884 Y78.767 E12.49949
G1 X84.615 Y79.539 E12.55253
G1 X84.875 Y80.429 E12.59879
G1 X84.616 Y81.354 E12.64672
G1 X83.922 Y82.048 E12.69568
G1 X82.904 Y82.333 E12.74842
G1 X82.478 Y82.494 E12.77114
G1 X82.086 Y82.727 E12.79389
G1 X81.741 Y83.024 E12.81661
G1 X81.453 Y83.378 E12.83937
G1 X81.232 Y83.776 E12.86209
G1 X81.083 Y84.206 E12.88479
G1 X81.011 Y84.656 E12.90753
G1 X81.02 Y85.112 E12.93028
G1 X81.109 Y85.565 E12.95331
G1 X81.535 Y87.024 E13.02914
G1 X81.087 Y88.621 E13.11189
G1 X81.034 Y88.903 E13.12621
G1 X80.728 Y88.858 E13.14164
G1 X80.272 Y88.871 E13.1644
G1 X79.875 Y88.949 E13.18458
G1 X79.513 Y89.05 E13.20333
G1 X78.583 Y88.778 E13.25167
G1 X77.724 Y87.919 E13.31228
G1 X77.458 Y87.009 E13.35958
G1 X77.734 Y86.065 E13.40865
G1 X78.517 Y85.238 E13.46547
G1 X79.666 Y84.916 E13.525
G1 X80.093 Y84.755 E13.54777
G1 X80.484 Y84.522 E13.57047
G1 X80.829 Y84.224 E13.59322
G1 X81.117 Y83.871 E13.61595
G1 X81.339 Y83.473 E13.63868
G1 X81.487 Y83.042 E13.66142
G1 X81.559 Y82.592 E13.68415
G1 X81.55 Y82.137 E13.70686
G1 X81.461 Y81.683 E13.72994
G1 X81.09 Y80.413 E13.79595
G1 X81.345 Y79.539 E13.84137
G1 X82.076 Y78.767 E13.89441
M205 X10 Y10
G0 F6000 X82.29 Y79.123
M205 X8 Y8
G1 F1200 X82.98 Y78.929 E13.93017
G1 X83.67 Y79.123 E13.96593
G1 X84.258 Y79.743 E14.00856
G1 X84.459 Y80.432 E14.04437
G1 X84.26 Y81.144 E14.08125
G1 X83.713 Y81.691 E14.11985
G1 X82.796 Y81.948 E14.16736
G1 X82.337 Y82.118 E14.19178
G1 X81.96 Y82.333 E14.21343
G1 X81.921 Y81.897 E14.23527
G1 X81.845 Y81.571 E14.25197
G1 X81.507 Y80.413 E14.31215
G1 X81.702 Y79.743 E14.34697
G1 X82.29 Y79.123 E14.3896
M205 X10 Y10
G0 F6000 X82.505 Y79.477
M205 X8 Y8
G1 F1200 X82.98 Y79.344 E14.41421
G1 X83.455 Y79.477 E14.43882
G1 X83.901 Y79.949 E14.47121
G1 X84.043 Y80.434 E14.49643
G1 X83.903 Y80.935 E14.52238
G1 X83.503 Y81.335 E14.5506
G1 X82.689 Y81.563 E14.59277
G1 X82.276 Y81.713 E14.6147
G1 X82.229 Y81.459 E14.62758
G1 X81.923 Y80.413 E14.68196
G1 X82.059 Y79.948 E14.70613
G1 X82.505 Y79.477 E14.73849
M205 X10 Y10
G0 F6000 X82.719 Y79.832
M205 X8 Y8
G1 F1200 X82.98 Y79.759 E14.75201
G1 X83.241 Y79.832 E14.76553
G1 X83.544 Y80.153 E14.78755
G1 X83.627 Y80.435 E14.80222
G1 X83.545 Y80.727 E14.81735
G1 X83.293 Y80.979 E14.83513
G1 X82.581 Y81.178 E14.87201
G1 X82.566 Y81.184 E14.87282
G1 X82.34 Y80.412 E14.91295
G1 X82.416 Y80.153 E14.92642
G1 X82.719 Y79.832 E14.94844
M205 X10 Y10
G1 F1800 E8.94844
G1 F480 Z0.375
G0 F6000 X82.719 Y79.832 Z0.375
G0 X80.61 Y84.916
M205 X8 Y8
G1 F480 Z0.3
G1 F1800 E14.94844
G1 F1200 X80.649 Y85.351 E14.97023
G1 X80.725 Y85.677 E14.98693
G1 X81.119 Y87.027 E15.05709
G1 X80.715 Y88.466 E15.13166
G1 X80.516 Y88.454 E15.1416
G1 X80.029 Y88.503 E15.16602
G1 X79.768 Y88.563 E15.17938
G1 X79.513 Y88.634 E15.19259
G1 X78.795 Y88.424 E15.22991
G1 X78.079 Y87.708 E15.28043
G1 X77.874 Y87.01 E15.31672
G1 X78.091 Y86.269 E15.35525
G1 X78.731 Y85.593 E15.40169
G1 X79.774 Y85.301 E15.45572
G1 X80.233 Y85.131 E15.48014
G1 X80.61 Y84.916 E15.5018
M205 X10 Y10
G0 F6000 X80.294 Y85.535
M205 X8 Y8
G1 F1200 X80.341 Y85.789 E15.51468
G1 X80.703 Y87.029 E15.57913
G1 X80.412 Y88.065 E15.63282
G1 X80.257 Y88.068 E15.64055
G1 X79.66 Y88.178 E15.67084
G1 X79.516 Y88.218 E15.67829
G1 X79.006 Y88.069 E15.7048
G1 X78.434 Y87.497 E15.74516
G1 X78.291 Y87.01 E15.77048
G1 X78.448 Y86.474 E15.79835
G1 X78.946 Y85.948 E15.83448
G1 X79.882 Y85.686 E15.88298
G1 X80.294 Y85.535 E15.90487
M205 X10 Y10
G0 F6000 X80.005 Y86.066
M205 X8 Y8
G1 F1200 X80.287 Y87.032 E15.95507
G1 X80.102 Y87.691 E15.98922
G1 X79.954 Y87.704 E15.99663
G1 X79.553 Y87.793 E16.01713
G1 X79.519 Y87.802 E16.01888
G1 X79.217 Y87.714 E16.03457
G1 X78.789 Y87.286 E16.06477
G1 X78.708 Y87.008 E16.07922
G1 X78.804 Y86.68 E16.09627
G1 X79.16 Y86.303 E16.12214
G1 X79.99 Y86.071 E16.16513
G1 X80.005 Y86.066 E16.16592
M205 X10 Y10
G1 F1800 E10.16592
G1 F480 Z0.375
G0 F6000 X80.005 Y86.066 Z0.375
G0 X85.768 Y87.624
M205 X8 Y8
G1 F480 Z0.3
G1 F1800 E16.16592
G1 F1200 X87.815 Y85.462 E16.31446
G1 X90.646 Y84.669 E16.46114
G1 X93.477 Y85.462 E16.60781
G1 X95.524 Y87.624 E16.75635
G1 X96.317 Y90.342 E16.89761
G1 X95.524 Y93.175 E17.04438
G1 X93.48 Y95.219 E17.18859
G1 X90.647 Y96.012 E17.33537
G1 X87.929 Y95.218 E17.47664
G1 X85.769 Y93.058 E17.62903
G1 X84.975 Y90.341 E17.77026
G1 X85.768 Y87.624 E17.91146
M205 X10 Y10
G0 F6000 X86.125 Y87.829
M205 X8 Y8
G1 F1200 X88.03 Y85.817 E18.0497
G1 X90.646 Y85.084 E18.18524
G1 X93.262 Y85.817 E18.32078
G1 X95.167 Y87.829 E18.45901
G1 X95.901 Y90.345 E18.58977
G1 X95.167 Y92.966 E18.72556
G1 X93.271 Y94.862 E18.85933
G1 X90.65 Y95.596 E18.99513
G1 X88.14 Y94.863 E19.12558
G1 X86.124 Y92.847 E19.26782
G1 X85.392 Y90.341 E19.39807
G1 X86.125 Y87.829 E19.52862
M205 X10 Y10
G0 F6000 X86.482 Y88.034
M205 X8 Y8
G1 F1200 X88.244 Y86.172 E19.65652
G1 X90.646 Y85.5 E19.78095
G1 X93.048 Y86.172 E19.90539
G1 X94.81 Y88.033 E20.03325
G1 X95.485 Y90.347 E20.15351
G1 X94.81 Y92.757 E20.27837
G1 X93.062 Y94.505 E20.4017
G1 X90.653 Y95.18 E20.52651
G1 X88.351 Y94.508 E20.64616
G1 X86.479 Y92.636 E20.77823
G1 X85.809 Y90.341 E20.89751
G1 X86.482 Y88.034 E21.01741
M205 X10 Y10
G0 F6000 X86.839 Y88.239
M205 X8 Y8
G1 F1200 X88.46 Y86.527 E21.13503
G1 X90.646 Y85.915 E21.24828
